; generated by Slic3r 1.2.9 on 2021-04-14 at 16:51:59

; external perimeters extrusion width = 0.50mm
; perimeters extrusion width = 0.72mm
; infill extrusion width = 0.72mm
; solid infill extrusion width = 0.72mm
; top infill extrusion width = 0.72mm

M107 ; disable fan
M104 S200 ; set temperature
G28 ; home all axes
G1 Z5 F5000 ; lift nozzle

M109 S200 ; wait for temperature to be reached
G21 ; set units to millimeters
G90 ; use absolute coordinates
M82 ; use absolute distances for extrusion
G92 E0 ; reset extrusion distance
G1 Z0.350 F7800.000 ; move to next layer (0)
G1 E-2.00000 F2400.00000 ; retract
G92 E0 ; reset extrusion distance
G1 X70.589 Y88.518 F7800.000 ; move to first skirt point
G1 E2.00000 F2400.00000 ; unretract
G1 X71.205 Y88.070 E2.02357 F1800.000 ; skirt
G1 X71.710 Y87.762 E2.04187 ; skirt
G1 X72.209 Y87.502 E2.05928 ; skirt
G1 X72.753 Y87.266 E2.07764 ; skirt
G1 X73.295 Y87.074 E2.09542 ; skirt
G1 X73.856 Y86.919 E2.11343 ; skirt
G1 X74.445 Y86.798 E2.13204 ; skirt
G1 X74.988 Y86.726 E2.14899 ; skirt
G1 X98.756 Y85.261 E2.88578 ; skirt
G1 X99.575 Y85.227 E2.91115 ; skirt
G1 X100.326 Y85.224 E2.93439 ; skirt
G1 X101.154 Y85.250 E2.96002 F1800.000 ; skirt
G1 X102.039 Y85.313 E2.98747 ; skirt
G1 X102.858 Y85.405 E3.01298 ; skirt
G1 X103.673 Y85.528 E3.03847 ; skirt
G1 X104.433 Y85.671 E3.06240 ; skirt
G1 X105.236 Y85.854 E3.08789 ; skirt
G1 X106.088 Y86.083 E3.11517 ; skirt
G1 X106.852 Y86.320 E3.13995 ; skirt
G1 X107.671 Y86.610 E3.16681 ; skirt
G1 X108.379 Y86.890 E3.19037 ; skirt
G1 X109.165 Y87.237 E3.21697 ; skirt
G1 X109.894 Y87.593 E3.24208 ; skirt
G1 X110.632 Y87.988 E3.26798 ; skirt
G1 X111.324 Y88.394 E3.29280 ; skirt
G1 X112.045 Y88.854 E3.31923 ; skirt
G1 X112.751 Y89.345 E3.34587 ; skirt
G1 X113.381 Y89.820 E3.37027 ; skirt
G1 X114.152 Y90.453 E3.40116 ; skirt
G1 X114.863 Y91.093 E3.43075 ; skirt
G1 X115.454 Y91.671 E3.45632 ; skirt
G1 X116.078 Y92.332 E3.48446 ; skirt
G1 X116.652 Y92.992 E3.51150 ; skirt
G1 X117.280 Y93.781 E3.54271 ; skirt
G1 X117.823 Y94.531 E3.57136 ; skirt
G1 X118.324 Y95.288 E3.59944 ; skirt
G1 X118.753 Y95.998 E3.62511 ; skirt
G1 X118.999 Y96.456 E3.64119 ; skirt
G1 X119.216 Y96.928 E3.65728 ; skirt
G1 X119.436 Y97.519 E3.67679 ; skirt
G1 X119.613 Y98.137 E3.69667 ; skirt
G1 X119.732 Y98.725 E3.71522 ; skirt
G1 X119.817 Y99.451 E3.73786 ; skirt
G1 X119.836 Y100.037 E3.75599 ; skirt
G1 X119.810 Y100.635 E3.77451 ; skirt
G1 X119.744 Y101.203 E3.79221 ; skirt
G1 X119.638 Y101.757 E3.80965 ; skirt
G1 X119.514 Y102.230 E3.82478 ; skirt
G1 X119.347 Y102.737 E3.84131 ; skirt
G1 X119.110 Y103.312 E3.86054 ; skirt
G1 X118.846 Y103.838 E3.87877 ; skirt
G1 X118.396 Y104.596 E3.90603 ; skirt
G1 X117.877 Y105.390 E3.93538 ; skirt
G1 X117.342 Y106.137 E3.96381 ; skirt
G1 X116.834 Y106.787 E3.98933 ; skirt
G1 X116.245 Y107.482 E4.01753 ; skirt
G1 X115.577 Y108.202 E4.04791 ; skirt
G1 X114.897 Y108.875 E4.07751 ; skirt
G1 X114.244 Y109.467 E4.10480 ; skirt
G1 X113.661 Y109.957 E4.12836 ; skirt
G1 X113.022 Y110.455 E4.15341 ; skirt
G1 X112.376 Y110.921 E4.17808 ; skirt
G1 X111.633 Y111.414 E4.20566 ; skirt
G1 X111.016 Y111.791 E4.22804 ; skirt
G1 X110.259 Y112.216 E4.25488 ; skirt
G1 X109.552 Y112.578 E4.27948 ; skirt
G1 X108.753 Y112.949 E4.30672 ; skirt
G1 X108.032 Y113.251 E4.33091 ; skirt
G1 X107.232 Y113.551 E4.35734 ; skirt
G1 X106.412 Y113.821 E4.38407 ; skirt
G1 X105.660 Y114.037 E4.40827 ; skirt
G1 X104.827 Y114.243 E4.43481 ; skirt
G1 X104.003 Y114.413 E4.46085 ; skirt
G1 X103.220 Y114.544 E4.48540 ; skirt
G1 X102.445 Y114.645 E4.50961 ; skirt
G1 X101.555 Y114.726 E4.53726 ; skirt
G1 X100.691 Y114.769 E4.56401 ; skirt
G1 X99.898 Y114.778 E4.58854 ; skirt
G1 X98.986 Y114.751 E4.61680 ; skirt
G1 X74.988 Y113.274 E5.36071 ; skirt
G1 X74.483 Y113.208 E5.37646 ; skirt
G1 X73.850 Y113.080 E5.39645 ; skirt
G1 X73.237 Y112.908 E5.41615 ; skirt
G1 X72.527 Y112.642 E5.43962 ; skirt
G1 X72.005 Y112.398 E5.45745 ; skirt
G1 X71.475 Y112.102 E5.47622 ; skirt
G1 X70.966 Y111.767 E5.49507 ; skirt
G1 X70.444 Y111.363 E5.51552 ; skirt
G1 X69.843 Y110.804 E5.54090 ; skirt
G1 X69.333 Y110.229 E5.56467 ; skirt
G1 X68.943 Y109.707 E5.58484 ; skirt
G1 X68.486 Y108.957 E5.61201 ; skirt
G1 X68.176 Y108.320 E5.63394 ; skirt
G1 X67.963 Y107.778 E5.65194 ; skirt
G1 X67.833 Y107.382 E5.66485 ; skirt
G1 X67.694 Y106.862 E5.68152 ; skirt
G1 X67.582 Y106.293 E5.69946 ; skirt
G1 X67.497 Y105.602 E5.72099 ; skirt
G1 X67.468 Y105.003 E5.73954 ; skirt
G1 X67.467 Y95.105 E6.04580 ; skirt
G1 X67.512 Y94.238 E6.07267 ; skirt
G1 X67.566 Y93.804 E6.08621 ; skirt
G1 X67.657 Y93.306 E6.10187 ; skirt
G1 X67.798 Y92.738 E6.11996 ; skirt
G1 X67.963 Y92.222 E6.13674 ; skirt
G1 X68.241 Y91.536 E6.15963 ; skirt
G1 X68.628 Y90.790 E6.18563 ; skirt
G1 X68.862 Y90.414 E6.19933 ; skirt
G1 X69.233 Y89.897 E6.21902 ; skirt
G1 X69.840 Y89.200 E6.24763 ; skirt
G1 X70.096 Y88.947 E6.25876 ; skirt
G1 X70.531 Y88.566 E6.27666 ; skirt
G1 E4.27666 F2400.00000 ; retract
G92 E0 ; reset extrusion distance
G1 X101.889 Y103.155 F7800.000 ; move to first perimeter point
G1 E2.00000 F2400.00000 ; unretract
G1 X101.639 Y103.356 E2.00992 F1800.000 ; perimeter
G1 X101.378 Y103.441 E2.01841 ; perimeter
G1 X101.107 Y103.447 E2.02681 ; perimeter
G1 X100.856 Y103.371 E2.03493 ; perimeter
G1 X100.652 Y103.218 E2.04280 ; perimeter
G1 X100.447 Y102.934 E2.05365 ; perimeter
G1 X100.125 Y102.355 E2.07414 ; perimeter
G1 X99.862 Y102.804 E2.09025 ; perimeter
G1 X99.646 Y103.110 E2.10184 ; perimeter
G1 X99.455 Y103.299 E2.11015 ; perimeter
G1 X99.154 Y103.438 E2.12041 ; perimeter
G1 X98.814 Y103.404 E2.13098 ; perimeter
G1 X98.514 Y103.240 E2.14155 ; perimeter
G1 X98.334 Y103.028 E2.15015 ; perimeter
G1 X98.166 Y102.545 E2.16598 ; perimeter
G1 X97.907 Y103.093 E2.18474 ; perimeter
G1 X97.755 Y103.288 E2.19240 ; perimeter
G1 X97.571 Y103.453 E2.20005 ; perimeter
G1 X97.272 Y103.620 E2.21065 ; perimeter
G1 X97.034 Y103.690 E2.21831 ; perimeter
G1 X96.798 Y103.715 E2.22568 ; perimeter
G1 X96.560 Y103.699 E2.23306 ; perimeter
G1 X96.329 Y103.642 E2.24041 ; perimeter
G1 X96.102 Y103.542 E2.24808 ; perimeter
G1 X95.828 Y103.336 E2.25869 ; perimeter
G1 X95.667 Y103.149 E2.26632 ; perimeter
G1 X95.543 Y102.937 E2.27393 ; perimeter
G1 X95.438 Y102.610 E2.28454 ; perimeter
G1 X95.396 Y102.114 E2.29995 ; perimeter
G1 X95.111 Y102.452 E2.31364 ; perimeter
G1 X94.917 Y102.631 E2.32180 ; perimeter
G1 X94.714 Y102.785 E2.32969 ; perimeter
G1 X94.393 Y102.965 E2.34108 ; perimeter
G1 X93.943 Y103.117 E2.35577 ; perimeter
G1 X93.386 Y103.207 E2.37321 ; perimeter
G1 X92.853 Y103.234 E2.38974 ; perimeter
G1 X92.038 Y103.226 E2.41495 ; perimeter
G1 X91.589 Y103.268 E2.42892 ; perimeter
G1 X91.351 Y103.249 E2.43630 ; perimeter
G1 X91.175 Y103.183 E2.44211 ; perimeter
G1 X90.994 Y103.036 E2.44932 ; perimeter
G1 X90.864 Y102.822 E2.45706 ; perimeter
G1 X90.788 Y102.566 E2.46534 ; perimeter
G1 X90.762 Y102.271 E2.47448 ; perimeter
G1 X90.780 Y101.663 E2.49332 ; perimeter
G1 X90.784 Y98.055 E2.60496 ; perimeter
G1 X90.740 Y97.410 E2.62495 ; perimeter
G1 X90.832 Y97.077 E2.63563 ; perimeter
G1 X91.073 Y96.843 E2.64601 ; perimeter
G1 X91.398 Y96.718 E2.65679 ; perimeter
G1 X91.722 Y96.684 E2.66688 ; perimeter
G1 X93.347 Y96.721 E2.71718 ; perimeter
G1 X93.816 Y96.782 E2.73180 ; perimeter
G1 X94.308 Y96.910 E2.74753 ; perimeter
G1 X94.712 Y97.107 E2.76144 ; perimeter
G1 X95.076 Y97.398 E2.77586 ; perimeter
G1 X95.363 Y97.733 E2.78950 ; perimeter
G1 X95.623 Y98.177 E2.80544 ; perimeter
G1 X95.774 Y98.559 E2.81815 ; perimeter
G1 X95.853 Y98.843 E2.82727 ; perimeter
G1 X95.950 Y99.460 E2.84658 ; perimeter
G1 X95.971 Y99.980 E2.86268 ; perimeter
G1 X95.957 Y100.347 E2.87405 ; perimeter
G1 X95.810 Y101.360 E2.90571 ; perimeter
G1 X96.216 Y101.130 E2.92014 ; perimeter
G1 X96.448 Y101.052 E2.92771 ; perimeter
G1 X96.729 Y101.014 E2.93651 ; perimeter
G1 X97.029 Y101.038 E2.94582 ; perimeter
G1 X97.265 Y101.107 E2.95342 ; perimeter
G1 X97.478 Y101.215 E2.96082 ; perimeter
G1 X97.668 Y101.357 E2.96815 ; perimeter
G1 X97.835 Y101.535 E2.97569 ; perimeter
G1 X97.985 Y101.779 E2.98455 ; perimeter
G1 X98.223 Y102.448 E3.00654 ; perimeter
G1 X98.905 Y101.252 E3.04916 ; perimeter
G1 X99.249 Y100.766 E3.06756 ; perimeter
G1 X98.998 Y100.388 E3.08159 ; perimeter
G1 X98.429 Y99.362 E3.11790 ; perimeter
G1 X98.337 Y99.088 E3.12686 ; perimeter
G1 X98.319 Y98.757 E3.13711 ; perimeter
G1 X98.445 Y98.464 E3.14699 ; perimeter
G1 X98.633 Y98.287 E3.15497 ; perimeter
G1 X98.810 Y98.191 E3.16121 ; perimeter
G1 X99.119 Y98.122 E3.17101 ; perimeter
G1 X99.447 Y98.194 E3.18139 ; perimeter
G1 X99.616 Y98.300 E3.18756 ; perimeter
G1 X99.801 Y98.480 E3.19554 ; perimeter
G1 X100.194 Y99.050 E3.21697 ; perimeter
G1 X100.400 Y98.678 E3.23012 ; perimeter
G1 X100.601 Y98.436 E3.23986 ; perimeter
G1 X100.813 Y98.260 E3.24838 ; perimeter
G1 X101.113 Y98.130 E3.25851 ; perimeter
G1 X101.445 Y98.157 E3.26881 ; perimeter
G1 X101.732 Y98.341 E3.27934 ; perimeter
G1 X101.919 Y98.598 E3.28919 ; perimeter
G1 X101.998 Y98.933 E3.29983 ; perimeter
G1 X101.909 Y99.287 E3.31112 ; perimeter
G1 X101.216 Y100.459 E3.35324 ; perimeter
G1 X101.153 Y100.609 E3.35827 ; perimeter
G1 X101.142 Y100.786 E3.36378 ; perimeter
G1 X101.178 Y100.881 E3.36691 ; perimeter
G1 X101.858 Y102.014 E3.40780 ; perimeter
G1 X102.005 Y102.340 E3.41885 ; perimeter
G1 X102.048 Y102.629 E3.42789 ; perimeter
G1 X102.013 Y102.905 E3.43651 ; perimeter
G1 X101.922 Y103.087 E3.44283 ; perimeter
G1 X101.983 Y103.461 F7800.000 ; move inwards before travel
G1 E1.44283 F2400.00000 ; retract
G92 E0 ; reset extrusion distance
G1 X86.354 Y101.393 F7800.000 ; move to first perimeter point
G1 E2.00000 F2400.00000 ; unretract
G1 X86.703 Y101.331 E2.01094 F1800.000 ; perimeter
G1 X86.986 Y101.364 E2.01978 ; perimeter
G1 X87.222 Y101.450 E2.02753 ; perimeter
G1 X87.659 Y101.764 E2.04420 ; perimeter
G1 X87.734 Y101.803 E2.04680 ; perimeter
G1 X87.826 Y101.816 E2.04969 ; perimeter
G1 X87.905 Y101.802 E2.05216 ; perimeter
G1 X88.064 Y101.726 E2.05763 ; perimeter
G1 X88.149 Y101.651 E2.06112 ; perimeter
G1 X88.215 Y101.555 E2.06473 ; perimeter
G1 X88.257 Y101.447 E2.06831 ; perimeter
G1 X88.274 Y101.276 E2.07362 ; perimeter
G1 X88.238 Y101.109 E2.07891 ; perimeter
G1 X88.134 Y100.915 E2.08573 ; perimeter
G1 X88.016 Y100.779 E2.09130 ; perimeter
G1 X87.871 Y100.664 E2.09702 ; perimeter
G1 X87.705 Y100.580 E2.10275 ; perimeter
G1 X87.590 Y100.543 E2.10650 ; perimeter
G1 X87.093 Y100.451 E2.12216 ; perimeter
G1 X86.853 Y100.360 E2.13008 ; perimeter
G1 X86.628 Y100.147 E2.13968 ; perimeter
G1 X86.540 Y99.894 E2.14797 ; perimeter
G1 X86.535 Y99.630 E2.15613 ; perimeter
G1 X86.600 Y99.368 E2.16447 ; perimeter
G1 X86.691 Y99.186 E2.17078 ; perimeter
G1 X86.868 Y98.980 E2.17919 ; perimeter
G1 X87.155 Y98.839 E2.18906 ; perimeter
G1 X87.619 Y98.761 E2.20363 ; perimeter
G1 X87.742 Y98.719 E2.20765 ; perimeter
G1 X87.837 Y98.658 E2.21115 ; perimeter
G1 X87.915 Y98.576 E2.21464 ; perimeter
G1 X87.962 Y98.492 E2.21762 ; perimeter
G1 X87.978 Y98.426 E2.21972 ; perimeter
G1 X87.967 Y98.307 E2.22342 ; perimeter
G1 X87.937 Y98.238 E2.22575 ; perimeter
G1 X87.874 Y98.160 E2.22885 ; perimeter
G1 X87.695 Y98.130 E2.23449 ; perimeter
G1 X87.507 Y98.178 E2.24047 ; perimeter
G1 X87.015 Y98.485 E2.25842 ; perimeter
G1 X86.839 Y98.554 E2.26427 ; perimeter
G1 X86.601 Y98.576 E2.27167 ; perimeter
G1 X86.356 Y98.497 E2.27964 ; perimeter
G1 X86.123 Y98.313 E2.28881 ; perimeter
G1 X85.960 Y98.086 E2.29749 ; perimeter
G1 X85.863 Y97.824 E2.30613 ; perimeter
G1 X85.853 Y97.552 E2.31454 ; perimeter
G1 X85.969 Y97.256 E2.32438 ; perimeter
G1 X86.147 Y97.047 E2.33287 ; perimeter
G1 X86.378 Y96.872 E2.34184 ; perimeter
G1 X86.675 Y96.718 E2.35220 ; perimeter
G1 X87.004 Y96.607 E2.36295 ; perimeter
G1 X87.367 Y96.542 E2.37434 ; perimeter
G1 X87.648 Y96.522 E2.38308 ; perimeter
G1 X87.996 Y96.526 E2.39384 ; perimeter
G1 X88.291 Y96.558 E2.40302 ; perimeter
G1 X88.633 Y96.632 E2.41385 ; perimeter
G1 X88.857 Y96.711 E2.42119 ; perimeter
G1 X89.138 Y96.862 E2.43106 ; perimeter
G1 X89.315 Y97.000 E2.43800 ; perimeter
G1 X89.528 Y97.229 E2.44767 ; perimeter
G1 X89.692 Y97.498 E2.45744 ; perimeter
G1 X89.799 Y97.864 E2.46924 ; perimeter
G1 X89.819 Y98.186 E2.47922 ; perimeter
G1 X89.781 Y98.700 E2.49517 ; perimeter
G1 X89.684 Y99.059 E2.50666 ; perimeter
G1 X89.537 Y99.296 E2.51528 ; perimeter
G1 X89.344 Y99.472 E2.52340 ; perimeter
G1 X89.639 Y99.780 E2.53657 ; perimeter
G1 X89.806 Y100.094 E2.54761 ; perimeter
G1 X89.942 Y100.519 E2.56141 ; perimeter
G1 X90.032 Y100.897 E2.57342 ; perimeter
G1 X90.063 Y101.234 E2.58389 ; perimeter
G1 X90.015 Y101.669 E2.59743 ; perimeter
G1 X89.865 Y102.117 E2.61206 ; perimeter
G1 X89.683 Y102.448 E2.62375 ; perimeter
G1 X89.384 Y102.809 E2.63824 ; perimeter
G1 X89.021 Y103.088 E2.65240 ; perimeter
G1 X88.698 Y103.247 E2.66355 ; perimeter
G1 X88.259 Y103.366 E2.67763 ; perimeter
G1 X87.865 Y103.405 E2.68988 ; perimeter
G1 X87.436 Y103.399 E2.70316 ; perimeter
G1 X87.050 Y103.345 E2.71521 ; perimeter
G1 X86.727 Y103.255 E2.72558 ; perimeter
G1 X86.446 Y103.130 E2.73510 ; perimeter
G1 X86.210 Y102.962 E2.74407 ; perimeter
G1 X86.019 Y102.742 E2.75309 ; perimeter
G1 X85.883 Y102.431 E2.76357 ; perimeter
G1 X85.847 Y102.137 E2.77276 ; perimeter
G1 X85.917 Y101.797 E2.78350 ; perimeter
G1 X86.078 Y101.566 E2.79220 ; perimeter
G1 X86.291 Y101.433 E2.79996 ; perimeter
G1 X86.431 Y101.048 F7800.000 ; move inwards before travel
G1 X84.761 Y102.985 F7800.000 ; move to first perimeter point
G1 X84.950 Y103.416 E2.81451 F1800.000 ; perimeter
G1 X85.364 Y103.895 E2.83410 ; perimeter
G1 X85.825 Y104.221 E2.85156 ; perimeter
G1 X86.302 Y104.434 E2.86772 ; perimeter
G1 X86.795 Y104.572 E2.88358 ; perimeter
G1 X87.340 Y104.647 E2.90061 ; perimeter
G1 X87.917 Y104.656 E2.91845 ; perimeter
G1 X88.486 Y104.600 E2.93615 ; perimeter
G1 X89.142 Y104.421 E2.95719 ; perimeter
G1 X89.685 Y104.154 E2.97591 ; perimeter
G1 X90.046 Y103.876 E2.99000 ; perimeter
G1 X90.545 Y104.281 E3.00988 ; perimeter
G1 X91.074 Y104.480 E3.02738 ; perimeter
G1 X91.596 Y104.523 E3.04357 ; perimeter
G1 X92.091 Y104.477 E3.05895 ; perimeter
G1 X92.879 Y104.484 E3.08334 ; perimeter
G1 X93.518 Y104.451 E3.10316 ; perimeter
G1 X94.244 Y104.334 E3.12590 ; perimeter
G1 X94.859 Y104.127 E3.14599 ; perimeter
G1 X94.969 Y104.254 E3.15118 ; perimeter
G1 X95.465 Y104.626 E3.17039 ; perimeter
G1 X95.923 Y104.830 E3.18588 ; perimeter
G1 X96.367 Y104.939 E3.20003 ; perimeter
G1 X96.823 Y104.970 E3.21418 ; perimeter
G1 X97.280 Y104.920 E3.22840 ; perimeter
G1 X97.759 Y104.779 E3.24385 ; perimeter
G1 X98.236 Y104.513 E3.26075 ; perimeter
G1 X98.437 Y104.623 E3.26784 ; perimeter
G1 X99.368 Y104.714 E3.29680 ; perimeter
G1 X100.110 Y104.374 E3.32205 ; perimeter
G1 X100.282 Y104.503 E3.32869 ; perimeter
G1 X100.730 Y104.639 E3.34318 ; perimeter
G1 X100.654 Y104.935 E3.35264 ; perimeter
G1 X100.782 Y105.746 E3.37805 ; perimeter
G1 X101.180 Y106.499 E3.40439 ; perimeter
G1 X100.709 Y106.537 E3.41900 ; perimeter
G1 X99.835 Y106.551 E3.44605 ; perimeter
G1 X99.208 Y106.527 E3.46546 ; perimeter
G1 X75.923 Y105.099 E4.18728 ; perimeter
G1 X75.706 Y105.062 E4.19411 ; perimeter
G1 X75.692 Y104.231 E4.21983 ; perimeter
G1 X76.232 Y104.444 E4.23778 ; perimeter
G1 X76.647 Y104.559 E4.25110 ; perimeter
G1 X77.056 Y104.628 E4.26394 ; perimeter
G1 X77.638 Y104.659 E4.28199 ; perimeter
G1 X78.202 Y104.622 E4.29945 ; perimeter
G1 X78.732 Y104.518 E4.31618 ; perimeter
G1 X79.230 Y104.341 E4.33251 ; perimeter
G1 X79.591 Y104.152 E4.34515 ; perimeter
G1 X80.015 Y103.849 E4.36126 ; perimeter
G1 X80.418 Y103.430 E4.37923 ; perimeter
G1 X80.649 Y103.051 E4.39297 ; perimeter
G1 X81.121 Y103.853 E4.42177 ; perimeter
G1 X81.798 Y104.346 E4.44768 ; perimeter
G1 X82.633 Y104.534 E4.47416 ; perimeter
G1 X83.426 Y104.427 E4.49891 ; perimeter
G1 X84.053 Y104.085 E4.52101 ; perimeter
G1 X84.507 Y103.572 E4.54223 ; perimeter
G1 X84.732 Y103.054 E4.55969 ; perimeter
G1 X84.835 Y100.707 F7800.000 ; move to first perimeter point
