; generated by PrusaSlicer 2.1.1 on 2021-04-14 at 13:55:28 UTC

; 

; external perimeters extrusion width = 0.45mm
; perimeters extrusion width = 0.45mm
; infill extrusion width = 0.45mm
; solid infill extrusion width = 0.45mm
; top infill extrusion width = 0.40mm
; first layer extrusion width = 0.70mm

M107 ; disable fan
M104 S200 ; set temperature
G28 ; home all axes
G1 Z5 F5000 ; lift nozzle
M109 S200 ; set temperature and wait for it to be reached
G21 ; set units to millimeters
G90 ; use absolute coordinates
M82 ; use absolute distances for extrusion
G92 E0 ; reset extrusion distance
; Filament gcode
G1 Z0.350 F7800.000 ; move to next layer (0)
G1 E-2.00000 F2400.00000 ; retract
G92 E0 ; reset extrusion distance
G1 X69.551 Y89.999 F7800.000 ; move to first skirt point
G1 E2.00000 F2400.00000 ; unretract
G1 F1800
G1 X70.761 Y88.780 E2.15616 ; skirt
G1 X71.664 Y88.149 E2.25628 ; skirt
G1 X72.682 Y87.632 E2.36016 ; skirt
G1 X73.772 Y87.261 E2.46481 ; skirt
G1 X74.916 Y87.048 E2.57067 ; skirt
G1 X100.004 Y85.534 E4.85604 ; skirt
G1 X102.775 Y85.709 E5.10846 ; skirt
G1 X105.536 Y86.254 E5.36443 ; skirt
G1 X108.265 Y87.181 E5.62646 ; skirt
G1 X110.760 Y88.421 E5.87988 ; skirt
G1 X113.112 Y90.007 E6.13777 ; skirt
G1 X115.243 Y91.902 E6.39706 ; skirt
G1 X117.054 Y94.001 E6.64914 ; skirt
G1 X118.555 Y96.281 E6.89738 ; skirt
G1 X119.194 Y97.788 E7.04621 ; skirt
G1 X119.502 Y99.431 E7.19819 ; skirt
G1 X119.446 Y101.080 E7.34828 ; skirt
G1 X119.025 Y102.706 E7.50097 ; skirt
G1 X118.201 Y104.318 E7.66565 ; skirt
G1 X116.755 Y106.386 E7.89506 ; skirt
G1 X115.205 Y108.137 E8.10764 ; skirt
G1 X113.475 Y109.706 E8.32009 ; skirt
G1 X112.075 Y110.749 E8.47883 ; skirt
G1 X110.554 Y111.696 E8.64174 ; skirt
G1 X109.015 Y112.489 E8.79917 ; skirt
G1 X107.288 Y113.199 E8.96890 ; skirt
G1 X105.548 Y113.743 E9.13470 ; skirt
G1 X103.713 Y114.148 E9.30557 ; skirt
G1 X102.025 Y114.374 E9.46045 ; skirt
G1 X100.186 Y114.466 E9.62787 ; skirt
G1 X74.704 Y112.925 E11.94920 ; skirt
G1 X73.218 Y112.572 E12.08804 ; skirt
G1 X71.814 Y111.939 E12.22810 ; skirt
G1 X70.625 Y111.107 E12.36004 ; skirt
G1 X69.559 Y110.011 E12.49907 ; skirt
G1 X68.911 Y109.075 E12.60261 ; skirt
G1 X68.403 Y108.055 E12.70622 ; skirt
G1 X68.043 Y106.976 E12.80959 ; skirt
G1 X67.837 Y105.866 E12.91226 ; skirt
G1 X67.780 Y104.924 E12.99811 ; skirt
G1 X67.794 Y94.624 E13.93471 ; skirt
G1 X68.053 Y92.984 E14.08566 ; skirt
G1 X68.650 Y91.406 E14.23909 ; skirt
G1 X69.519 Y90.049 E14.38556 ; skirt
G1 E12.38556 F2400.00000 ; retract
G92 E0 ; reset extrusion distance
G1 X98.165 Y102.549 F7800.000 ; move to first perimeter point
G1 E2.00000 F2400.00000 ; unretract
G1 F1800
G1 X97.907 Y103.093 E2.05470 ; perimeter
G1 X97.755 Y103.288 E2.07721 ; perimeter
G1 X97.571 Y103.453 E2.09970 ; perimeter
G1 X97.272 Y103.620 E2.13084 ; perimeter
G1 X97.034 Y103.690 E2.15336 ; perimeter
G1 X96.798 Y103.715 E2.17501 ; perimeter
G1 X96.560 Y103.699 E2.19671 ; perimeter
G1 X96.329 Y103.642 E2.21831 ; perimeter
G1 X96.102 Y103.542 E2.24086 ; perimeter
G1 X95.828 Y103.336 E2.27204 ; perimeter
G1 X95.667 Y103.149 E2.29445 ; perimeter
G1 X95.543 Y102.937 E2.31682 ; perimeter
G1 X95.438 Y102.610 E2.34800 ; perimeter
G1 X95.396 Y102.114 E2.39329 ; perimeter
G1 X95.111 Y102.452 E2.43352 ; perimeter
G1 X94.917 Y102.631 E2.45750 ; perimeter
G1 X94.714 Y102.785 E2.48067 ; perimeter
G1 X94.393 Y102.965 E2.51416 ; perimeter
G1 X93.943 Y103.117 E2.55732 ; perimeter
G1 X93.386 Y103.207 E2.60856 ; perimeter
G1 X92.853 Y103.234 E2.65715 ; perimeter
G1 X92.038 Y103.226 E2.73123 ; perimeter
G1 X91.589 Y103.268 E2.77230 ; perimeter
G1 X91.351 Y103.249 E2.79397 ; perimeter
G1 X91.175 Y103.183 E2.81106 ; perimeter
G1 X90.994 Y103.036 E2.83225 ; perimeter
G1 X90.864 Y102.822 E2.85500 ; perimeter
G1 X90.788 Y102.566 E2.87932 ; perimeter
G1 X90.762 Y102.271 E2.90619 ; perimeter
G1 X90.780 Y101.663 E2.96155 ; perimeter
G1 X90.784 Y98.055 E3.28962 ; perimeter
G1 X90.740 Y97.410 E3.34837 ; perimeter
G1 X90.832 Y97.077 E3.37977 ; perimeter
G1 X91.073 Y96.843 E3.41026 ; perimeter
G1 X91.398 Y96.718 E3.44195 ; perimeter
G1 X91.722 Y96.684 E3.47161 ; perimeter
G1 X93.347 Y96.721 E3.61943 ; perimeter
G1 X93.816 Y96.782 E3.66238 ; perimeter
G1 X94.308 Y96.910 E3.70862 ; perimeter
G1 X94.712 Y97.107 E3.74951 ; perimeter
G1 X95.076 Y97.398 E3.79187 ; perimeter
G1 X95.363 Y97.733 E3.83196 ; perimeter
G1 X95.623 Y98.177 E3.87880 ; perimeter
G1 X95.774 Y98.559 E3.91614 ; perimeter
G1 X95.853 Y98.843 E3.94295 ; perimeter
G1 X95.950 Y99.460 E3.99969 ; perimeter
G1 X95.971 Y99.980 E4.04703 ; perimeter
G1 X95.957 Y100.347 E4.08043 ; perimeter
G1 X95.810 Y101.360 E4.17347 ; perimeter
G1 X96.216 Y101.130 E4.21589 ; perimeter
G1 X96.448 Y101.052 E4.23814 ; perimeter
G1 X96.729 Y101.014 E4.26397 ; perimeter
G1 X97.029 Y101.038 E4.29133 ; perimeter
G1 X97.265 Y101.107 E4.31368 ; perimeter
G1 X97.478 Y101.215 E4.33543 ; perimeter
G1 X97.668 Y101.357 E4.35698 ; perimeter
G1 X97.833 Y101.532 E4.37878 ; perimeter
G1 X97.962 Y101.733 E4.40053 ; perimeter
G1 X98.058 Y101.959 E4.42290 ; perimeter
G1 X98.154 Y102.490 E4.47190 ; perimeter
G1 X98.461 Y102.818 F7800.000 ; move inwards before travel
G1 E2.47190 F2400.00000 ; retract
G92 E0 ; reset extrusion distance
G1 X89.344 Y99.472 F7800.000 ; move to first perimeter point
G1 E2.00000 F2400.00000 ; unretract
G1 F1800
G1 X89.639 Y99.780 E2.03872 ; perimeter
G1 X89.806 Y100.094 E2.07115 ; perimeter
G1 X89.942 Y100.519 E2.11171 ; perimeter
G1 X90.032 Y100.897 E2.14701 ; perimeter
G1 X90.063 Y101.234 E2.17778 ; perimeter
G1 X90.015 Y101.669 E2.21755 ; perimeter
G1 X89.865 Y102.117 E2.26055 ; perimeter
G1 X89.683 Y102.448 E2.29490 ; perimeter
G1 X89.384 Y102.809 E2.33750 ; perimeter
G1 X89.021 Y103.088 E2.37910 ; perimeter
G1 X88.698 Y103.247 E2.41188 ; perimeter
G1 X88.259 Y103.366 E2.45324 ; perimeter
G1 X87.865 Y103.405 E2.48925 ; perimeter
G1 X87.436 Y103.399 E2.52828 ; perimeter
G1 X87.050 Y103.345 E2.56369 ; perimeter
G1 X86.727 Y103.255 E2.59417 ; perimeter
G1 X86.446 Y103.130 E2.62214 ; perimeter
G1 X86.210 Y102.962 E2.64851 ; perimeter
G1 X86.019 Y102.742 E2.67500 ; perimeter
G1 X85.883 Y102.431 E2.70581 ; perimeter
G1 X85.847 Y102.137 E2.73282 ; perimeter
G1 X85.917 Y101.797 E2.76439 ; perimeter
G1 X86.078 Y101.566 E2.78995 ; perimeter
G1 X86.354 Y101.393 E2.81956 ; perimeter
G1 X86.703 Y101.331 E2.85172 ; perimeter
G1 X86.986 Y101.364 E2.87770 ; perimeter
G1 X87.222 Y101.450 E2.90045 ; perimeter
G1 X87.659 Y101.764 E2.94946 ; perimeter
G1 X87.734 Y101.803 E2.95709 ; perimeter
G1 X87.826 Y101.816 E2.96558 ; perimeter
G1 X87.905 Y101.802 E2.97284 ; perimeter
G1 X88.064 Y101.726 E2.98891 ; perimeter
G1 X88.149 Y101.651 E2.99919 ; perimeter
G1 X88.215 Y101.555 E3.00978 ; perimeter
G1 X88.257 Y101.447 E3.02031 ; perimeter
G1 X88.274 Y101.276 E3.03592 ; perimeter
G1 X88.238 Y101.109 E3.05147 ; perimeter
G1 X88.134 Y100.915 E3.07150 ; perimeter
G1 X88.016 Y100.779 E3.08787 ; perimeter
G1 X87.871 Y100.664 E3.10467 ; perimeter
G1 X87.705 Y100.580 E3.12152 ; perimeter
G1 X87.590 Y100.543 E3.13253 ; perimeter
G1 X87.093 Y100.451 E3.17855 ; perimeter
G1 X86.853 Y100.360 E3.20182 ; perimeter
G1 X86.628 Y100.147 E3.23003 ; perimeter
G1 X86.540 Y99.894 E3.25442 ; perimeter
G1 X86.535 Y99.630 E3.27838 ; perimeter
G1 X86.600 Y99.368 E3.30291 ; perimeter
G1 X86.691 Y99.186 E3.32145 ; perimeter
G1 X86.868 Y98.980 E3.34615 ; perimeter
G1 X87.155 Y98.839 E3.37517 ; perimeter
G1 X87.619 Y98.761 E3.41797 ; perimeter
G1 X87.742 Y98.719 E3.42979 ; perimeter
G1 X87.837 Y98.658 E3.44007 ; perimeter
G1 X87.915 Y98.576 E3.45034 ; perimeter
G1 X87.962 Y98.492 E3.45909 ; perimeter
G1 X87.978 Y98.426 E3.46528 ; perimeter
G1 X87.967 Y98.307 E3.47613 ; perimeter
G1 X87.937 Y98.238 E3.48300 ; perimeter
G1 X87.874 Y98.160 E3.49211 ; perimeter
G1 X87.695 Y98.130 E3.50868 ; perimeter
G1 X87.507 Y98.178 E3.52626 ; perimeter
G1 X87.015 Y98.485 E3.57901 ; perimeter
G1 X86.839 Y98.554 E3.59618 ; perimeter
G1 X86.601 Y98.576 E3.61793 ; perimeter
G1 X86.356 Y98.497 E3.64136 ; perimeter
G1 X86.123 Y98.313 E3.66830 ; perimeter
G1 X85.960 Y98.086 E3.69380 ; perimeter
G1 X85.863 Y97.824 E3.71922 ; perimeter
G1 X85.853 Y97.552 E3.74393 ; perimeter
G1 X85.969 Y97.256 E3.77284 ; perimeter
G1 X86.147 Y97.047 E3.79778 ; perimeter
G1 X86.378 Y96.872 E3.82415 ; perimeter
G1 X86.675 Y96.718 E3.85460 ; perimeter
G1 X87.004 Y96.607 E3.88617 ; perimeter
G1 X87.367 Y96.542 E3.91967 ; perimeter
G1 X87.648 Y96.522 E3.94533 ; perimeter
G1 X87.996 Y96.526 E3.97697 ; perimeter
G1 X88.291 Y96.558 E4.00393 ; perimeter
G1 X88.633 Y96.632 E4.03576 ; perimeter
G1 X88.857 Y96.711 E4.05734 ; perimeter
G1 X89.138 Y96.862 E4.08634 ; perimeter
G1 X89.315 Y97.000 E4.10674 ; perimeter
G1 X89.528 Y97.229 E4.13516 ; perimeter
G1 X89.692 Y97.498 E4.16388 ; perimeter
G1 X89.799 Y97.864 E4.19856 ; perimeter
G1 X89.819 Y98.186 E4.22788 ; perimeter
G1 X89.781 Y98.700 E4.27475 ; perimeter
G1 X89.684 Y99.059 E4.30851 ; perimeter
G1 X89.537 Y99.296 E4.33385 ; perimeter
G1 X89.388 Y99.432 E4.35225 ; perimeter
G1 X89.732 Y99.569 F7800.000 ; move inwards before travel
G1 E2.35225 F2400.00000 ; retract
G92 E0 ; reset extrusion distance
G1 X90.046 Y103.876 F7800.000 ; move to first perimeter point
G1 E2.00000 F2400.00000 ; unretract
G1 F1800
G1 X90.545 Y104.281 E2.05842 ; perimeter
G1 X91.074 Y104.480 E2.10983 ; perimeter
G1 X91.596 Y104.523 E2.15742 ; perimeter
G1 X92.091 Y104.477 E2.20262 ; perimeter
G1 X92.879 Y104.484 E2.27430 ; perimeter
G1 X93.518 Y104.451 E2.33253 ; perimeter
G1 X94.244 Y104.334 E2.39937 ; perimeter
G1 X94.859 Y104.127 E2.45841 ; perimeter
G1 X94.969 Y104.254 E2.47365 ; perimeter
G1 X95.465 Y104.626 E2.53013 ; perimeter
G1 X95.923 Y104.830 E2.57564 ; perimeter
G1 X96.367 Y104.939 E2.61721 ; perimeter
G1 X96.823 Y104.970 E2.65879 ; perimeter
G1 X97.280 Y104.920 E2.70059 ; perimeter
G1 X97.759 Y104.779 E2.74598 ; perimeter
G1 X98.236 Y104.513 E2.79566 ; perimeter
G1 X98.437 Y104.623 E2.81649 ; perimeter
G1 X99.368 Y104.714 E2.90160 ; perimeter
G1 X100.110 Y104.374 E2.97580 ; perimeter
G1 X100.282 Y104.503 E2.99533 ; perimeter
G1 X100.729 Y104.639 E3.03784 ; perimeter
G1 X100.676 Y104.897 E3.06185 ; perimeter
G1 X100.703 Y105.353 E3.10333 ; perimeter
G1 X100.805 Y105.773 E3.14261 ; perimeter
G1 X101.152 Y106.501 E3.21596 ; perimeter
G1 X100.709 Y106.537 E3.25635 ; perimeter
G1 X99.835 Y106.551 E3.33584 ; perimeter
G1 X99.208 Y106.527 E3.39286 ; perimeter
G1 X75.923 Y105.099 E5.51415 ; perimeter
G1 X75.706 Y105.062 E5.53420 ; perimeter
G1 X75.692 Y104.231 E5.60979 ; perimeter
G1 X76.232 Y104.444 E5.66254 ; perimeter
G1 X76.647 Y104.559 E5.70169 ; perimeter
G1 X77.056 Y104.628 E5.73944 ; perimeter
G1 X77.638 Y104.659 E5.79247 ; perimeter
G1 X78.202 Y104.622 E5.84378 ; perimeter
G1 X78.732 Y104.518 E5.89294 ; perimeter
G1 X79.230 Y104.341 E5.94094 ; perimeter
G1 X79.591 Y104.152 E5.97807 ; perimeter
G1 X80.015 Y103.849 E6.02544 ; perimeter
G1 X80.418 Y103.430 E6.07824 ; perimeter
G1 X80.649 Y103.051 E6.11863 ; perimeter
G1 X81.121 Y103.853 E6.20327 ; perimeter
G1 X81.798 Y104.346 E6.27940 ; perimeter
G1 X82.633 Y104.534 E6.35722 ; perimeter
G1 X83.426 Y104.427 E6.42996 ; perimeter
G1 X84.053 Y104.085 E6.49490 ; perimeter
G1 X84.507 Y103.572 E6.55726 ; perimeter
G1 X84.761 Y102.985 E6.61539 ; perimeter
G1 X84.950 Y103.416 E6.65817 ; perimeter
G1 X85.364 Y103.895 E6.71574 ; perimeter
G1 X85.825 Y104.221 E6.76706 ; perimeter
G1 X86.302 Y104.434 E6.81453 ; perimeter
G1 X86.795 Y104.572 E6.86114 ; perimeter
G1 X87.340 Y104.647 E6.91120 ; perimeter
G1 X87.917 Y104.656 E6.96361 ; perimeter
G1 X88.486 Y104.600 E7.01565 ; perimeter
G1 X89.142 Y104.421 E7.07747 ; perimeter
G1 X89.685 Y104.154 E7.13248 ; perimeter
G1 X89.999 Y103.913 E7.16845 ; perimeter
G1 E5.16845 F2400.00000 ; retract
G92 E0 ; reset extrusion distance
G1 X85.427 Y100.499 F7800.000 ; move to first perimeter point
G1 E2.00000 F2400.00000 ; unretract
G1 F1800
G1 X85.200 Y100.642 E2.02445 ; perimeter
G1 X85.097 Y100.789 E2.04072 ; perimeter
G1 X84.835 Y100.707 E2.06567 ; perimeter
G1 X84.830 Y99.576 E2.16848 ; perimeter
G1 X85.283 Y99.529 E2.20986 ; perimeter
G1 X85.294 Y100.117 E2.26341 ; perimeter
G1 X85.408 Y100.443 E2.29474 ; perimeter
G1 E0.29474 F2400.00000 ; retract
G92 E0 ; reset extrusion distance
G1 X80.694 Y100.932 F7800.000 ; move to first perimeter point
G1 E2.00000 F2400.00000 ; unretract
G1 F1800
G1 X80.114 Y100.328 E2.07612 ; perimeter
G1 X79.295 Y99.957 E2.15781 ; perimeter
G1 X79.808 Y99.800 E2.20655 ; perimeter
G1 X80.141 Y99.546 E2.24466 ; perimeter
G1 X80.686 Y99.643 E2.29498 ; perimeter
G1 X80.693 Y100.872 E2.40672 ; perimeter
G1 X81.307 Y98.973 F7800.000 ; move to first perimeter point
G1 F1800
G1 X81.324 Y101.907 E2.67352 ; perimeter
G1 X81.280 Y102.640 E2.74024 ; perimeter
G1 X81.375 Y103.053 E2.77883 ; perimeter
G1 X81.594 Y103.425 E2.81803 ; perimeter
G1 X82.061 Y103.765 E2.87057 ; perimeter
G1 X82.660 Y103.899 E2.92644 ; perimeter
G1 X83.228 Y103.823 E2.97851 ; perimeter
G1 X83.657 Y103.589 E3.02298 ; perimeter
G1 X83.973 Y103.232 E3.06634 ; perimeter
G1 X84.145 Y102.836 E3.10560 ; perimeter
G1 X84.218 Y102.431 E3.14302 ; perimeter
G1 X84.203 Y98.976 E3.45719 ; perimeter
G1 X84.519 Y98.981 E3.48596 ; perimeter
G1 X84.968 Y98.933 E3.52698 ; perimeter
G1 X85.381 Y98.804 E3.56636 ; perimeter
G1 X85.561 Y98.667 E3.58699 ; perimeter
G1 X86.038 Y99.041 E3.64208 ; perimeter
G1 X85.908 Y99.559 E3.69060 ; perimeter
G1 X85.917 Y100.005 E3.73121 ; perimeter
G1 X86.088 Y100.496 E3.77850 ; perimeter
G1 X86.296 Y100.693 E3.80445 ; perimeter
G1 X85.639 Y101.104 E3.87492 ; perimeter
G1 X85.331 Y101.544 E3.92374 ; perimeter
G1 X85.214 Y102.111 E3.97637 ; perimeter
G1 X85.274 Y102.598 E4.02102 ; perimeter
G1 X85.484 Y103.079 E4.06872 ; perimeter
G1 X85.787 Y103.429 E4.11075 ; perimeter
G1 X86.136 Y103.675 E4.14960 ; perimeter
G1 X86.514 Y103.844 E4.18732 ; perimeter
G1 X86.923 Y103.959 E4.22587 ; perimeter
G1 X87.388 Y104.023 E4.26860 ; perimeter
G1 X87.891 Y104.031 E4.31432 ; perimeter
G1 X88.373 Y103.983 E4.35834 ; perimeter
G1 X88.920 Y103.834 E4.40993 ; perimeter
G1 X89.353 Y103.621 E4.45383 ; perimeter
G1 X89.820 Y103.261 E4.50743 ; perimeter
G1 X90.154 Y102.859 E4.55498 ; perimeter
G1 X90.517 Y103.453 E4.61829 ; perimeter
G1 X90.860 Y103.732 E4.65849 ; perimeter
G1 X91.213 Y103.864 E4.69274 ; perimeter
G1 X91.592 Y103.896 E4.72737 ; perimeter
G1 X92.064 Y103.851 E4.77050 ; perimeter
G1 X92.866 Y103.859 E4.84339 ; perimeter
G1 X93.452 Y103.829 E4.89679 ; perimeter
G1 X94.094 Y103.726 E4.95584 ; perimeter
G1 X94.648 Y103.538 E5.00904 ; perimeter
G1 X95.042 Y103.317 E5.05012 ; perimeter
G1 X95.157 Y103.513 E5.07080 ; perimeter
G1 X95.398 Y103.795 E5.10454 ; perimeter
G1 X95.784 Y104.084 E5.14837 ; perimeter
G1 X96.126 Y104.236 E5.18240 ; perimeter
G1 X96.463 Y104.319 E5.21399 ; perimeter
G1 X96.810 Y104.342 E5.24563 ; perimeter
G1 X97.157 Y104.305 E5.27735 ; perimeter
G1 X97.515 Y104.199 E5.31131 ; perimeter
G1 X97.936 Y103.965 E5.35510 ; perimeter
G1 X98.164 Y103.760 E5.38297 ; perimeter
G1 X98.625 Y104.014 E5.43080 ; perimeter
G1 X99.261 Y104.076 E5.48887 ; perimeter
G1 X99.816 Y103.821 E5.54445 ; perimeter
G1 X100.074 Y103.566 E5.57741 ; perimeter
G1 X100.569 Y103.937 E5.63367 ; perimeter
G1 X101.021 Y104.074 E5.67667 ; perimeter
G1 X101.696 Y104.058 E5.73804 ; perimeter
G1 X101.396 Y104.496 E5.78633 ; perimeter
G1 X101.305 Y104.942 E5.82772 ; perimeter
G1 X101.323 Y105.260 E5.85667 ; perimeter
G1 X101.397 Y105.562 E5.88496 ; perimeter
G1 X101.587 Y105.961 E5.92507 ; perimeter
G1 X101.953 Y106.340 E5.97306 ; perimeter
G1 X102.308 Y106.518 E6.00916 ; perimeter
G1 X102.738 Y106.605 E6.04901 ; perimeter
G1 X102.739 Y106.911 E6.07682 ; perimeter
G1 X102.436 Y106.973 E6.10490 ; perimeter
G1 X101.598 Y107.092 E6.18186 ; perimeter
G1 X100.739 Y107.161 E6.26023 ; perimeter
G1 X99.828 Y107.176 E6.34311 ; perimeter
G1 X99.177 Y107.151 E6.40233 ; perimeter
G1 X75.851 Y105.721 E8.52730 ; perimeter
G1 X75.580 Y105.675 E8.55231 ; perimeter
G1 X75.341 Y105.548 E8.57691 ; perimeter
