; generated by PrusaSlicer 2.1.1 on 2021-04-12 at 15:27:13 UTC

; 

; external perimeters extrusion width = 0.45mm
; perimeters extrusion width = 0.45mm
; infill extrusion width = 0.45mm
; solid infill extrusion width = 0.45mm
; top infill extrusion width = 0.40mm
; first layer extrusion width = 0.70mm

M107
M104 S200 ; set temperature
G28 ; home all axes
G1 Z5 F5000 ; lift nozzle
M109 S200 ; set temperature and wait for it to be reached
G21 ; set units to millimeters
G90 ; use absolute coordinates
M82 ; use absolute distances for extrusion
G92 E0
; Filament gcode
G1 Z0.350 F7800.000
G1 E-2.00000 F2400.00000
G92 E0
G1 X69.551 Y89.999 F7800.000
G1 E2.00000 F2400.00000
G1 F1800
G1 X70.761 Y88.780 E2.15616
G1 X71.664 Y88.149 E2.25628
G1 X72.682 Y87.632 E2.36016
G1 X73.772 Y87.261 E2.46481
G1 X74.916 Y87.048 E2.57067
G1 X100.004 Y85.534 E4.85604
G1 X102.775 Y85.709 E5.10846
G1 X105.536 Y86.254 E5.36443
G1 X108.265 Y87.181 E5.62646
G1 X110.760 Y88.421 E5.87988
G1 X113.112 Y90.007 E6.13777
G1 X115.243 Y91.902 E6.39706
G1 X117.054 Y94.001 E6.64914
G1 X118.555 Y96.281 E6.89738
G1 X119.194 Y97.788 E7.04621
G1 X119.502 Y99.431 E7.19819
G1 X119.446 Y101.080 E7.34828
G1 X119.025 Y102.706 E7.50097
G1 X118.201 Y104.318 E7.66565
G1 X116.755 Y106.386 E7.89506
G1 X115.205 Y108.137 E8.10764
G1 X113.475 Y109.706 E8.32009
G1 X112.075 Y110.749 E8.47883
G1 X110.554 Y111.696 E8.64174
G1 X109.015 Y112.489 E8.79917
G1 X107.288 Y113.199 E8.96890
G1 X105.548 Y113.743 E9.13470
G1 X103.713 Y114.148 E9.30557
G1 X102.025 Y114.374 E9.46045
G1 X100.186 Y114.466 E9.62787
G1 X74.704 Y112.925 E11.94920
G1 X73.218 Y112.572 E12.08804
G1 X71.814 Y111.939 E12.22810
G1 X70.625 Y111.107 E12.36004
G1 X69.559 Y110.011 E12.49907
G1 X68.911 Y109.075 E12.60261
G1 X68.403 Y108.055 E12.70622
G1 X68.043 Y106.976 E12.80959
G1 X67.837 Y105.866 E12.91226
G1 X67.780 Y104.924 E12.99811
G1 X67.794 Y94.624 E13.93471
G1 X68.053 Y92.984 E14.08566
G1 X68.650 Y91.406 E14.23909
G1 X69.519 Y90.049 E14.38556
G1 E12.38556 F2400.00000
G92 E0
G1 X98.165 Y102.549 F7800.000
G1 E2.00000 F2400.00000
G1 F1800
G1 X97.907 Y103.093 E2.05470
G1 X97.755 Y103.288 E2.07721
G1 X97.571 Y103.453 E2.09970
G1 X97.272 Y103.620 E2.13084
G1 X97.034 Y103.690 E2.15336
G1 X96.798 Y103.715 E2.17501
G1 X96.560 Y103.699 E2.19671
G1 X96.329 Y103.642 E2.21831
G1 X96.102 Y103.542 E2.24086
G1 X95.828 Y103.336 E2.27204
G1 X95.667 Y103.149 E2.29445
G1 X95.543 Y102.937 E2.31682
G1 X95.438 Y102.610 E2.34800
G1 X95.396 Y102.114 E2.39329
G1 X95.111 Y102.452 E2.43352
G1 X94.917 Y102.631 E2.45750
G1 X94.714 Y102.785 E2.48067
G1 X94.393 Y102.965 E2.51416
G1 X93.943 Y103.117 E2.55732
G1 X93.386 Y103.207 E2.60856
G1 X92.853 Y103.234 E2.65715
G1 X92.038 Y103.226 E2.73123
G1 X91.589 Y103.268 E2.77230
G1 X91.351 Y103.249 E2.79397
G1 X91.175 Y103.183 E2.81106
G1 X90.994 Y103.036 E2.83225
G1 X90.864 Y102.822 E2.85500
G1 X90.788 Y102.566 E2.87932
G1 X90.762 Y102.271 E2.90619
G1 X90.780 Y101.663 E2.96155
G1 X90.784 Y98.055 E3.28962
G1 X90.740 Y97.410 E3.34837
G1 X90.832 Y97.077 E3.37977
G1 X91.073 Y96.843 E3.41026
G1 X91.398 Y96.718 E3.44195
G1 X91.722 Y96.684 E3.47161
G1 X93.347 Y96.721 E3.61943
G1 X93.816 Y96.782 E3.66238
G1 X94.308 Y96.910 E3.70862
G1 X94.712 Y97.107 E3.74951
G1 X95.076 Y97.398 E3.79187
G1 X95.363 Y97.733 E3.83196
G1 X95.623 Y98.177 E3.87880
G1 X95.774 Y98.559 E3.91614
G1 X95.853 Y98.843 E3.94295
G1 X95.950 Y99.460 E3.99969
G1 X95.971 Y99.980 E4.04703
G1 X95.957 Y100.347 E4.08043
G1 X95.810 Y101.360 E4.17347
G1 X96.216 Y101.130 E4.21589
G1 X96.448 Y101.052 E4.23814
G1 X96.729 Y101.014 E4.26397
G1 X97.029 Y101.038 E4.29133
G1 X97.265 Y101.107 E4.31368
G1 X97.478 Y101.215 E4.33543
G1 X97.668 Y101.357 E4.35698
G1 X97.833 Y101.532 E4.37878
G1 X97.962 Y101.733 E4.40053
G1 X98.058 Y101.959 E4.42290
G1 X98.154 Y102.490 E4.47190
G1 X98.461 Y102.818 F7800.000
G1 E2.47190 F2400.00000
G92 E0
G1 X89.344 Y99.472 F7800.000
G1 E2.00000 F2400.00000
G1 F1800
G1 X89.639 Y99.780 E2.03872
G1 X89.806 Y100.094 E2.07115
G1 X89.942 Y100.519 E2.11171
G1 X90.032 Y100.897 E2.14701
G1 X90.063 Y101.234 E2.17778
G1 X90.015 Y101.669 E2.21755
G1 X89.865 Y102.117 E2.26055
G1 X89.683 Y102.448 E2.29490
G1 X89.384 Y102.809 E2.33750
G1 X89.021 Y103.088 E2.37910
G1 X88.698 Y103.247 E2.41188
G1 X88.259 Y103.366 E2.45324
G1 X87.865 Y103.405 E2.48925
G1 X87.436 Y103.399 E2.52828
G1 X87.050 Y103.345 E2.56369
G1 X86.727 Y103.255 E2.59417
G1 X86.446 Y103.130 E2.62214
G1 X86.210 Y102.962 E2.64851
G1 X86.019 Y102.742 E2.67500
G1 X85.883 Y102.431 E2.70581
G1 X85.847 Y102.137 E2.73282
G1 X85.917 Y101.797 E2.76439
G1 X86.078 Y101.566 E2.78995
G1 X86.354 Y101.393 E2.81956
G1 X86.703 Y101.331 E2.85172
G1 X86.986 Y101.364 E2.87770
G1 X87.222 Y101.450 E2.90045
G1 X87.659 Y101.764 E2.94946
G1 X87.734 Y101.803 E2.95709
G1 X87.826 Y101.816 E2.96558
G1 X87.905 Y101.802 E2.97284
G1 X88.064 Y101.726 E2.98891
G1 X88.149 Y101.651 E2.99919
G1 X88.215 Y101.555 E3.00978
G1 X88.257 Y101.447 E3.02031
G1 X88.274 Y101.276 E3.03592
G1 X88.238 Y101.109 E3.05147
G1 X88.134 Y100.915 E3.07150
G1 X88.016 Y100.779 E3.08787
G1 X87.871 Y100.664 E3.10467
G1 X87.705 Y100.580 E3.12152
G1 X87.590 Y100.543 E3.13253
G1 X87.093 Y100.451 E3.17855
G1 X86.853 Y100.360 E3.20182
G1 X86.628 Y100.147 E3.23003
G1 X86.540 Y99.894 E3.25442
G1 X86.535 Y99.630 E3.27838
G1 X86.600 Y99.368 E3.30291
G1 X86.691 Y99.186 E3.32145
G1 X86.868 Y98.980 E3.34615
G1 X87.155 Y98.839 E3.37517
G1 X87.619 Y98.761 E3.41797
G1 X87.742 Y98.719 E3.42979
G1 X87.837 Y98.658 E3.44007
G1 X87.915 Y98.576 E3.45034
G1 X87.962 Y98.492 E3.45909
G1 X87.978 Y98.426 E3.46528
G1 X87.967 Y98.307 E3.47613
G1 X87.937 Y98.238 E3.48300
G1 X87.874 Y98.160 E3.49211
G1 X87.695 Y98.130 E3.50868
G1 X87.507 Y98.178 E3.52626
G1 X87.015 Y98.485 E3.57901
G1 X86.839 Y98.554 E3.59618
G1 X86.601 Y98.576 E3.61793
G1 X86.356 Y98.497 E3.64136
G1 X86.123 Y98.313 E3.66830
G1 X85.960 Y98.086 E3.69380
G1 X85.863 Y97.824 E3.71922
G1 X85.853 Y97.552 E3.74393
G1 X85.969 Y97.256 E3.77284
G1 X86.147 Y97.047 E3.79778
G1 X86.378 Y96.872 E3.82415
G1 X86.675 Y96.718 E3.85460
G1 X87.004 Y96.607 E3.88617
G1 X87.367 Y96.542 E3.91967
G1 X87.648 Y96.522 E3.94533
G1 X87.996 Y96.526 E3.97697
G1 X88.291 Y96.558 E4.00393
G1 X88.633 Y96.632 E4.03576
G1 X88.857 Y96.711 E4.05734
G1 X89.138 Y96.862 E4.08634
G1 X89.315 Y97.000 E4.10674
G1 X89.528 Y97.229 E4.13516
G1 X89.692 Y97.498 E4.16388
G1 X89.799 Y97.864 E4.19856
G1 X89.819 Y98.186 E4.22788
G1 X89.781 Y98.700 E4.27475
G1 X89.684 Y99.059 E4.30851
G1 X89.537 Y99.296 E4.33385
G1 X89.388 Y99.432 E4.35225
G1 X89.732 Y99.569 F7800.000
G1 E2.35225 F2400.00000
G92 E0
G1 X90.046 Y103.876 F7800.000
G1 E2.00000 F2400.00000
G1 F1800
G1 X90.545 Y104.281 E2.05842
G1 X91.074 Y104.480 E2.10983
G1 X91.596 Y104.523 E2.15742
G1 X92.091 Y104.477 E2.20262
G1 X92.879 Y104.484 E2.27430
G1 X93.518 Y104.451 E2.33253
G1 X94.244 Y104.334 E2.39937
G1 X94.859 Y104.127 E2.45841
G1 X94.969 Y104.254 E2.47365
G1 X95.465 Y104.626 E2.53013
G1 X95.923 Y104.830 E2.57564
G1 X96.367 Y104.939 E2.61721
G1 X96.823 Y104.970 E2.65879
G1 X97.280 Y104.920 E2.70059
G1 X97.759 Y104.779 E2.74598
G1 X98.236 Y104.513 E2.79566
G1 X98.437 Y104.623 E2.81649
G1 X99.368 Y104.714 E2.90160
G1 X100.110 Y104.374 E2.97580
G1 X100.282 Y104.503 E2.99533
G1 X100.729 Y104.639 E3.03784
G1 X100.676 Y104.897 E3.06185
G1 X100.703 Y105.353 E3.10333
G1 X100.805 Y105.773 E3.14261
G1 X101.152 Y106.501 E3.21596
G1 X100.709 Y106.537 E3.25635
G1 X99.835 Y106.551 E3.33584
G1 X99.208 Y106.527 E3.39286
G1 X75.923 Y105.099 E5.51415
G1 X75.706 Y105.062 E5.53420
G1 X75.692 Y104.231 E5.60979
G1 X76.232 Y104.444 E5.66254
G1 X76.647 Y104.559 E5.70169
G1 X77.056 Y104.628 E5.73944
G1 X77.638 Y104.659 E5.79247
G1 X78.202 Y104.622 E5.84378
G1 X78.732 Y104.518 E5.89294
G1 X79.230 Y104.341 E5.94094
G1 X79.591 Y104.152 E5.97807
G1 X80.015 Y103.849 E6.02544
G1 X80.418 Y103.430 E6.07824
G1 X80.649 Y103.051 E6.11863
G1 X81.121 Y103.853 E6.20327
G1 X81.798 Y104.346 E6.27940
G1 X82.633 Y104.534 E6.35722
G1 X83.426 Y104.427 E6.42996
G1 X84.053 Y104.085 E6.49490
G1 X84.507 Y103.572 E6.55726
G1 X84.761 Y102.985 E6.61539
G1 X84.950 Y103.416 E6.65817
G1 X85.364 Y103.895 E6.71574
G1 X85.825 Y104.221 E6.76706
G1 X86.302 Y104.434 E6.81453
G1 X86.795 Y104.572 E6.86114
G1 X87.340 Y104.647 E6.91120
G1 X87.917 Y104.656 E6.96361
G1 X88.486 Y104.600 E7.01565
G1 X89.142 Y104.421 E7.07747
G1 X89.685 Y104.154 E7.13248
G1 X89.999 Y103.913 E7.16845
G1 E5.16845 F2400.00000
G92 E0
G1 X85.427 Y100.499 F7800.000
G1 E2.00000 F2400.00000
G1 F1800
G1 X85.200 Y100.642 E2.02445
G1 X85.097 Y100.789 E2.04072
G1 X84.835 Y100.707 E2.06567
G1 X84.830 Y99.576 E2.16848
G1 X85.283 Y99.529 E2.20986
G1 X85.294 Y100.117 E2.26341
G1 X85.408 Y100.443 E2.29474
G1 E0.29474 F2400.00000
G92 E0
G1 X80.694 Y100.932 F7800.000
G1 E2.00000 F2400.00000
G1 F1800
G1 X80.114 Y100.328 E2.07612
G1 X79.295 Y99.957 E2.15781
G1 X79.808 Y99.800 E2.20655
G1 X80.141 Y99.546 E2.24466
G1 X80.686 Y99.643 E2.29498
G1 X80.693 Y100.872 E2.40672
G1 X81.307 Y98.973 F7800.000
G1 F1800
G1 X81.324 Y101.907 E2.67352
G1 X81.280 Y102.640 E2.74024
G1 X81.375 Y103.053 E2.77883
G1 X81.594 Y103.425 E2.81803
G1 X82.061 Y103.765 E2.87057
G1 X82.660 Y103.899 E2.92644
G1 X83.228 Y103.823 E2.97851
G1 X83.657 Y103.589 E3.02298
G1 X83.973 Y103.232 E3.06634
G1 X84.145 Y102.836 E3.10560
G1 X84.218 Y102.431 E3.14302
G1 X84.203 Y98.976 E3.45719
G1 X84.519 Y98.981 E3.48596
G1 X84.968 Y98.933 E3.52698
G1 X85.381 Y98.804 E3.56636
G1 X85.561 Y98.667 E3.58699
G1 X86.038 Y99.041 E3.64208
G1 X85.908 Y99.559 E3.69060
G1 X85.917 Y100.005 E3.73121
G1 X86.088 Y100.496 E3.77850
G1 X86.296 Y100.693 E3.80445
G1 X85.639 Y101.104 E3.87492
G1 X85.331 Y101.544 E3.92374
G1 X85.214 Y102.111 E3.97637
G1 X85.274 Y102.598 E4.02102
G1 X85.484 Y103.079 E4.06872
G1 X85.787 Y103.429 E4.11075
G1 X86.136 Y103.675 E4.14960
G1 X86.514 Y103.844 E4.18732
G1 X86.923 Y103.959 E4.22587
G1 X87.388 Y104.023 E4.26860
G1 X87.891 Y104.031 E4.31432
G1 X88.373 Y103.983 E4.35834
G1 X88.920 Y103.834 E4.40993
G1 X89.353 Y103.621 E4.45383
G1 X89.820 Y103.261 E4.50743
G1 X90.154 Y102.859 E4.55498
G1 X90.517 Y103.453 E4.61829
G1 X90.860 Y103.732 E4.65849
G1 X91.213 Y103.864 E4.69274
G1 X91.592 Y103.896 E4.72737
G1 X92.064 Y103.851 E4.77050
G1 X92.866 Y103.859 E4.84339
G1 X93.452 Y103.829 E4.89679
G1 X94.094 Y103.726 E4.95584
G1 X94.648 Y103.538 E5.00904
G1 X95.042 Y103.317 E5.05012
G1 X95.157 Y103.513 E5.07080
G1 X95.398 Y103.795 E5.10454
G1 X95.784 Y104.084 E5.14837
G1 X96.126 Y104.236 E5.18240
G1 X96.463 Y104.319 E5.21399
G1 X96.810 Y104.342 E5.24563
G1 X97.157 Y104.305 E5.27735
G1 X97.515 Y104.199 E5.31131
G1 X97.936 Y103.965 E5.35510
G1 X98.164 Y103.760 E5.38297
G1 X98.625 Y104.014 E5.43080
G1 X99.261 Y104.076 E5.48887
G1 X99.816 Y103.821 E5.54445
G1 X100.074 Y103.566 E5.57741
G1 X100.569 Y103.937 E5.63367
G1 X101.021 Y104.074 E5.67667
G1 X101.696 Y104.058 E5.73804
G1 X101.396 Y104.496 E5.78633
G1 X101.305 Y104.942 E5.82772
G1 X101.323 Y105.260 E5.85667
G1 X101.397 Y105.562 E5.88496
G1 X101.587 Y105.961 E5.92507
G1 X101.953 Y106.340 E5.97306
G1 X102.308 Y106.518 E6.00916
G1 X102.738 Y106.605 E6.04901
G1 X102.739 Y106.911 E6.07682
G1 X102.436 Y106.973 E6.10490
G1 X101.598 Y107.092 E6.18186
G1 X100.739 Y107.161 E6.26023
G1 X99.828 Y107.176 E6.34311
G1 X99.177 Y107.151 E6.40233
G1 X75.851 Y105.721 E8.52730
G1 X75.580 Y105.675 E8.55231
G1 X75.341 Y105.548 E8.57691
G1 X75.177 Y105.347 E8.60052
G1 X75.101 Y105.154 E8.61935
G1 X75.077 Y105.026 E8.63119
G1 X75.068 Y102.993 E8.81604
G1 X75.590 Y103.426 E8.87767
G1 X76.106 Y103.723 E8.93185
G1 X76.430 Y103.851 E8.96354
G1 X76.782 Y103.948 E8.99673
G1 X77.125 Y104.006 E9.02830
G1 X77.635 Y104.033 E9.07474
G1 X78.121 Y104.001 E9.11907
G1 X78.567 Y103.914 E9.16035
G1 X78.978 Y103.767 E9.20008
G1 X79.263 Y103.618 E9.22929
G1 X79.605 Y103.374 E9.26750
G1 X79.920 Y103.046 E9.30884
G1 X80.215 Y102.563 E9.36035
G1 X80.386 Y101.968 E9.41659
G1 X80.177 Y101.296 E9.48057
G1 X79.747 Y100.847 E9.53714
G1 X79.218 Y100.608 E9.58995
G1 X78.756 Y100.555 E9.63216
G1 X78.340 Y100.625 E9.67057
G1 X78.042 Y100.760 E9.70032
G1 X77.798 Y100.942 E9.72798
G1 X77.679 Y101.081 E9.74464
G1 X77.520 Y101.085 E9.75911
G1 X77.430 Y101.066 E9.76754
G1 X77.255 Y100.969 E9.78564
G1 X77.144 Y100.778 E9.80575
G1 X77.091 Y100.588 E9.82376
G1 X77.054 Y100.328 E9.84758
G1 X77.037 Y99.927 E9.88409
G1 X77.057 Y99.565 E9.91703
G1 X77.097 Y99.318 E9.93983
G1 X77.148 Y99.144 E9.95628
G1 X77.266 Y98.947 E9.97716
G1 X77.361 Y98.884 E9.98758
G1 X77.533 Y98.850 E10.00347
G1 X78.204 Y99.230 E10.07359
G1 X78.602 Y99.356 E10.11156
G1 X79.048 Y99.380 E10.15214
G1 X79.517 Y99.236 E10.19680
G1 X79.883 Y98.957 E10.23858
G1 X80.034 Y98.760 E10.26118
G1 X80.316 Y98.942 E10.29173
G1 X80.791 Y99.027 E10.33561
G1 X81.247 Y98.979 E10.37731
G1 X81.804 Y98.338 F7800.000
G1 F1800
G1 X81.557 Y98.319 E10.39984
G1 X80.814 Y98.396 E10.46777
G1 X80.550 Y98.349 E10.49217
G1 X80.287 Y98.179 E10.52056
G1 X80.138 Y97.955 E10.54506
G1 X80.057 Y97.702 E10.56921
G1 X80.048 Y97.428 E10.59413
G1 X80.113 Y97.165 E10.61883
G1 X80.251 Y96.933 E10.64335
G1 X80.452 Y96.764 E10.66722
G1 X80.659 Y96.685 E10.68737
G1 X80.877 Y96.662 E10.70731
G1 X81.489 Y96.706 E10.76311
G1 X84.805 Y96.695 E11.06459
G1 X84.986 Y96.725 E11.08132
G1 X85.192 Y96.817 E11.10176
G1 X85.335 Y96.946 E11.11933
G1 X85.456 Y97.165 E11.14208
G1 X85.511 Y97.503 E11.17322
G1 X85.462 Y97.815 E11.20188
G1 X85.334 Y98.054 E11.22655
G1 X85.090 Y98.241 E11.25454
G1 X84.841 Y98.318 E11.27827
G1 X84.491 Y98.355 E11.31022
G1 X83.575 Y98.341 E11.39353
G1 X83.593 Y102.376 E11.76049
G1 X83.543 Y102.654 E11.78613
G1 X83.440 Y102.892 E11.80975
G1 X83.262 Y103.093 E11.83411
G1 X83.030 Y103.219 E11.85811
G1 X82.688 Y103.265 E11.88951
G1 X82.324 Y103.184 E11.92342
G1 X82.067 Y102.996 E11.95238
G1 X81.963 Y102.819 E11.97105
G1 X81.909 Y102.587 E11.99268
G1 X81.949 Y101.924 E12.05307
G1 X81.932 Y99.141 E12.30616
G1 X81.967 Y98.586 E12.35670
G1 X81.944 Y98.419 E12.37202
G1 X81.858 Y98.363 E12.38136
G1 X81.609 Y98.491 F7800.000
G1 E10.38136 F2400.00000
G92 E0
G1 X98.167 Y102.546 F7800.000
G1 E2.00000 F2400.00000
G1 F1800
G1 X98.905 Y101.252 E2.13547
G1 X99.249 Y100.766 E2.18954
G1 X98.998 Y100.388 E2.23078
G1 X98.429 Y99.362 E2.33747
G1 X98.337 Y99.088 E2.36381
G1 X98.319 Y98.757 E2.39393
G1 X98.445 Y98.464 E2.42295
G1 X98.633 Y98.287 E2.44642
G1 X98.810 Y98.191 E2.46475
G1 X99.119 Y98.122 E2.49356
G1 X99.447 Y98.194 E2.52406
G1 X99.616 Y98.300 E2.54219
G1 X99.801 Y98.480 E2.56565
G1 X100.194 Y99.050 E2.62863
G1 X100.400 Y98.678 E2.66728
G1 X100.601 Y98.436 E2.69588
G1 X100.813 Y98.260 E2.72093
G1 X101.113 Y98.130 E2.75069
G1 X101.445 Y98.157 E2.78095
G1 X101.732 Y98.341 E2.81190
G1 X101.919 Y98.598 E2.84087
G1 X101.998 Y98.933 E2.87214
G1 X101.909 Y99.287 E2.90530
G1 X101.216 Y100.459 E3.02908
G1 X101.153 Y100.609 E3.04388
G1 X101.135 Y100.705 E3.05279
G1 X101.178 Y100.881 E3.06926
G1 X101.858 Y102.014 E3.18941
G1 X102.005 Y102.340 E3.22190
G1 X102.048 Y102.629 E3.24847
G1 X102.013 Y102.905 E3.27377
G1 X101.889 Y103.155 E3.29916
G1 X101.639 Y103.356 E3.32832
G1 X101.378 Y103.441 E3.35327
G1 X101.107 Y103.447 E3.37796
G1 X100.856 Y103.371 E3.40180
G1 X100.652 Y103.218 E3.42496
G1 X100.447 Y102.934 E3.45683
G1 X100.125 Y102.355 E3.51704
G1 X99.862 Y102.804 E3.56438
G1 X99.646 Y103.110 E3.59845
G1 X99.455 Y103.299 E3.62288
G1 X99.154 Y103.438 E3.65303
G1 X98.814 Y103.404 E3.68407
G1 X98.514 Y103.240 E3.71515
G1 X98.334 Y103.028 E3.74043
G1 X98.187 Y102.602 E3.78137
G1 X97.865 Y102.284 F7800.000
G1 E1.78137 F2400.00000
G92 E0
G1 X101.799 Y100.701 F7800.000
G1 E2.00000 F2400.00000
G1 F1800
G1 X102.088 Y100.211 E2.05173
G1 X102.388 Y101.022 E2.13037
G1 X102.080 Y101.170 E2.16142
G1 X101.830 Y100.752 E2.20573
G1 E0.20573 F2400.00000
G92 E0
G1 X106.215 Y104.087 F7800.000
G1 E2.00000 F2400.00000
G1 F1800
G1 X106.517 Y104.402 E2.03968
G1 X107.017 Y104.598 E2.08847
G1 X106.464 Y104.917 E2.14648
G1 X105.754 Y105.276 E2.21889
G1 X106.193 Y104.143 E2.32943
G1 X106.118 Y102.529 F7800.000
G1 F1800
G1 X106.447 Y103.425 E2.41624
