; Postprocessed by [ArcWelder](https://github.com/FormerLurker/ArcWelderLib)
; Copyright(C) 2021 - Brad Hochgesang
; Version: 1.2.0-12-g0cb6087, Branch: master, BuildDate: 2022-01-27T06:15:59Z
; resolution=0.05mm
; path_tolerance=5.0%
; max_radius=9999.00mm
; default_xyz_precision=3
; default_e_precision=5
; extrusion_rate_variance=5.0%

;FLAVOR:Marlin
;TIME:6666
;Filament used: 0m
;Layer height: 0.1
;MINX:2.14748e+06
;MINY:2.14748e+06
;MINZ:2.14748e+06
;MAXX:-2.14748e+06
;MAXY:-2.14748e+06
;MAXZ:-2.14748e+06

;Generated with Cura_SteamEngine 4.4.1
M140 S55
M105
M190 S55
M104 S200
M105
M109 S200
M82 ;absolute extrusion mode
G28 ;Home
G1 Z15.0 F6000 ;Move the platform down 15mm
;Prime the extruder
G92 E0
G1 F200 E3
G92 E0
G92 E0
G92 E0
G1 F1500 E-6.5
;LAYER_COUNT:478
;LAYER:0
M107
;MESH:3DBenchy.stl
G0 F3600 X93.153 Y100.977 Z0.3
;TYPE:WALL-OUTER
G1 F1500 E0
G3 X93.159 Y98.283 I160.670 J-0.989 E0.13441 F1800
G3 X94.623 Y98.380 I0.528 J3.130 E0.20832
G3 X95.122 Y99.038 I-0.412 J0.831 E0.25069
G3 X95.026 Y101.084 I-2.899 J0.889 E0.35479
G3 X94.251 Y101.640 I-0.866 J-0.389 E0.40445
G3 X93.226 Y101.683 I-0.651 J-3.279 E0.45574
G3 X93.139 Y101.389 I0.168 J-0.210 E0.47185
G1 X93.153 Y100.977 E0.49242
G0 F3600 X93.153 Y100.777
G0 X93.553 Y100.983
;TYPE:WALL-INNER
G3 X93.552 Y98.650 I2660.786 J-2.307 E0.60881 F1800
G1 X93.857 Y98.656 E0.62403
G1 X93.908 Y98.661 E0.62636
G3 X94.539 Y98.799 I0.060 J1.236 E0.65898
G3 X94.819 Y100.355 I-1.849 J1.136 E0.73983
G3 X94.479 Y101.139 I-1.094 J-0.009 E0.78345
G3 X93.565 Y101.285 I-0.710 J-1.513 E0.83015
G1 X93.543 Y101.286 E0.83124
G1 X93.543 Y101.271
G1 X93.553 Y100.983 E0.84098
G0 F3600 X93.943 Y100.873
;TYPE:SKIN
G1 F1800 X93.942 Y99.058 E0.93154
G3 X94.303 Y99.135 I0.095 J0.439 E0.95049
G3 X94.249 Y100.821 I-1.779 J0.787 E1.03761
G3 X93.943 Y100.873 I-0.276 J-0.701 E1.05320
G0 F3600 X94.218 Y100.44
G1 F1800 X94.122 Y100.344 E1.05997
G0 F3600 X94.268 Y99.925
G1 F1800 X94.122 Y99.779 E1.07027
G1 F1500 E-5.42973
G0 F3600 X94.73 Y100.687
G0 X96.484 Y101.219
G0 X96.68 Y101.583
;TYPE:WALL-OUTER
G1 F1500 E1.07027
G2 X96.917 Y101.371 I0.912 J0.781 E1.43001 F1800
G3 X96.680 Y101.583 I-28.470 J-31.589 E1.44587
G0 F3600 X96.657 Y101.619
G0 X96.571 Y101.751
G0 X96.488 Y101.696
G0 X95.8 Y102.699
G0 X94.056 Y103.308
G0 X92.49 Y103.354
G0 X92.078 Y103.057
G1 F1800 X92.334 Y103.119 E1.45902
G3 X93.475 Y103.084 I0.758 J6.098 E1.51603
G2 X95.646 Y102.515 I0.314 J-3.227 E1.63049
G2 X96.073 Y102.037 I-1.188 J-1.491 E1.66257
G1 X96.131 Y101.955 E1.66681
G1 X96.195 Y101.865 E1.67066
G3 X96.393 Y101.448 I153.254 J72.513 E1.68794
G1 X96.436 Y101.307 E1.69456
G1 X96.54 Y100.966 E1.71235
G2 X96.165 Y97.973 I-4.162 J-0.999 E1.86611
G2 X94.470 Y96.906 I-1.875 J1.098 E1.96972
G2 X92.360 Y96.845 I-1.654 J20.693 E2.07511
G2 X91.716 Y97.501 I0.036 J0.680 E2.12604
G3 X91.749 Y98.644 I-5.908 J0.743 E2.18315
G3 X91.737 Y102.270 I-56.352 J1.627 E2.36406
G2 X92.078 Y103.057 I0.922 J0.068 E2.40866
G0 F3600 X92.272 Y103.104
G0 X92.201 Y103.395
G0 X88.119 Y103.475
G0 X87.097 Y103.126
G0 X86.585 Y102.242
G0 X87.44 Y100.355
G0 X87.617 Y100.114
G1 F1800 X87.819 Y100.261 E2.42112
G2 X88.522 Y100.418 I1.837 J-6.572 E2.45707
G3 X89.184 Y101.601 I-0.231 J0.906 E2.53300
G3 X88.312 Y101.824 I-0.514 J-0.194 E2.58544
G2 X87.144 Y101.577 I-0.759 J0.702 E2.64893
G2 X87.021 Y102.730 I0.471 J0.633 E2.71418
G2 X88.148 Y103.237 I1.207 J-1.176 E2.77723
G2 X90.104 Y102.700 I0.412 J-2.328 E2.88177
G2 X90.547 Y100.311 I-1.607 J-1.534 E3.01050
G2 X89.778 Y99.509 I-1.017 J0.206 E3.06877
G1 X89.94 Y99.433 E3.07105
G1 X89.999 Y99.405 E3.07125
G2 X90.457 Y98.674 I-0.475 J-0.807 E3.11581
G2 X90.173 Y97.245 I-1.764 J-0.392 E3.19095
G2 X88.236 Y96.688 I-1.537 J1.699 E3.29520
G2 X86.926 Y97.330 I0.084 J1.828 E3.36999
G2 X87.571 Y98.423 I0.657 J0.349 E3.44639
G2 X88.258 Y98.048 I-0.683 J-2.068 E3.48558
G3 X88.653 Y98.843 I0.246 J0.373 E3.56122
G3 X87.960 Y99.004 I-0.843 J-2.056 E3.59681
G2 X87.617 Y100.114 I0.327 J0.709 E3.66217
G0 F3600 X87.779 Y100.232
G0 X87.602 Y100.473
G0 X86.239 Y96.817
G0 X85.992 Y96.985
G2 X85.460 Y96.841 I-0.438 J0.563 E3.69021 F1800
G3 X81.623 Y96.814 I-1.339 J-82.310 E3.88169
G2 X81.637 Y98.245 I0.109 J0.715 E3.98538
G2 X82.445 Y98.167 I-1.415 J-18.880 E4.02588
G3 X82.942 Y98.613 I0.084 J0.406 E4.06434
G2 X82.924 Y101.862 I58.890 J1.951 E4.22650
G2 X82.893 Y102.646 I5.043 J0.592 E4.26567
G2 X83.665 Y103.106 I0.618 J-0.159 E4.31504
G2 X84.258 Y102.451 I-0.082 J-0.671 E4.36263
G3 X84.273 Y98.258 I101.618 J-1.733 E4.57191
G3 X84.491 Y98.184 I0.148 J0.077 E4.58422
G2 X85.841 Y98.108 I0.457 J-3.912 E4.65213
G2 X85.992 Y96.985 I-0.401 J-0.626 E4.71684
G0 F3600 X85.815 Y96.893
G0 X85.955 Y96.628
G0 X81.6 Y96.573
G0 X80.805 Y97.392
G0 X80.69 Y101.923
G0 X80.391 Y101.901
G2 X78.994 Y101.701 I-0.742 J0.203 E4.80579 F1800
G3 X77.168 Y100.798 I-0.614 J-1.055 E4.92560
G3 X77.312 Y98.715 I3.692 J-0.791 E5.03127
G3 X78.814 Y98.209 I0.988 J0.449 E5.11987
G2 X79.809 Y98.595 I1.048 J-1.225 E5.17422
G2 X80.142 Y97.353 I-0.170 J-0.711 E5.25217
G2 X78.291 Y96.675 I-1.626 J1.574 E5.35382
G2 X75.807 Y98.799 I0.049 J2.572 E5.53004
G2 X76.098 Y101.923 I4.807 J1.128 E5.68939
G2 X79.077 Y103.191 I2.326 J-1.332 E5.86283
G2 X80.376 Y102.109 I-0.270 J-1.645 E5.95102
G1 X80.391 Y101.901 E5.96142
G0 F3600 X80.314 Y101.717
G0 X80.591 Y101.602
G0 X83.024 Y103.222
G0 X88.69 Y103.494
G0 X89.942 Y103.132
G0 X90.771 Y102.154
G0 X91.51 Y99.757
G0 X91.476 Y97.492
G0 X92.327 Y96.606
G0 X94.283 Y96.661
G0 X102.025 Y97.982
G0 X101.991 Y98.279
G1 F1800 X101.744 Y98.37 E5.97455
G2 X101.083 Y99.311 I1.069 J1.453 E6.03290
G1 X101.014 Y99.444 E6.04037
G1 X100.975 Y99.367
G1 X100.799 Y99.022 E6.05512
G1 X100.789 Y99.006 E6.05603
G2 X100.103 Y98.294 I-1.259 J0.527 E6.10663
G2 X99.297 Y98.990 I-0.155 J0.636 E6.16889
G1 X99.393 Y99.306 E6.18537
G2 X100.216 Y100.770 I36.628 J-19.627 E6.26933
G3 X99.857 Y101.331 I-2.101 J-0.949 E6.30278
G1 X99.326 Y102.262 E6.35625
G2 X100.055 Y103.253 I0.563 J0.350 E6.43594
G2 X100.474 Y102.849 I-0.407 J-0.842 E6.46533
G2 X100.930 Y102.010 I-3.294 J-2.334 E6.51306
G3 X101.053 Y102.236 I-1.205 J0.802 E6.51709
G1 X101.076 Y102.28 E6.51941
G1 X101.187 Y102.487 E6.53113
G2 X101.636 Y103.161 I2.185 J-0.969 E6.57166
G2 X102.674 Y102.350 I0.417 J-0.536 E6.66117
G2 X101.846 Y100.900 I-51.196 J28.273 E6.74454
G3 X101.890 Y100.424 I0.533 J-0.191 E6.76914
G2 X102.619 Y99.162 I-10.560 J-6.941 E6.84187
G2 X101.991 Y98.279 I-0.610 J-0.231 E6.90558
G0 F3600 X101.804 Y98.348
G0 X101.701 Y98.066
G0 X106.627 Y97.986
G0 X106.705 Y98.275
G2 X106.050 Y98.841 I0.197 J0.890 E6.95075 F1800
G2 X105.398 Y100.740 I20.002 J7.929 E7.05096
G3 X105.273 Y100.440 I0.927 J-0.563 E7.05492
G1 X105.174 Y100.184 E7.06704
G1 X105.163 Y100.155 E7.06854
G3 X104.692 Y98.786 I8.570 J-3.714 E7.14084
G2 X103.588 Y98.365 I-0.751 J0.311 E7.20688
G2 X103.355 Y99.131 I0.514 J0.575 E7.24898
G2 X103.663 Y100.027 I3.124 J-0.573 E7.29637
G2 X104.671 Y102.682 I205.340 J-76.441 E7.43817
G3 X104.425 Y103.351 I-1.343 J-0.114 E7.47401
G3 X103.990 Y104.234 I-2.295 J-0.582 E7.52354
G3 X103.213 Y104.545 I-1.161 J-1.775 E7.56565
G2 X102.915 Y105.143 I0.229 J0.487 E7.60157
G2 X103.928 Y105.796 I0.762 J-0.070 E7.67007
G2 X105.128 Y104.996 I-0.207 J-1.610 E7.74434
G2 X106.735 Y100.805 I-36.540 J-16.415 E7.96842
G3 X107.315 Y99.284 I8.845 J2.502 E8.04971
G2 X106.705 Y98.275 I-0.729 J-0.248 E8.11665
G0 F3600 X106.512 Y98.328
G0 X106.434 Y98.039
G0 X110.803 Y98.042
G0 X111.693 Y98.774
G0 X111.675 Y101.997
G0 X111.469 Y102.214
G2 X110.564 Y101.883 I-0.807 J0.805 E8.16643 F1800
G3 X109.720 Y101.924 I-1.357 J-19.220 E8.20859
G1 X109.79 Y101.802 E8.21035
G1 X109.861 Y101.678 E8.21411
G2 X111.401 Y99.433 I-30.853 J-22.815 E8.35003
G2 X111.257 Y98.425 I-0.835 J-0.395 E8.40373
G2 X110.788 Y98.281 I-0.443 J0.609 E8.42854
G2 X108.510 Y98.296 I-0.917 J33.753 E8.54221
G2 X108.483 Y99.645 I0.024 J0.675 E8.64491
G2 X109.638 Y99.629 I0.513 J-4.653 E8.70271
G1 X109.599 Y99.694 E8.70395
G1 X109.375 Y99.998 E8.71549
G2 X108.005 Y101.917 I221.616 J159.663 E8.83313
G2 X108.173 Y103.230 I0.766 J0.569 E8.90618
G1 X108.412 Y103.298 E8.91858
G2 X111.051 Y103.251 I-3.066 J-246.253 E9.05032
G2 X111.469 Y102.214 I-0.184 J-0.677 E9.11540
G0 F3600 X111.325 Y102.077
G0 X111.531 Y101.86
G0 X111.47 Y103.307
G0 X111.542 Y103.375
G1 F1800 X111.532 Y103.386 E9.11551
G1 X111.413 Y103.507 E9.12323
G3 X99.567 Y107.883 I-10.555 J-10.352 E9.77418
G1 X76.598 Y106.478 E10.92225
G3 X75.131 Y104.988 I0.052 J-1.519 E11.03696
G1 X75.127 Y95.133 E11.52863
G3 X76.474 Y93.533 I1.519 J-0.088 E11.64316
G3 X100.545 Y92.068 I197.490 J3046.419 E12.84629
G3 X113.744 Y99.643 I0.354 J14.670 E13.64465
G3 X113.457 Y100.894 I-1.397 J0.338 E13.71123
G3 X111.830 Y103.066 I-12.465 J-7.642 E13.84682
G1 X111.696 Y103.21 E13.85569
G1 X111.542 Y103.375 E13.86486
G0 F3600 X111.532 Y103.386
G0 X111.413 Y103.507
G0 X111.402 Y103.519
G0 X111.331 Y103.448
G0 X108.383 Y103.538
G0 X107.577 Y102.558
G0 X107.524 Y98.671
G0 X106.708 Y97.859
;TYPE:WALL-INNER
G1 F1800 X106.27 Y97.979 E13.88751
G2 X105.494 Y99.170 I1.317 J1.706 E13.95983
G3 X105.359 Y99.566 I-14.768 J-4.814 E13.98070
G3 X105.250 Y99.253 I2.536 J-1.059 E13.98456
G1 X105.19 Y99.075 E13.9908
G1 X105.157 Y98.958 E13.99628
G2 X103.366 Y98.019 I-1.215 J0.140 E14.11454
G1 X103.071 Y98.326 E14.13578
G2 X102.994 Y98.573 I101.987 J31.929 E14.14868
G1 X102.97 Y98.485 E14.14885
G1 X102.93 Y98.429
G1 X102.731 Y98.156 E14.16436
G1 X102.361 Y97.919 E14.18628
G1 X101.942 Y97.871 E14.20732
G2 X100.996 Y98.580 I0.361 J1.468 E14.26793
G1 X100.928 Y98.47 E14.27018
G1 X100.882 Y98.395 E14.27121
G2 X98.911 Y98.618 I-0.930 J0.598 E14.39430
G2 X99.023 Y99.463 I1.278 J0.261 E14.43743
G2 X99.771 Y100.766 I10.191 J-4.984 E14.51241
G2 X99.105 Y101.842 I10.614 J7.314 E14.57562
G1 X98.94 Y101.49 E14.58673
G1 X98.903 Y101.447 E14.58932
G2 X96.954 Y100.905 I-1.291 J0.867 E14.69892
G3 X97.022 Y100.454 I90.631 J13.434 E14.71426
G2 X96.506 Y97.762 I-4.494 J-0.534 E14.85325
G2 X94.530 Y96.510 I-2.205 J1.295 E14.97420
G2 X92.304 Y96.446 I-1.722 J21.134 E15.08538
G2 X91.368 Y97.094 I0.105 J1.151 E15.14472
G2 X91.359 Y98.055 I2.196 J0.501 E15.19294
G3 X91.336 Y102.287 I-181.095 J1.132 E15.40410
G2 X91.882 Y103.421 I1.320 J0.063 E15.46960
G1 X92.302 Y103.523 E15.49116
G3 X93.477 Y103.484 I0.794 J6.208 E15.54988
G2 X95.816 Y102.885 I0.321 J-3.614 E15.67281
G2 X96.035 Y102.692 I-0.766 J-1.090 E15.68742
G1 X96.056 Y102.786 E15.68806
G1 X96.088 Y102.921 E15.69135
G2 X98.970 Y103.173 I1.500 J-0.547 E15.87150
G1 X99.039 Y103.299 E15.87374
G1 X99.363 Y103.562 E15.89456
G1 X99.785 Y103.695 E15.91664
G2 X100.848 Y103.005 I-0.015 J-1.187 E15.98335
G1 X100.939 Y102.856 E15.99206
G1 X101.001 Y102.963 E15.99305
G1 X101.125 Y103.174 E16.00128
G1 X101.149 Y103.203 E16.00316
G2 X103.127 Y102.630 I0.911 J-0.556 E16.14186
G2 X102.618 Y101.433 I-2.548 J0.377 E16.20762
G1 X102.22 Y100.748 E16.24715
G3 X102.253 Y100.595 I0.186 J-0.040 E16.25514
G2 X102.989 Y99.319 I-10.859 J-7.114 E16.32865
G1 X103.062 Y99.615 E16.3345
G1 X103.11 Y99.734 E16.33997
G3 X104.064 Y102.218 I-42.868 J17.889 E16.47273
G3 X104.264 Y102.692 I-1.200 J0.786 E16.49843
G1 X104.249 Y102.782 E16.50298
G2 X103.790 Y103.849 I10.561 J5.175 E16.56098
G3 X103.034 Y104.180 I-0.898 J-1.022 E16.60306
G1 X102.689 Y104.432 E16.62437
G2 X104.002 Y106.191 I1.002 J0.622 E16.76547
G2 X105.473 Y105.202 I-0.274 J-1.996 E16.85672
G2 X107.113 Y100.936 I-36.448 J-16.460 E17.08489
G3 X107.628 Y99.563 I8.021 J2.226 E17.15811
G1 X107.701 Y99.691 E17.16055
G1 X107.733 Y99.715 E17.16255
G2 X108.830 Y100.068 I0.985 J-1.179 E17.22168
G1 X108.703 Y100.246 E17.22472
G1 X108.684 Y100.272 E17.22625
G2 X107.655 Y101.720 I35.317 J26.187 E17.31487
G2 X107.979 Y103.591 I1.106 J0.772 E17.41998
G1 X108.363 Y103.7 E17.43989
G3 X110.664 Y103.682 I2.054 J115.488 E17.55471
G1 X110.499 Y103.836 E17.55862
G1 X110.25 Y104.051 E17.57029
G3 X100.300 Y107.523 I-9.374 J-10.872 E18.10866
G1 X76.643 Y106.08 E19.2911
G3 X75.531 Y104.958 I0.015 J-1.127 E19.37812
G1 X75.531 Y102.425 E19.50449
G1 X75.531 Y102.115 E19.51996
G2 X75.530 Y101.613 I-10.793 J-0.229 E19.54500
G1 X75.541 Y101.655 E19.54505
G1 X75.746 Y102.115 E19.55329
G1 X75.915 Y102.374 E19.56529
G1 X76.017 Y102.53 E19.57459
G2 X79.989 Y103.238 I2.404 J-1.993 E19.79391
G2 X80.797 Y101.835 I-0.886 J-1.445 E19.87813
G2 X78.693 Y101.411 I-1.151 J0.277 E20.01186
G3 X77.557 Y100.699 I-0.303 J-0.779 E20.08891
G3 X77.670 Y98.898 I3.333 J-0.695 E20.18016
G3 X78.630 Y98.565 I0.632 J0.272 E20.23716
G2 X79.882 Y98.997 I1.214 J-1.488 E20.30473
G2 X80.749 Y98.063 I-0.312 J-1.159 E20.37239
G1 X80.795 Y98.147 E20.37248
G1 X80.879 Y98.301 E20.37763
G1 X80.986 Y98.386 E20.38298
G1 X81.201 Y98.556 E20.39665
G2 X82.041 Y98.612 I0.508 J-1.285 E20.43916
G3 X82.536 Y98.580 I0.317 J1.064 E20.46400
G2 X82.524 Y101.849 I62.369 J1.863 E20.62717
G2 X82.494 Y102.723 I5.637 J0.631 E20.67084
G2 X83.327 Y103.496 I0.945 J-0.183 E20.73125
G2 X84.657 Y102.513 I0.221 J-1.092 E20.82424
G2 X84.652 Y98.593 I-126.670 J-1.798 E21.01983
G2 X86.021 Y98.474 I0.360 J-3.796 E21.08769
G1 X86.363 Y98.212 E21.10918
G2 X86.474 Y97.984 I-9.482 J-4.757 E21.12183
G1 X86.54 Y98.131 E21.12301
G1 X86.618 Y98.303 E21.12809
G2 X87.498 Y98.818 I0.908 J-0.542 E21.18120
G2 X87.408 Y98.927 I0.088 J0.164 E21.18178
G1 X87.234 Y99.163 E21.19229
G1 X87.106 Y99.596 E21.21482
G2 X88.046 Y100.731 I0.976 J0.148 E21.29774
G3 X88.845 Y101.279 I0.019 J0.829 E21.34983
G3 X88.508 Y101.473 I-0.187 J0.064 E21.37686
G2 X86.635 Y101.480 I-0.933 J0.929 E21.48105
G2 X87.344 Y103.444 I1.136 J0.700 E21.60077
G2 X90.026 Y103.270 I1.155 J-2.949 E21.73941
G2 X90.943 Y102.147 I-1.300 J-1.997 E21.81286
G1 X91.085 Y101.722 E21.83157
G1 X91.086 Y101.711 E21.83187
G2 X91.092 Y100.793 I-2.080 J-0.473 E21.85912
G1 X90.953 Y100.279 E21.88101
G1 X90.926 Y100.181 E21.88608
G2 X90.533 Y99.480 I-1.479 J0.369 E21.92653
G2 X90.853 Y98.740 I-0.952 J-0.851 E21.96727
G2 X90.717 Y97.336 I-2.421 J-0.474 E22.03866
G2 X89.294 Y96.333 I-1.718 J0.927 E22.12848
G2 X86.879 Y96.791 I-0.673 J3.047 E22.25460
G2 X86.541 Y97.217 I1.353 J1.421 E22.28204
G1 X86.523 Y97.127 E22.2821
G1 X86.501 Y97.023 E22.28519
G1 X86.403 Y96.878 E22.29153
G1 X86.266 Y96.677 E22.30366
G2 X85.474 Y96.441 I-0.676 J0.822 E22.34572
G3 X81.583 Y96.411 I-1.341 J-78.471 E22.53991
G2 X80.637 Y97.372 I0.136 J1.080 E22.61303
G1 X80.535 Y97.22 E22.61439
G1 X80.448 Y97.091 E22.61774
G2 X78.276 Y96.274 I-1.930 J1.836 E22.73741
G2 X75.528 Y98.346 I0.045 J2.918 E22.92083
G1 X75.528 Y98.166 E22.92137
G1 X75.528 Y97.702 E22.93224
G1 X75.528 Y97.522 E22.93998
G1 X75.527 Y95.148 E23.05842
G3 X76.533 Y93.930 I1.125 J-0.096 E23.14520
G3 X100.563 Y92.468 I191.229 J2944.900 E24.34629
G3 X113.380 Y99.824 I0.408 J14.134 E25.12163
G3 X113.120 Y100.678 I-1.096 J0.133 E25.16754
G3 X111.934 Y102.335 I-11.898 J-7.263 E25.26929
G1 X111.859 Y102.118 E25.27388
G1 X111.815 Y101.991 E25.27822
G2 X110.859 Y101.513 I-0.925 J0.654 E25.33335
G2 X110.495 Y101.486 I-0.271 J1.182 E25.35160
G1 X110.508 Y101.469
G1 X110.524 Y101.447
G1 X110.688 Y101.213 E25.36065
G1 X111.551 Y99.986 E25.43549
G2 X111.521 Y98.111 I-1.109 J-0.920 E25.53743
G2 X110.816 Y97.881 I-0.687 J0.911 E25.57494
G2 X108.455 Y97.898 I-0.934 J34.280 E25.69275
G2 X107.590 Y98.453 I0.063 J1.050 E25.74656
G1 X107.525 Y98.354 E25.74834
G1 X107.448 Y98.238 E25.75213
G2 X106.708 Y97.859 I-0.810 J0.670 E25.79448
G0 F3600 X93.904 Y96.616
G0 X88.209 Y96.45
G0 X86.982 Y96.917
G0 X86.602 Y97.848
G0 X87.272 Y98.634
G0 X88.439 Y98.411
G3 X88.549 Y98.384 I0.101 J0.174 E25.80018 F1800
G3 X88.514 Y98.449 I-0.077 J0.001 E25.80052
G1 X88.475 Y98.478 E25.80074
G1 X88.463 Y98.487
G3 X88.213 Y98.549 I-0.322 J-0.762 E25.81363
G1 X88.34 Y98.469 E25.81402
G1 X88.427 Y98.414 E25.81506
G1 X88.439 Y98.411
G0 F3600 X86.864 Y99.037
;TYPE:SKIN
G2 X86.738 Y100.087 I1.470 J0.709 E25.86854 F1800
G1 X86.984 Y100.63 E25.89829
G1 X87.146 Y100.748 E25.90828
G1 X86.757 Y100.87 E25.92862
G1 X86.321 Y101.235 E25.95699
G1 X86.076 Y101.743 E25.98513
G2 X87.185 Y103.801 I1.702 J0.411 E26.11233
