; generated by PrusaSlicer 2.1.1 on 2021-04-14 at 14:55:19 UTC

; 

; external perimeters extrusion width = 0.45mm
; perimeters extrusion width = 0.45mm
; infill extrusion width = 0.45mm
; solid infill extrusion width = 0.45mm
; top infill extrusion width = 0.40mm
; support material extrusion width = 0.40mm
; first layer extrusion width = 0.70mm

M107 ; disable fan
M104 S200 ; set temperature
G28 ; home all axes
G1 Z5 F5000 ; lift nozzle
M109 S200 ; set temperature and wait for it to be reached
G21 ; set units to millimeters
G90 ; use absolute coordinates
M82 ; use absolute distances for extrusion
G92 E0 ; reset extrusion distance
; Filament gcode
G1 Z0.350 F7800.000 ; move to next layer (0)
G1 E-2.00000 F2400.00000 ; retract
G92 E0 ; reset extrusion distance
G1 X83.838 Y67.942 F7800.000 ; move to first skirt point
G1 E2.00000 F2400.00000 ; unretract
G1 F1800
G1 X84.099 Y67.069 E2.08290 ; skirt
G1 X84.484 Y66.242 E2.16579 ; skirt
G1 X84.983 Y65.479 E2.24869 ; skirt
G1 X85.587 Y64.796 E2.33158 ; skirt
G1 X86.283 Y64.208 E2.41448 ; skirt
G1 X87.057 Y63.725 E2.49738 ; skirt
G1 X87.892 Y63.359 E2.58027 ; skirt
G1 X88.771 Y63.118 E2.66317 ; skirt
G1 X89.961 Y62.997 E2.77194 ; skirt
G1 X108.754 Y62.997 E4.48077 ; skirt
G1 X109.902 Y63.103 E4.58560 ; skirt
G1 X111.017 Y63.419 E4.69100 ; skirt
G1 X112.051 Y63.930 E4.79583 ; skirt
G1 X112.974 Y64.620 E4.90067 ; skirt
G1 X113.756 Y65.467 E5.00550 ; skirt
G1 X114.374 Y66.448 E5.11090 ; skirt
G1 X114.803 Y67.525 E5.21629 ; skirt
G1 X115.026 Y68.656 E5.32113 ; skirt
G1 X115.060 Y120.683 E10.05197 ; skirt
G1 X114.910 Y122.038 E10.17589 ; skirt
G1 X114.403 Y123.474 E10.31440 ; skirt
G1 X113.563 Y124.752 E10.45347 ; skirt
G1 X109.455 Y129.472 E11.02241 ; skirt
G1 X108.537 Y130.229 E11.13061 ; skirt
G1 X107.487 Y130.802 E11.23938 ; skirt
G1 X106.354 Y131.166 E11.34759 ; skirt
G1 X105.167 Y131.310 E11.45636 ; skirt
G1 X94.919 Y131.312 E12.38814 ; skirt
G1 X93.633 Y131.163 E12.50589 ; skirt
G1 X92.376 Y130.741 E12.62645 ; skirt
G1 X91.240 Y130.070 E12.74645 ; skirt
G1 X85.617 Y125.212 E13.42213 ; skirt
G1 X84.941 Y124.444 E13.51515 ; skirt
G1 X84.397 Y123.577 E13.60818 ; skirt
G1 X84.002 Y122.634 E13.70120 ; skirt
G1 X83.763 Y121.639 E13.79423 ; skirt
G1 X83.688 Y120.681 E13.88163 ; skirt
G1 X83.688 Y69.303 E18.55341 ; skirt
G1 X83.832 Y68.002 E18.67244 ; skirt
G1 E16.67244 F2400.00000 ; retract
G92 E0 ; reset extrusion distance
G1 X90.001 Y120.671 F7800.000 ; move to first support material point
G1 E2.00000 F2400.00000 ; unretract
G1 F1800
G1 X90.001 Y69.309 E6.67030 ; support material
G1 X91.251 Y69.309 E6.78394 ; support material
G1 X91.251 Y120.390 E11.42867 ; support material
G1 X92.500 Y120.390 E11.54231 ; support material
G1 X92.500 Y69.309 E16.18703 ; support material
G1 X93.750 Y69.309 E16.30068 ; support material
G1 X93.750 Y120.390 E20.94540 ; support material
G1 X94.463 Y120.390 E21.01018 ; support material
G1 X94.463 Y114.777 E21.52049 ; support material
G1 X94.777 Y114.463 E21.56097 ; support material
G1 X95.000 Y114.463 E21.58121 ; support material
G1 X95.000 Y69.309 E25.68700 ; support material
G1 X96.250 Y69.309 E25.80064 ; support material
G1 X96.250 Y114.463 E29.90643 ; support material
G1 X97.500 Y114.463 E30.02007 ; support material
G1 X97.500 Y69.309 E34.12586 ; support material
G1 X98.749 Y69.309 E34.23950 ; support material
G1 X98.749 Y114.463 E38.34529 ; support material
G1 X99.999 Y114.463 E38.45893 ; support material
G1 X99.999 Y69.309 E42.56472 ; support material
G1 X101.249 Y69.309 E42.67836 ; support material
G1 X101.249 Y114.463 E46.78415 ; support material
G1 X102.499 Y114.463 E46.89779 ; support material
G1 X102.499 Y69.309 E51.00358 ; support material
G1 X103.748 Y69.309 E51.11722 ; support material
G1 X103.748 Y114.463 E55.22300 ; support material
G1 X104.998 Y114.463 E55.33665 ; support material
G1 X104.998 Y69.309 E59.44243 ; support material
G1 X106.248 Y69.309 E59.55607 ; support material
G1 X106.248 Y120.390 E64.20080 ; support material
G1 X107.498 Y120.390 E64.31444 ; support material
G1 X107.498 Y69.309 E68.95917 ; support material
G1 X108.748 Y69.309 E69.07281 ; support material
G1 X108.748 Y120.671 E73.74311 ; support material
G1 E71.74311 F2400.00000 ; retract
G92 E0 ; reset extrusion distance
G1 X103.400 Y123.400 F7800.000 ; move to first perimeter point
G1 E2.00000 F2400.00000 ; unretract
G1 F1800
G1 X96.600 Y123.400 E2.61836 ; perimeter
G1 X96.600 Y116.600 E3.23672 ; perimeter
G1 X103.400 Y116.600 E3.85509 ; perimeter
G1 X103.400 Y123.340 E4.46799 ; perimeter
G1 X104.025 Y124.025 F7800.000 ; move to first perimeter point
G1 F1800
G1 X95.975 Y124.025 E5.19999 ; perimeter
G1 X95.975 Y115.975 E5.93200 ; perimeter
G1 X104.025 Y115.975 E6.66400 ; perimeter
G1 X104.025 Y123.965 E7.39055 ; perimeter
G1 X104.650 Y124.650 F7800.000 ; move to first perimeter point
G1 F1800
G1 X95.350 Y124.650 E8.23619 ; perimeter
G1 X95.350 Y115.350 E9.08184 ; perimeter
G1 X104.650 Y115.350 E9.92749 ; perimeter
G1 X104.650 Y124.590 E10.76767 ; perimeter
G1 X104.264 Y124.546 F7800.000 ; move inwards before travel
G1 E8.76767 F2400.00000 ; retract
G92 E0 ; reset extrusion distance
G1 X103.213 Y118.115 F7800.000 ; move to first infill point
G1 E2.00000 F2400.00000 ; unretract
G1 F1800
G1 X102.166 Y117.068 E2.14117 ; infill
G1 X101.239 Y117.068 E2.22956 ; infill
G1 X102.932 Y118.761 E2.45781 ; infill
G1 X102.932 Y119.688 E2.54620 ; infill
G1 X100.312 Y117.068 E2.89945 ; infill
G1 X99.386 Y117.068 E2.98785 ; infill
G1 X102.932 Y120.614 E3.46611 ; infill
G1 X102.932 Y121.541 E3.55450 ; infill
G1 X98.459 Y117.068 E4.15777 ; infill
G1 X97.532 Y117.068 E4.24616 ; infill
G1 X102.932 Y122.468 E4.97443 ; infill
G1 X102.932 Y122.932 E5.01862 ; infill
G1 X102.468 Y122.932 E5.06282 ; infill
G1 X97.068 Y117.532 E5.79108 ; infill
G1 X97.068 Y118.459 E5.87947 ; infill
G1 X101.541 Y122.932 E6.48272 ; infill
G1 X100.614 Y122.932 E6.57111 ; infill
G1 X97.068 Y119.386 E7.04936 ; infill
G1 X97.068 Y120.313 E7.13775 ; infill
G1 X99.687 Y122.932 E7.49098 ; infill
G1 X98.761 Y122.932 E7.57938 ; infill
G1 X97.068 Y121.239 E7.80760 ; infill
G1 X97.068 Y122.166 E7.89600 ; infill
G1 X98.115 Y123.213 E8.03715 ; infill
G1 Z0.650 F7800.000 ; move to next layer (1)
G1 E6.03715 F2400.00000 ; retract
G92 E0 ; reset extrusion distance
G1 X106.310 Y117.502 F7800.000 ; move to first support material point
G1 E2.00000 F2400.00000 ; unretract
G1 F3600
G1 X106.310 Y72.197 E3.89651 ; support material
G1 X92.197 Y72.197 E4.48731 ; support material
G1 X92.197 Y117.502 E6.38382 ; support material
G1 X94.575 Y117.502 E6.48338 ; support material
G1 X94.575 Y114.824 E6.59549 ; support material
G1 X94.824 Y114.575 E6.61023 ; support material
G1 X105.176 Y114.575 E7.04357 ; support material
G1 X105.425 Y114.824 E7.05831 ; support material
G1 X105.425 Y117.502 E7.17041 ; support material
G1 X106.310 Y117.502 E7.20747 ; support material
G1 E5.20747 F2400.00000 ; retract
G92 E0 ; reset extrusion distance
G1 X92.348 Y114.699 F7800.000 ; move to first support material point
G1 E2.00000 F2400.00000 ; unretract
G1 F3600
G1 X94.273 Y114.699 E2.08060 ; support material
G1 X94.699 Y114.273 E2.10581 ; support material
G1 X105.301 Y114.273 E2.54962 ; support material
G1 X105.727 Y114.699 E2.57483 ; support material
G1 X106.008 Y114.699 E2.58660 ; support material
G1 X106.008 Y111.863 E2.70530 ; support material
G1 X92.499 Y111.863 E3.27082 ; support material
G1 X92.499 Y109.027 E3.38952 ; support material
G1 X106.008 Y109.027 E3.95504 ; support material
G1 X106.008 Y106.192 E4.07374 ; support material
G1 X92.499 Y106.192 E4.63926 ; support material
G1 X92.499 Y103.356 E4.75796 ; support material
G1 X106.008 Y103.356 E5.32348 ; support material
G1 X106.008 Y100.521 E5.44218 ; support material
G1 X92.499 Y100.521 E6.00769 ; support material
G1 X92.499 Y97.685 E6.12639 ; support material
G1 X106.008 Y97.685 E6.69191 ; support material
G1 X106.008 Y94.849 E6.81061 ; support material
G1 X92.499 Y94.849 E7.37613 ; support material
G1 X92.499 Y92.014 E7.49483 ; support material
G1 X106.008 Y92.014 E8.06035 ; support material
G1 X106.008 Y89.178 E8.17905 ; support material
G1 X92.499 Y89.178 E8.74457 ; support material
G1 X92.499 Y86.342 E8.86327 ; support material
G1 X106.008 Y86.342 E9.42878 ; support material
G1 X106.008 Y83.507 E9.54748 ; support material
G1 X92.499 Y83.507 E10.11300 ; support material
G1 X92.499 Y80.671 E10.23170 ; support material
G1 X106.008 Y80.671 E10.79722 ; support material
G1 X106.008 Y77.836 E10.91592 ; support material
G1 X92.499 Y77.836 E11.48144 ; support material
G1 X92.499 Y75.000 E11.60014 ; support material
G1 X106.159 Y75.000 E12.17198 ; support material
G1 E10.17198 F2400.00000 ; retract
G92 E0 ; reset extrusion distance
G1 X104.004 Y124.004 F7800.000 ; move to first perimeter point
G1 E2.00000 F2400.00000 ; unretract
G1 F900
G1 X95.996 Y124.004 E2.38513 ; perimeter
G1 X95.996 Y115.996 E2.77027 ; perimeter
G1 X104.004 Y115.996 E3.15540 ; perimeter
G1 X104.004 Y123.944 E3.53765 ; perimeter
G1 X104.389 Y124.389 F7800.000 ; move to first perimeter point
G1 F900
G1 X95.611 Y124.389 E3.95988 ; perimeter
G1 X95.611 Y115.611 E4.38211 ; perimeter
G1 X104.389 Y115.611 E4.80434 ; perimeter
G1 X104.389 Y124.329 E5.22368 ; perimeter
G1 X104.775 Y124.775 F7800.000 ; move to first perimeter point
G1 F900
G1 X95.225 Y124.775 E5.68300 ; perimeter
G1 X95.225 Y115.225 E6.14233 ; perimeter
G1 X104.775 Y115.225 E6.60165 ; perimeter
G1 X104.775 Y124.715 E7.05808 ; perimeter
G1 X104.389 Y124.671 F7800.000 ; move inwards before travel
G1 X103.089 Y123.888 ; move to first infill point
G1 F1200
G1 X103.715 Y123.263 E7.10162 ; infill
G1 X103.715 Y122.705 E7.12910 ; infill
G1 X102.705 Y123.715 E7.19941 ; infill
G1 X102.146 Y123.715 E7.22689 ; infill
G1 X103.715 Y122.146 E7.33607 ; infill
G1 X103.715 Y121.588 E7.36355 ; infill
G1 X101.588 Y123.715 E7.51158 ; infill
G1 X101.030 Y123.715 E7.53906 ; infill
G1 X103.715 Y121.030 E7.72596 ; infill
G1 X103.715 Y120.472 E7.75344 ; infill
G1 X100.472 Y123.715 E7.97921 ; infill
G1 X99.914 Y123.715 E8.00669 ; infill
G1 X103.715 Y119.914 E8.27131 ; infill
G1 X103.715 Y119.355 E8.29879 ; infill
G1 X99.355 Y123.715 E8.60228 ; infill
G1 X98.797 Y123.715 E8.62976 ; infill
G1 X103.715 Y118.797 E8.97211 ; infill
G1 X103.715 Y118.239 E8.99959 ; infill
G1 X98.239 Y123.715 E9.38080 ; infill
G1 X97.681 Y123.715 E9.40828 ; infill
G1 X103.715 Y117.681 E9.82835 ; infill
G1 X103.715 Y117.123 E9.85583 ; infill
G1 X97.123 Y123.715 E10.31477 ; infill
G1 X96.564 Y123.715 E10.34225 ; infill
G1 X103.715 Y116.564 E10.84005 ; infill
G1 X103.715 Y116.285 E10.85378 ; infill
G1 X103.435 Y116.285 E10.86753 ; infill
G1 X96.285 Y123.435 E11.36532 ; infill
G1 X96.285 Y122.877 E11.39280 ; infill
G1 X102.877 Y116.285 E11.85173 ; infill
G1 X102.319 Y116.285 E11.87921 ; infill
G1 X96.285 Y122.319 E12.29927 ; infill
G1 X96.285 Y121.761 E12.32675 ; infill
G1 X101.761 Y116.285 E12.70796 ; infill
G1 X101.203 Y116.285 E12.73544 ; infill
G1 X96.285 Y121.203 E13.07778 ; infill
G1 X96.285 Y120.644 E13.10526 ; infill
G1 X100.644 Y116.285 E13.40874 ; infill
G1 X100.086 Y116.285 E13.43622 ; infill
G1 X96.285 Y120.086 E13.70083 ; infill
G1 X96.285 Y119.528 E13.72831 ; infill
G1 X99.528 Y116.285 E13.95407 ; infill
G1 X98.970 Y116.285 E13.98155 ; infill
G1 X96.285 Y118.970 E14.16844 ; infill
G1 X96.285 Y118.412 E14.19592 ; infill
G1 X98.412 Y116.285 E14.34395 ; infill
G1 X97.853 Y116.285 E14.37143 ; infill
G1 X96.285 Y117.853 E14.48060 ; infill
G1 X96.285 Y117.295 E14.50808 ; infill
G1 X97.295 Y116.285 E14.57838 ; infill
G1 X96.737 Y116.285 E14.60586 ; infill
G1 X96.112 Y116.911 E14.64939 ; infill
G1 Z0.950 F7800.000 ; move to next layer (2)
G1 E12.64939 F2400.00000 ; retract
G92 E0 ; reset extrusion distance
G1 X92.348 Y114.699 F7800.000 ; move to first support material point
G1 E2.00000 F2400.00000 ; unretract
G1 F3600
G1 X94.273 Y114.699 E2.08060 ; support material
G1 X94.699 Y114.273 E2.10581 ; support material
G1 X105.301 Y114.273 E2.54962 ; support material
G1 X105.727 Y114.699 E2.57483 ; support material
G1 X106.008 Y114.699 E2.58660 ; support material
G1 X106.008 Y111.863 E2.70530 ; support material
G1 X92.499 Y111.863 E3.27082 ; support material
G1 X92.499 Y109.027 E3.38952 ; support material
G1 X106.008 Y109.027 E3.95504 ; support material
G1 X106.008 Y106.192 E4.07374 ; support material
G1 X92.499 Y106.192 E4.63926 ; support material
G1 X92.499 Y103.356 E4.75796 ; support material
G1 X106.008 Y103.356 E5.32348 ; support material
G1 X106.008 Y100.521 E5.44218 ; support material
G1 X92.499 Y100.521 E6.00769 ; support material
G1 X92.499 Y97.685 E6.12639 ; support material
G1 X106.008 Y97.685 E6.69191 ; support material
G1 X106.008 Y94.849 E6.81061 ; support material
G1 X92.499 Y94.849 E7.37613 ; support material
G1 X92.499 Y92.014 E7.49483 ; support material
G1 X106.008 Y92.014 E8.06035 ; support material
G1 X106.008 Y89.178 E8.17905 ; support material
G1 X92.499 Y89.178 E8.74457 ; support material
G1 X92.499 Y86.342 E8.86327 ; support material
G1 X106.008 Y86.342 E9.42878 ; support material
G1 X106.008 Y83.507 E9.54748 ; support material
G1 X92.499 Y83.507 E10.11300 ; support material
G1 X92.499 Y80.671 E10.23170 ; support material
G1 X106.008 Y80.671 E10.79722 ; support material
G1 X106.008 Y77.836 E10.91592 ; support material
G1 X92.499 Y77.836 E11.48144 ; support material
G1 X92.499 Y75.000 E11.60014 ; support material
G1 X106.159 Y75.000 E12.17198 ; support material
G1 X106.310 Y117.502 F7800.000 ; move to first support material point
G1 F3600
G1 X106.310 Y72.197 E14.06848 ; support material
G1 X92.197 Y72.197 E14.65929 ; support material
G1 X92.197 Y117.502 E16.55579 ; support material
G1 X94.575 Y117.502 E16.65536 ; support material
G1 X94.575 Y114.824 E16.76747 ; support material
G1 X94.824 Y114.575 E16.78220 ; support material
G1 X105.176 Y114.575 E17.21555 ; support material
G1 X105.425 Y114.824 E17.23028 ; support material
G1 X105.425 Y117.502 E17.34239 ; support material
G1 X106.310 Y117.502 E17.37945 ; support material
G1 E15.37945 F2400.00000 ; retract
G92 E0 ; reset extrusion distance
G1 X104.004 Y124.004 F7800.000 ; move to first perimeter point
G1 E2.00000 F2400.00000 ; unretract
G1 F900
G1 X95.996 Y124.004 E2.38513 ; perimeter
G1 X95.996 Y115.996 E2.77027 ; perimeter
G1 X104.004 Y115.996 E3.15540 ; perimeter
G1 X104.004 Y123.944 E3.53765 ; perimeter
G1 X104.389 Y124.389 F7800.000 ; move to first perimeter point
G1 F900
G1 X95.611 Y124.389 E3.95988 ; perimeter
G1 X95.611 Y115.611 E4.38211 ; perimeter
G1 X104.389 Y115.611 E4.80434 ; perimeter
G1 X104.389 Y124.329 E5.22368 ; perimeter
G1 X104.775 Y124.775 F7800.000 ; move to first perimeter point
G1 F900
G1 X95.225 Y124.775 E5.68300 ; perimeter
G1 X95.225 Y115.225 E6.14233 ; perimeter
G1 X104.775 Y115.225 E6.60165 ; perimeter
G1 X104.775 Y124.715 E7.05808 ; perimeter
G1 X104.389 Y124.671 F7800.000 ; move inwards before travel
G1 X103.888 Y116.911 ; move to first infill point
G1 F1200
G1 X103.263 Y116.285 E7.10162 ; infill
G1 X102.705 Y116.285 E7.12910 ; infill
G1 X103.715 Y117.295 E7.19941 ; infill
G1 X103.715 Y117.854 E7.22689 ; infill
G1 X102.146 Y116.285 E7.33607 ; infill
G1 X101.588 Y116.285 E7.36355 ; infill
G1 X103.715 Y118.412 E7.51158 ; infill
G1 X103.715 Y118.970 E7.53906 ; infill
G1 X101.030 Y116.285 E7.72596 ; infill
G1 X100.472 Y116.285 E7.75344 ; infill
G1 X103.715 Y119.528 E7.97921 ; infill
G1 X103.715 Y120.086 E8.00669 ; infill
G1 X99.914 Y116.285 E8.27131 ; infill
G1 X99.355 Y116.285 E8.29879 ; infill
G1 X103.715 Y120.645 E8.60228 ; infill
G1 X103.715 Y121.203 E8.62976 ; infill
G1 X98.797 Y116.285 E8.97211 ; infill
G1 X98.239 Y116.285 E8.99959 ; infill
G1 X103.715 Y121.761 E9.38080 ; infill
G1 X103.715 Y122.319 E9.40828 ; infill
G1 X97.681 Y116.285 E9.82835 ; infill
G1 X97.123 Y116.285 E9.85583 ; infill
G1 X103.715 Y122.877 E10.31477 ; infill
G1 X103.715 Y123.436 E10.34225 ; infill
G1 X96.564 Y116.285 E10.84005 ; infill
G1 X96.285 Y116.285 E10.85378 ; infill
G1 X96.285 Y116.565 E10.86753 ; infill
