;FLAVOR:Marlin
;Layer height: 0.20
;generated by Mandoline Py 0.8.5 at 2021-04-14 16:55:20.622293 from "overhang3l4mm.stl"
;  abs_bed_temp = 90
;  abs_hotend_temp = 230
;  abs_max_speed = 75.0
;  adhesion_type = None
;  bed_center_x = 100
;  bed_center_y = 100
;  bed_geometry = Rectangular
;  bed_size_x = 200
;  bed_size_y = 200
;  bed_temp = 70
;  bottom_layers = 3
;  bridge_fan_speed = 100
;  brim_width = 3.0
;  cool_fan_full_layer = 2
;  cool_fan_speed_max = 100
;  cool_fan_speed_min = 20
;  default_nozzle = 0
;  end_gcode = G91 ;relative position\nG1 Z1\nG28 X ;home X-wise\nM84 ;motors off\nG90 ;absolute positioning
;  extruder_count = 1
;  feed_rate = 60
;  gcode_comments = True
;  hips_bed_temp = 100
;  hips_hotend_temp = 230
;  hips_max_speed = 30.0
;  infill_density = 30.0
;  infill_nozzle = -1
;  infill_overlap = 0.15
;  infill_type = Grid
;  layer_height = 0.2
;  nozzle_0_diam = 0.4
;  nozzle_0_filament = 1.75
;  nozzle_0_max_speed = 75.0
;  nozzle_0_temp = 190
;  nozzle_0_xoff = 0.0
;  nozzle_0_yoff = 0.0
;  nozzle_1_diam = 0.4
;  nozzle_1_filament = 1.75
;  nozzle_1_max_speed = 75.0
;  nozzle_1_temp = 190
;  nozzle_1_xoff = 25.0
;  nozzle_1_yoff = 0.0
;  nozzle_2_diam = 0.4
;  nozzle_2_filament = 1.75
;  nozzle_2_max_speed = 75.0
;  nozzle_2_temp = 190
;  nozzle_2_xoff = -25.0
;  nozzle_2_yoff = 0.0
;  nozzle_3_diam = 0.4
;  nozzle_3_filament = 1.75
;  nozzle_3_max_speed = 75.0
;  nozzle_3_temp = 190
;  nozzle_3_xoff = 0.0
;  nozzle_3_yoff = 25.0
;  nylon_bed_temp = 70
;  nylon_hotend_temp = 255
;  nylon_max_speed = 75.0
;  overhang_angle = 45
;  pc_bed_temp = 130
;  pc_hotend_temp = 290
;  pc_max_speed = 75.0
;  pet_bed_temp = 70
;  pet_hotend_temp = 230
;  pet_max_speed = 75.0
;  pla_bed_temp = 45
;  pla_hotend_temp = 205
;  pla_max_speed = 75.0
;  pp_bed_temp = 110
;  pp_hotend_temp = 250
;  pp_max_speed = 75.0
;  prime_length = 0
;  pva_bed_temp = 60
;  pva_hotend_temp = 220
;  pva_max_speed = 30.0
;  raft_layers = 3
;  raft_outset = 3.0
;  random_pos = False
;  random_starts = True
;  retract_dist = 3.0
;  retract_enable = True
;  retract_extruder = 3.0
;  retract_lift = 0.0
;  retract_speed = 60.0
;  shell_count = 2
;  shell_speed = 0
;  skirt_layers = 0
;  skirt_lines = 2
;  skirt_outset = 3.0
;  softpla_bed_temp = 30
;  softpla_hotend_temp = 230
;  softpla_max_speed = 30.0
;  start_gcode = G28 X0 Y0 ;auto-home all axes\nG28 Z0 ;auto-home all axes
;  support_density = 33.0
;  support_nozzle = -1
;  support_outset = 0.5
;  support_type = Everywhere
;  top_layers = 3
;  tpe_bed_temp = 30
;  tpe_hotend_temp = 220
;  tpe_max_speed = 30.0
;  tpu_bed_temp = 50
;  tpu_hotend_temp = 250
;  tpu_max_speed = 30.0
;  travel_rate_xy = 100
;  travel_rate_z = 5.0
M82 ;absolute extrusion mode
G21 ;metric values
G90 ;absolute positioning
M107 ;Fan off
M140 S70 ;set bed temp
M190 S70 ;wait for bed temp
M104 S190 ;set extruder0 temp
;start gcode
G28 X0 Y0 ;auto-home all axes
G28 Z0 ;auto-home all axes
;/start gcode
M109 S190 ;wait for extruder0 temp
G92 E0 ;Zero extruder
M117 Printing...
;LAYER_COUNT:45
;LAYER:0
;( Nozzle 0 )
;SPEED:50%
;TYPE:PERIMETER
G1 Z0.20 F300
G0 X95.75 Y115.75 F6000
G1 E3.000 F3600 ;unretract perimeter
G1 X104.25 Y115.75 E3.347 F1800
G1 X104.25 Y124.25 E3.694 F1800
G1 X95.75 Y124.25 E4.041 F1800
G1 X95.75 Y115.75 E4.388 F1800
G1 E1.388 F3600 ;retract perimeter
;SPEED:50%
;TYPE:PERIMETER
G0 X95.25 Y115.25 F6000
G1 E4.388 F3600 ;unretract perimeter
G1 X104.75 Y115.25 E4.776 F1800
G1 X104.75 Y124.75 E5.163 F1800
G1 X95.25 Y124.75 E5.551 F1800
G1 X95.25 Y115.25 E5.939 F1800
G1 E2.939 F3600 ;retract perimeter
;SPEED:50%
;TYPE:INFILL
G0 X96.12 Y123.90 F6000
G1 E5.939 F3600 ;unretract infill
G1 X96.10 Y123.17 E5.969 F1800
G1 X96.83 Y123.90 E6.011 F1800
G1 X97.54 Y123.90 E6.039 F1800
G1 X96.10 Y122.46 E6.122 F1800
G1 X96.10 Y121.76 E6.151 F1800
G1 X98.24 Y123.90 E6.275 F1800
G1 X98.95 Y123.90 E6.304 F1800
G1 X96.10 Y121.05 E6.468 F1800
G1 X96.10 Y120.34 E6.497 F1800
G1 X99.66 Y123.90 E6.703 F1800
G1 X100.36 Y123.90 E6.731 F1800
G1 X96.10 Y119.64 E6.978 F1800
G1 X96.10 Y118.93 E7.006 F1800
G1 X101.07 Y123.90 E7.293 F1800
G1 X101.78 Y123.90 E7.322 F1800
G1 X96.10 Y118.22 E7.650 F1800
G1 X96.10 Y117.51 E7.679 F1800
G1 X102.49 Y123.90 E8.048 F1800
G1 X103.19 Y123.90 E8.076 F1800
G1 X96.10 Y116.81 E8.486 F1800
G1 X96.10 Y116.10 E8.515 F1800
G1 X103.90 Y123.90 E8.965 F1800
G1 X103.90 Y123.19 E8.994 F1800
G1 X96.81 Y116.10 E9.403 F1800
G1 X97.51 Y116.10 E9.432 F1800
G1 X103.90 Y122.49 E9.801 F1800
G1 X103.90 Y121.78 E9.830 F1800
G1 X98.22 Y116.10 E10.157 F1800
G1 X98.93 Y116.10 E10.186 F1800
G1 X103.90 Y121.07 E10.473 F1800
G1 X103.90 Y120.36 E10.502 F1800
G1 X99.64 Y116.10 E10.748 F1800
G1 X100.34 Y116.10 E10.777 F1800
G1 X103.90 Y119.66 E10.982 F1800
G1 X103.90 Y118.95 E11.011 F1800
G1 X101.05 Y116.10 E11.176 F1800
G1 X101.76 Y116.10 E11.205 F1800
G1 X103.90 Y118.24 E11.328 F1800
G1 X103.90 Y117.54 E11.357 F1800
G1 X102.46 Y116.10 E11.440 F1800
G1 X103.17 Y116.10 E11.469 F1800
G1 X103.90 Y116.83 E11.511 F1800
G1 X103.90 Y116.12 E11.540 F1800
G1 E8.540 F3600 ;retract infill
;LAYER:1
;( Nozzle 0 )
;SPEED:100%
;TYPE:PERIMETER
G1 Z0.40 F300
G0 X104.25 Y115.75 F6000
G1 E11.540 F3600 ;unretract perimeter
G1 X104.25 Y124.25 E11.817 F3600
G1 X95.75 Y124.25 E12.095 F3600
G1 X95.75 Y115.75 E12.372 F3600
G1 X104.25 Y115.75 E12.650 F3600
G1 E9.650 F3600 ;retract perimeter
;SPEED:100%
;TYPE:PERIMETER
G0 X104.75 Y115.25 F6000
G1 E12.650 F3600 ;unretract perimeter
G1 X104.75 Y124.75 E12.960 F3600
G1 X95.25 Y124.75 E13.270 F3600
G1 X95.25 Y115.25 E13.581 F3600
G1 X104.75 Y115.25 E13.891 F3600
G1 E10.891 F3600 ;retract perimeter
;SPEED:100%
;TYPE:INFILL
G0 X103.90 Y123.88 F6000
G1 E13.891 F3600 ;unretract infill
G1 X103.17 Y123.90 E13.915 F3600
G1 X103.90 Y123.17 E13.948 F3600
G1 X103.90 Y122.46 E13.972 F3600
G1 X102.46 Y123.90 E14.038 F3600
G1 X101.76 Y123.90 E14.061 F3600
G1 X103.90 Y121.76 E14.160 F3600
G1 X103.90 Y121.05 E14.183 F3600
G1 X101.05 Y123.90 E14.315 F3600
G1 X100.34 Y123.90 E14.338 F3600
G1 X103.90 Y120.34 E14.502 F3600
G1 X103.90 Y119.64 E14.525 F3600
G1 X99.64 Y123.90 E14.722 F3600
G1 X98.93 Y123.90 E14.745 F3600
G1 X103.90 Y118.93 E14.975 F3600
G1 X103.90 Y118.22 E14.998 F3600
G1 X98.22 Y123.90 E15.260 F3600
G1 X97.51 Y123.90 E15.283 F3600
G1 X103.90 Y117.51 E15.578 F3600
G1 X103.90 Y116.81 E15.601 F3600
G1 X96.81 Y123.90 E15.929 F3600
G1 X96.10 Y123.90 E15.952 F3600
G1 X103.90 Y116.10 E16.312 F3600
G1 X103.19 Y116.10 E16.335 F3600
G1 X96.10 Y123.19 E16.663 F3600
G1 X96.10 Y122.48 E16.686 F3600
G1 X102.48 Y116.10 E16.981 F3600
G1 X101.78 Y116.10 E17.004 F3600
G1 X96.10 Y121.78 E17.266 F3600
G1 X96.10 Y121.07 E17.289 F3600
G1 X101.07 Y116.10 E17.519 F3600
G1 X100.36 Y116.10 E17.542 F3600
G1 X96.10 Y120.36 E17.739 F3600
G1 X96.10 Y119.66 E17.762 F3600
G1 X99.66 Y116.10 E17.926 F3600
G1 X98.95 Y116.10 E17.949 F3600
G1 X96.10 Y118.95 E18.081 F3600
G1 X96.10 Y118.24 E18.104 F3600
G1 X98.24 Y116.10 E18.203 F3600
G1 X97.53 Y116.10 E18.226 F3600
G1 X96.10 Y117.53 E18.292 F3600
G1 X96.10 Y116.83 E18.315 F3600
G1 X96.83 Y116.10 E18.349 F3600
G1 X96.12 Y116.10 E18.372 F3600
G1 E15.372 F3600 ;retract infill
;LAYER:2
M106 S255 ;cool_fan_full_layer
;( Nozzle 0 )
;SPEED:100%
;TYPE:PERIMETER
G1 Z0.60 F300
G0 X104.25 Y115.75 F6000
G1 E18.372 F3600 ;unretract perimeter
G1 X104.25 Y124.25 E18.649 F3600
G1 X95.75 Y124.25 E18.927 F3600
G1 X95.75 Y115.75 E19.204 F3600
G1 X104.25 Y115.75 E19.482 F3600
G1 E16.482 F3600 ;retract perimeter
;SPEED:100%
;TYPE:PERIMETER
G0 X104.75 Y115.25 F6000
G1 E19.482 F3600 ;unretract perimeter
G1 X104.75 Y124.75 E19.792 F3600
G1 X95.25 Y124.75 E20.102 F3600
G1 X95.25 Y115.25 E20.412 F3600
G1 X104.75 Y115.25 E20.723 F3600
G1 E17.723 F3600 ;retract perimeter
;SPEED:100%
;TYPE:INFILL
G0 X96.12 Y123.90 F6000
G1 E20.723 F3600 ;unretract infill
G1 X96.10 Y123.17 E20.747 F3600
G1 X96.83 Y123.90 E20.780 F3600
G1 X97.54 Y123.90 E20.803 F3600
G1 X96.10 Y122.46 E20.870 F3600
G1 X96.10 Y121.76 E20.893 F3600
G1 X98.24 Y123.90 E20.992 F3600
G1 X98.95 Y123.90 E21.015 F3600
G1 X96.10 Y121.05 E21.146 F3600
G1 X96.10 Y120.34 E21.169 F3600
G1 X99.66 Y123.90 E21.334 F3600
G1 X100.36 Y123.90 E21.357 F3600
G1 X96.10 Y119.64 E21.554 F3600
G1 X96.10 Y118.93 E21.577 F3600
G1 X101.07 Y123.90 E21.806 F3600
G1 X101.78 Y123.90 E21.829 F3600
G1 X96.10 Y118.22 E22.092 F3600
G1 X96.10 Y117.51 E22.115 F3600
G1 X102.49 Y123.90 E22.410 F3600
G1 X103.19 Y123.90 E22.433 F3600
G1 X96.10 Y116.81 E22.760 F3600
G1 X96.10 Y116.10 E22.783 F3600
G1 X103.90 Y123.90 E23.144 F3600
G1 X103.90 Y123.19 E23.167 F3600
G1 X96.81 Y116.10 E23.494 F3600
G1 X97.51 Y116.10 E23.517 F3600
G1 X103.90 Y122.49 E23.812 F3600
G1 X103.90 Y121.78 E23.835 F3600
G1 X98.22 Y116.10 E24.098 F3600
G1 X98.93 Y116.10 E24.121 F3600
G1 X103.90 Y121.07 E24.350 F3600
G1 X103.90 Y120.36 E24.373 F3600
G1 X99.64 Y116.10 E24.570 F3600
G1 X100.34 Y116.10 E24.593 F3600
G1 X103.90 Y119.66 E24.758 F3600
G1 X103.90 Y118.95 E24.781 F3600
G1 X101.05 Y116.10 E24.912 F3600
G1 X101.76 Y116.10 E24.935 F3600
G1 X103.90 Y118.24 E25.034 F3600
G1 X103.90 Y117.54 E25.057 F3600
G1 X102.46 Y116.10 E25.124 F3600
G1 X103.17 Y116.10 E25.147 F3600
G1 X103.90 Y116.83 E25.180 F3600
G1 X103.90 Y116.12 E25.204 F3600
G1 E22.204 F3600 ;retract infill
;LAYER:3
;( Nozzle 0 )
;SPEED:100%
;TYPE:PERIMETER
G1 Z0.80 F300
G0 X104.25 Y115.75 F6000
G1 E25.204 F3600 ;unretract perimeter
G1 X104.25 Y124.25 E25.481 F3600
G1 X95.75 Y124.25 E25.759 F3600
G1 X95.75 Y115.75 E26.036 F3600
G1 X104.25 Y115.75 E26.314 F3600
G1 E23.314 F3600 ;retract perimeter
;SPEED:100%
;TYPE:PERIMETER
G0 X104.75 Y115.25 F6000
G1 E26.314 F3600 ;unretract perimeter
G1 X104.75 Y124.75 E26.624 F3600
G1 X95.25 Y124.75 E26.934 F3600
G1 X95.25 Y115.25 E27.244 F3600
G1 X104.75 Y115.25 E27.555 F3600
G1 E24.555 F3600 ;retract perimeter
;SPEED:100%
;TYPE:INFILL
G0 X99.19 Y116.10 F6000
G1 E27.555 F3600 ;unretract infill
G1 X96.10 Y119.19 E27.697 F3600
G1 X96.10 Y120.81 E27.750 F3600
G1 X99.19 Y123.90 E27.893 F3600
G1 X100.81 Y123.90 E27.946 F3600
G1 X103.90 Y120.81 E28.088 F3600
G1 X103.90 Y119.19 E28.142 F3600
G1 X100.81 Y116.10 E28.284 F3600
G1 E25.284 F3600 ;retract infill
G0 X103.90 Y123.90 F6000
G1 E28.284 F3600 ;unretract infill
G1 X96.10 Y116.10 E28.644 F3600
G1 E25.644 F3600 ;retract infill
G0 X96.10 Y123.90 F6000
G1 E28.644 F3600 ;unretract infill
G1 X103.90 Y116.10 E29.004 F3600
G1 E26.004 F3600 ;retract infill
;LAYER:4
;( Nozzle 0 )
;SPEED:100%
;TYPE:PERIMETER
G1 Z1.00 F300
G0 X104.25 Y124.25 F6000
G1 E29.004 F3600 ;unretract perimeter
G1 X95.75 Y124.25 E29.282 F3600
G1 X95.75 Y115.75 E29.559 F3600
G1 X104.25 Y115.75 E29.837 F3600
G1 X104.25 Y124.25 E30.115 F3600
G1 E27.115 F3600 ;retract perimeter
;SPEED:100%
;TYPE:PERIMETER
G0 X104.75 Y124.75 F6000
G1 E30.115 F3600 ;unretract perimeter
G1 X95.25 Y124.75 E30.425 F3600
G1 X95.25 Y115.25 E30.735 F3600
G1 X104.75 Y115.25 E31.045 F3600
G1 X104.75 Y124.75 E31.355 F3600
G1 E28.355 F3600 ;retract perimeter
;SPEED:100%
;TYPE:INFILL
G0 X96.10 Y119.19 F6000
G1 E31.355 F3600 ;unretract infill
G1 X99.19 Y116.10 E31.498 F3600
G1 X100.81 Y116.10 E31.551 F3600
G1 X103.90 Y119.19 E31.694 F3600
G1 X103.90 Y120.81 E31.747 F3600
G1 X100.81 Y123.90 E31.889 F3600
G1 X99.19 Y123.90 E31.942 F3600
G1 X96.10 Y120.81 E32.085 F3600
G1 E29.085 F3600 ;retract infill
G0 X103.90 Y123.90 F6000
G1 E32.085 F3600 ;unretract infill
G1 X96.10 Y116.10 E32.445 F3600
G1 E29.445 F3600 ;retract infill
G0 X96.10 Y123.90 F6000
G1 E32.445 F3600 ;unretract infill
G1 X103.90 Y116.10 E32.805 F3600
G1 E29.805 F3600 ;retract infill
;LAYER:5
;( Nozzle 0 )
;SPEED:100%
;TYPE:PERIMETER
G1 Z1.20 F300
G0 X104.25 Y115.75 F6000
G1 E32.805 F3600 ;unretract perimeter
G1 X104.25 Y124.25 E33.083 F3600
G1 X95.75 Y124.25 E33.360 F3600
G1 X95.75 Y115.75 E33.638 F3600
G1 X104.25 Y115.75 E33.915 F3600
G1 E30.915 F3600 ;retract perimeter
;SPEED:100%
;TYPE:PERIMETER
G0 X104.75 Y115.25 F6000
G1 E33.915 F3600 ;unretract perimeter
G1 X104.75 Y124.75 E34.226 F3600
G1 X95.25 Y124.75 E34.536 F3600
G1 X95.25 Y115.25 E34.846 F3600
G1 X104.75 Y115.25 E35.156 F3600
G1 E32.156 F3600 ;retract perimeter
;SPEED:100%
;TYPE:INFILL
G0 X99.19 Y116.10 F6000
G1 E35.156 F3600 ;unretract infill
G1 X96.10 Y119.19 E35.299 F3600
G1 X96.10 Y120.81 E35.352 F3600
G1 X99.19 Y123.90 E35.494 F3600
G1 X100.81 Y123.90 E35.548 F3600
G1 X103.90 Y120.81 E35.690 F3600
G1 X103.90 Y119.19 E35.743 F3600
G1 X100.81 Y116.10 E35.886 F3600
G1 E32.886 F3600 ;retract infill
G0 X103.90 Y123.90 F6000
G1 E35.886 F3600 ;unretract infill
G1 X96.10 Y116.10 E36.246 F3600
G1 E33.246 F3600 ;retract infill
G0 X96.10 Y123.90 F6000
G1 E36.246 F3600 ;unretract infill
G1 X103.90 Y116.10 E36.606 F3600
G1 E33.606 F3600 ;retract infill
;LAYER:6
;( Nozzle 0 )
;SPEED:100%
;TYPE:PERIMETER
G1 Z1.40 F300
G0 X104.25 Y115.75 F6000
G1 E36.606 F3600 ;unretract perimeter
G1 X104.25 Y124.25 E36.884 F3600
G1 X95.75 Y124.25 E37.161 F3600
G1 X95.75 Y115.75 E37.439 F3600
G1 X104.25 Y115.75 E37.716 F3600
G1 E34.716 F3600 ;retract perimeter
;SPEED:100%
;TYPE:PERIMETER
G0 X104.75 Y115.25 F6000
G1 E37.716 F3600 ;unretract perimeter
G1 X104.75 Y124.75 E38.026 F3600
G1 X95.25 Y124.75 E38.337 F3600
G1 X95.25 Y115.25 E38.647 F3600
G1 X104.75 Y115.25 E38.957 F3600
G1 E35.957 F3600 ;retract perimeter
;SPEED:100%
;TYPE:INFILL
G0 X96.10 Y119.19 F6000
G1 E38.957 F3600 ;unretract infill
G1 X99.19 Y116.10 E39.100 F3600
G1 X100.81 Y116.10 E39.153 F3600
G1 X103.90 Y119.19 E39.295 F3600
G1 X103.90 Y120.81 E39.348 F3600
G1 X100.81 Y123.90 E39.491 F3600
G1 X99.19 Y123.90 E39.544 F3600
G1 X96.10 Y120.81 E39.687 F3600
G1 E36.687 F3600 ;retract infill
G0 X103.90 Y123.90 F6000
G1 E39.687 F3600 ;unretract infill
G1 X96.10 Y116.10 E40.047 F3600
G1 E37.047 F3600 ;retract infill
G0 X96.10 Y123.90 F6000
G1 E40.047 F3600 ;unretract infill
G1 X103.90 Y116.10 E40.407 F3600
G1 E37.407 F3600 ;retract infill
;LAYER:7
;( Nozzle 0 )
;SPEED:100%
;TYPE:PERIMETER
G1 Z1.60 F300
G0 X95.75 Y115.75 F6000
G1 E40.407 F3600 ;unretract perimeter
G1 X104.25 Y115.75 E40.684 F3600
G1 X104.25 Y124.25 E40.962 F3600
G1 X95.75 Y124.25 E41.240 F3600
G1 X95.75 Y115.75 E41.517 F3600
G1 E38.517 F3600 ;retract perimeter
;SPEED:100%
;TYPE:PERIMETER
G0 X95.25 Y115.25 F6000
G1 E41.517 F3600 ;unretract perimeter
G1 X104.75 Y115.25 E41.827 F3600
G1 X104.75 Y124.75 E42.137 F3600
G1 X95.25 Y124.75 E42.448 F3600
G1 X95.25 Y115.25 E42.758 F3600
G1 E39.758 F3600 ;retract perimeter
;SPEED:100%
;TYPE:INFILL
G0 X99.19 Y116.10 F6000
G1 E42.758 F3600 ;unretract infill
G1 X96.10 Y119.19 E42.900 F3600
G1 X96.10 Y120.81 E42.954 F3600
G1 X99.19 Y123.90 E43.096 F3600
G1 X100.81 Y123.90 E43.149 F3600
G1 X103.90 Y120.81 E43.292 F3600
G1 X103.90 Y119.19 E43.345 F3600
G1 X100.81 Y116.10 E43.487 F3600
G1 E40.487 F3600 ;retract infill
G0 X103.90 Y123.90 F6000
G1 E43.487 F3600 ;unretract infill
G1 X96.10 Y116.10 E43.848 F3600
G1 E40.848 F3600 ;retract infill
G0 X96.10 Y123.90 F6000
G1 E43.848 F3600 ;unretract infill
G1 X103.90 Y116.10 E44.208 F3600
G1 E41.208 F3600 ;retract infill
;LAYER:8
;( Nozzle 0 )
;SPEED:100%
;TYPE:PERIMETER
G1 Z1.80 F300
G0 X104.25 Y124.25 F6000
G1 E44.208 F3600 ;unretract perimeter
G1 X95.75 Y124.25 E44.485 F3600
G1 X95.75 Y115.75 E44.763 F3600
G1 X104.25 Y115.75 E45.040 F3600
G1 X104.25 Y124.25 E45.318 F3600
G1 E42.318 F3600 ;retract perimeter
;SPEED:100%
;TYPE:PERIMETER
G0 X104.75 Y124.75 F6000
G1 E45.318 F3600 ;unretract perimeter
G1 X95.25 Y124.75 E45.628 F3600
G1 X95.25 Y115.25 E45.938 F3600
G1 X104.75 Y115.25 E46.249 F3600
G1 X104.75 Y124.75 E46.559 F3600
G1 E43.559 F3600 ;retract perimeter
;SPEED:100%
;TYPE:INFILL
G0 X96.10 Y119.19 F6000
G1 E46.559 F3600 ;unretract infill
G1 X99.19 Y116.10 E46.701 F3600
G1 X100.81 Y116.10 E46.754 F3600
G1 X103.90 Y119.19 E46.897 F3600
G1 X103.90 Y120.81 E46.950 F3600
G1 X100.81 Y123.90 E47.093 F3600
G1 X99.19 Y123.90 E47.146 F3600
G1 X96.10 Y120.81 E47.288 F3600
G1 E44.288 F3600 ;retract infill
G0 X103.90 Y123.90 F6000
G1 E47.288 F3600 ;unretract infill
G1 X96.10 Y116.10 E47.648 F3600
G1 E44.648 F3600 ;retract infill
