;FLAVOR:Marlin
;TIME:6666
;Filament used: 0m
;Layer height: 0.1
;MINX:2.14748e+06
;MINY:2.14748e+06
;MINZ:2.14748e+06
;MAXX:-2.14748e+06
;MAXY:-2.14748e+06
;MAXZ:-2.14748e+06

;Generated with Cura_SteamEngine 4.4.1
M140 S55
M105
M190 S55
M104 S200
M105
M109 S200
M82 ;absolute extrusion mode
G28 ;Home
G1 Z15.0 F6000 ;Move the platform down 15mm
;Prime the extruder
G92 E0
G1 F200 E3
G92 E0
G92 E0
G92 E0
G1 F1500 E-6.5
;LAYER_COUNT:88
;LAYER:0
M107
G0 F3600 X95.2 Y55.2 Z0.3
;TYPE:SUPPORT
G1 F1500 E0
G1 F1800 X104.8 Y55.2 E0.47895
G1 X104.8 Y94.1 E2.41967
G1 X95.2 Y94.1 E2.89862
G1 X95.2 Y55.2 E4.83935
G0 F3600 X95.6 Y55.6
G1 F1800 X104.4 Y55.6 E5.27838
G1 X104.4 Y93.7 E7.1792
G1 X95.6 Y93.7 E7.61823
G1 X95.6 Y55.6 E9.51905
G0 F3600 X95.76 Y55.86
G1 F1800 X104.24 Y55.86 E9.94212
G0 F3600 X103.74 Y55.76
G1 F1800 X103.74 Y93.54 E11.82697
G0 F3600 X104.24 Y93.1
G1 F1800 X95.76 Y93.1 E12.25004
G0 F3600 X95.76 Y90.44
G1 F1800 X104.24 Y90.44 E12.67311
G0 F3600 X104.24 Y87.78
G1 F1800 X95.76 Y87.78 E13.09618
G0 F3600 X95.76 Y85.12
G1 F1800 X104.24 Y85.12 E13.51925
G0 F3600 X104.24 Y82.46
G1 F1800 X95.76 Y82.46 E13.94232
G0 F3600 X95.76 Y79.8
G1 F1800 X104.24 Y79.8 E14.36538
G0 F3600 X104.24 Y77.14
G1 F1800 X95.76 Y77.14 E14.78845
G0 F3600 X95.76 Y74.48
G1 F1800 X104.24 Y74.48 E15.21152
G0 F3600 X104.24 Y71.82
G1 F1800 X95.76 Y71.82 E15.63459
G0 F3600 X95.76 Y69.16
G1 F1800 X104.24 Y69.16 E16.05766
G0 F3600 X104.24 Y66.5
G1 F1800 X95.76 Y66.5 E16.48073
G0 F3600 X95.76 Y63.84
G1 F1800 X104.24 Y63.84 E16.9038
G0 F3600 X104.24 Y61.18
G1 F1800 X95.76 Y61.18 E17.32687
G0 F3600 X95.76 Y58.52
G1 F1800 X104.24 Y58.52 E17.74994
G0 F3600 X101.08 Y55.76
G1 F1800 X101.08 Y93.54 E19.63479
G0 F3600 X98.42 Y93.54
G1 F1800 X98.42 Y55.76 E21.51964
G1 F1500 E15.01964
;MESH:overhang3l4mm.stl
G0 F3600 X98.42 Y94.335
G0 X98.42 Y95.62
G0 X95.67 Y104.33
G0 X95.2 Y104.8
;TYPE:WALL-OUTER
G1 F1500 E21.51964
G1 F1800 X95.2 Y95.2 E21.99859
G1 X104.8 Y95.2 E22.47753
G1 X104.8 Y104.8 E22.95648
G1 X95.2 Y104.8 E23.43542
G0 F3600 X95.2 Y104.6
G0 X95.6 Y104.4
;TYPE:WALL-INNER
G1 F1800 X95.6 Y95.6 E23.87446
G1 X104.4 Y95.6 E24.31349
G1 X104.4 Y104.4 E24.75253
G1 X95.6 Y104.4 E25.19156
G0 F3600 X95.99 Y104.01
;TYPE:SKIN
G1 F1800 X95.99 Y95.99 E25.59168
G1 X104.01 Y95.99 E25.9918
G1 X104.01 Y104.01 E26.39192
G1 X95.99 Y104.01 E26.79204
G0 F3600 X96.475 Y103.829
G1 F1800 X96.169 Y103.523 E26.81363
G0 F3600 X96.169 Y102.957
G1 F1800 X97.041 Y103.829 E26.87515
G0 F3600 X97.606 Y103.829
G1 F1800 X96.169 Y102.391 E26.97657
G0 F3600 X96.169 Y101.826
G1 F1800 X98.172 Y103.829 E27.1179
G0 F3600 X98.738 Y103.829
G1 F1800 X96.169 Y101.26 E27.29915
G0 F3600 X96.169 Y100.694
G1 F1800 X99.303 Y103.829 E27.52031
G0 F3600 X99.869 Y103.829
G1 F1800 X96.169 Y100.129 E27.78136
G0 F3600 X96.169 Y99.563
G1 F1800 X100.435 Y103.829 E28.08235
G0 F3600 X101.001 Y103.829
G1 F1800 X96.169 Y98.997 E28.42328
G0 F3600 X96.169 Y98.432
G1 F1800 X101.566 Y103.829 E28.80406
G0 F3600 X102.132 Y103.829
G1 F1800 X96.169 Y97.866 E29.22479
G0 F3600 X96.169 Y97.3
G1 F1800 X102.698 Y103.829 E29.68544
G0 F3600 X103.263 Y103.829
G1 F1800 X96.169 Y96.735 E30.18596
G0 F3600 X96.169 Y96.169
G1 F1800 X103.829 Y103.829 E30.72642
G0 F3600 X103.829 Y103.263
G1 F1800 X96.735 Y96.17 E31.2269
G0 F3600 X97.301 Y96.17
G1 F1800 X103.829 Y102.698 E31.68749
G0 F3600 X103.829 Y102.132
G1 F1800 X97.867 Y96.17 E32.10814
G0 F3600 X98.432 Y96.17
G1 F1800 X103.829 Y101.566 E32.48889
G0 F3600 X103.829 Y101.001
G1 F1800 X98.998 Y96.17 E32.82974
G0 F3600 X99.564 Y96.17
M104 S195
G1 F1800 X103.829 Y100.435 E33.13066
G0 F3600 X103.829 Y99.869
G1 F1800 X100.129 Y96.17 E33.39168
G0 F3600 X100.695 Y96.17
G1 F1800 X103.829 Y99.303 E33.61277
G0 F3600 X103.829 Y98.738
G1 F1800 X101.261 Y96.17 E33.79395
G0 F3600 X101.826 Y96.17
G1 F1800 X103.829 Y98.172 E33.93524
G0 F3600 X103.829 Y97.606
G1 F1800 X102.392 Y96.17 E34.03659
G0 F3600 X102.958 Y96.17
G1 F1800 X103.829 Y97.041 E34.09805
G0 F3600 X103.829 Y96.475
G1 F1800 X103.523 Y96.17 E34.1196
G1 F1500 E27.6196
;MESH:NONMESH
G0 F600 X103.523 Y96.17 Z0.4
G0 F3600 X95.614 Y95.614
G0 X95.614 Y94.335
G0 X95.2 Y55.2
;TIME_ELAPSED:30.113374
;LAYER:1
M140 S55
M106 S255
;TYPE:SUPPORT
G1 F1500 E34.1196
G1 F2700 X104.8 Y55.2 E34.27925
G1 X104.8 Y94.1 E34.92616
G1 X95.2 Y94.1 E35.08581
G1 X95.2 Y55.2 E35.73272
G0 F5400 X95.76 Y55.56
G1 F2700 X95.56 Y55.56 E35.73605
G1 X95.56 Y93.74 E36.37098
G1 X95.76 Y93.74 E36.37431
G1 X95.76 Y55.56 E37.00924
G1 X98.42 Y55.56 E37.05348
G1 X98.42 Y93.74 E37.68842
G1 X101.08 Y93.74 E37.73265
G1 X101.08 Y55.56 E38.36759
G1 X103.74 Y55.56 E38.41182
G1 X103.74 Y93.74 E39.04676
G1 X104.44 Y93.74 E39.0584
G1 X104.44 Y55.56 E39.69334
G1 X103.74 Y55.56 E39.70498
G1 F1500 E33.20498
;MESH:overhang3l4mm.stl
G0 F5400 X103.74 Y94.335
G0 X103.74 Y95.62
G0 X95.67 Y104.33
G0 X95.6 Y104.4
;TYPE:WALL-INNER
G1 F1500 E39.70498
G1 F2700 X95.6 Y95.6 E39.85132
G1 X104.4 Y95.6 E39.99767
G1 X104.4 Y104.4 E40.14401
G1 X95.6 Y104.4 E40.29036
G0 F5400 X95.2 Y104.8
;TYPE:WALL-OUTER
G1 F1800 X95.2 Y95.2 E40.45
G1 X104.8 Y95.2 E40.60965
G1 X104.8 Y104.8 E40.7693
G1 X95.2 Y104.8 E40.92895
G0 F5400 X95.2 Y104.6
G0 X95.99 Y104.01
;TYPE:SKIN
G1 F1800 X95.99 Y95.99 E41.06232
G1 X104.01 Y95.99 E41.1957
G1 X104.01 Y104.01 E41.32907
G1 X95.99 Y104.01 E41.46244
G0 F5400 X96.17 Y96.728
G1 F1800 X96.729 Y96.169 E41.47559
G0 F5400 X97.295 Y96.169
G1 F1800 X96.17 Y97.294 E41.50205
G0 F5400 X96.17 Y97.86
G1 F1800 X97.86 Y96.169 E41.54181
G0 F5400 X98.426 Y96.169
G1 F1800 X96.17 Y98.425 E41.59486
G0 F5400 X96.17 Y98.991
G1 F1800 X98.992 Y96.169 E41.66123
G0 F5400 X99.557 Y96.169
G1 F1800 X96.17 Y99.557 E41.7409
G0 F5400 X96.17 Y100.122
G1 F1800 X100.123 Y96.169 E41.83387
G0 F5400 X100.689 Y96.169
G1 F1800 X96.17 Y100.688 E41.94015
G0 F5400 X96.17 Y101.254
G1 F1800 X101.254 Y96.169 E42.05973
G0 F5400 X101.82 Y96.169
G1 F1800 X96.17 Y101.819 E42.19261
G0 F5400 X96.17 Y102.385
G1 F1800 X102.386 Y96.169 E42.3388
G0 F5400 X102.951 Y96.169
G1 F1800 X96.17 Y102.951 E42.49829
G0 F5400 X96.17 Y103.516
G1 F1800 X103.517 Y96.169 E42.67108
G0 F5400 X103.829 Y96.423
G1 F1800 X96.423 Y103.829 E42.84526
G0 F5400 X96.988 Y103.829
G1 F1800 X103.829 Y96.988 E43.00615
G0 F5400 X103.829 Y97.554
G1 F1800 X97.554 Y103.829 E43.15373
G0 F5400 X98.12 Y103.829
G1 F1800 X103.829 Y98.12 E43.28799
G0 F5400 X103.829 Y98.685
G1 F1800 X98.685 Y103.829 E43.40897
G0 F5400 X99.251 Y103.829
G1 F1800 X103.829 Y99.251 E43.51664
G0 F5400 X103.829 Y99.817
G1 F1800 X99.817 Y103.829 E43.611
G0 F5400 X100.382 Y103.829
G1 F1800 X103.829 Y100.382 E43.69206
G0 F5400 X103.829 Y100.948
G1 F1800 X100.948 Y103.829 E43.75982
G0 F5400 X101.514 Y103.829
G1 F1800 X103.829 Y101.514 E43.81427
G0 F5400 X103.829 Y102.08
G1 F1800 X102.08 Y103.829 E43.8554
G0 F5400 X102.645 Y103.829
G1 F1800 X103.829 Y102.645 E43.88325
G0 F5400 X103.829 Y103.211
G1 F1800 X103.211 Y103.829 E43.89778
G1 X103.183 Y103.857
G1 F1500 E37.39778
;MESH:NONMESH
G0 F600 X103.183 Y103.857 Z0.5
G0 F5400 X95.614 Y95.614
G0 X95.614 Y94.335
G0 X95.2 Y55.2
;TIME_ELAPSED:48.360506
;LAYER:2
;TYPE:SUPPORT
G1 F1500 E43.89778
G1 F3600 X104.8 Y55.2 E44.05743
G1 X104.8 Y94.1 E44.70434
G1 X95.2 Y94.1 E44.86399
G1 X95.2 Y55.2 E45.5109
G0 F7200 X95.76 Y55.56
G1 F3600 X95.56 Y55.56 E45.51422
G1 X95.56 Y93.74 E46.14916
G1 X95.76 Y93.74 E46.15248
G1 X95.76 Y55.56 E46.78742
G1 X98.42 Y55.56 E46.83166
G1 X98.42 Y93.74 E47.46659
G1 X101.08 Y93.74 E47.51083
G1 X101.08 Y55.56 E48.14576
G1 X103.74 Y55.56 E48.19
G1 X103.74 Y93.74 E48.82494
G1 X104.44 Y93.74 E48.83658
G1 X104.44 Y55.56 E49.47151
G1 X103.74 Y55.56 E49.48315
G1 F1500 E42.98315
;MESH:overhang3l4mm.stl
G0 F7200 X103.74 Y94.335
G0 X103.74 Y95.62
G0 X95.67 Y104.33
G0 X95.6 Y104.4
;TYPE:WALL-INNER
G1 F1500 E49.48315
G1 F3600 X95.6 Y95.6 E49.6295
G1 X104.4 Y95.6 E49.77584
G1 X104.4 Y104.4 E49.92219
G1 X95.6 Y104.4 E50.06853
G0 F7200 X95.2 Y104.8
;TYPE:WALL-OUTER
G1 F1800 X95.2 Y95.2 E50.22818
G1 X104.8 Y95.2 E50.38783
G1 X104.8 Y104.8 E50.54748
G1 X95.2 Y104.8 E50.70713
G0 F7200 X95.2 Y104.6
G0 X95.99 Y104.01
;TYPE:SKIN
G1 F1800 X95.99 Y95.99 E50.8405
G1 X104.01 Y95.99 E50.97387
G1 X104.01 Y104.01 E51.10725
G1 X95.99 Y104.01 E51.24062
G0 F7200 X96.475 Y103.829
G1 F1800 X96.169 Y103.523 E51.24782
G0 F7200 X96.169 Y102.957
G1 F1800 X97.041 Y103.829 E51.26833
G0 F7200 X97.606 Y103.829
G1 F1800 X96.169 Y102.391 E51.30213
G0 F7200 X96.169 Y101.826
G1 F1800 X98.172 Y103.829 E51.34924
G0 F7200 X98.738 Y103.829
G1 F1800 X96.169 Y101.26 E51.40966
G0 F7200 X96.169 Y100.694
G1 F1800 X99.303 Y103.829 E51.48338
G0 F7200 X99.869 Y103.829
G1 F1800 X96.169 Y100.129 E51.5704
G0 F7200 X96.169 Y99.563
G1 F1800 X100.435 Y103.829 E51.67073
G0 F7200 X101.001 Y103.829
G1 F1800 X96.169 Y98.997 E51.78437
G0 F7200 X96.169 Y98.432
G1 F1800 X101.566 Y103.829 E51.9113
G0 F7200 X102.132 Y103.829
G1 F1800 X96.169 Y97.866 E52.05154
G0 F7200 X96.169 Y97.3
G1 F1800 X102.698 Y103.829 E52.20509
G0 F7200 X103.263 Y103.829
G1 F1800 X96.169 Y96.735 E52.37193
G0 F7200 X96.169 Y96.169
G1 F1800 X103.829 Y103.829 E52.55208
G0 F7200 X103.829 Y103.263
G1 F1800 X96.735 Y96.17 E52.71891
G0 F7200 X97.301 Y96.17
G1 F1800 X103.829 Y102.698 E52.87244
G0 F7200 X103.829 Y102.132
G1 F1800 X97.867 Y96.17 E53.01265
G0 F7200 X98.432 Y96.17
G1 F1800 X103.829 Y101.566 E53.13957
G0 F7200 X103.829 Y101.001
G1 F1800 X98.998 Y96.17 E53.25319
G0 F7200 X99.564 Y96.17
G1 F1800 X103.829 Y100.435 E53.3535
G0 F7200 X103.829 Y99.869
G1 F1800 X100.129 Y96.17 E53.4405
G0 F7200 X100.695 Y96.17
G1 F1800 X103.829 Y99.303 E53.5142
G0 F7200 X103.829 Y98.738
G1 F1800 X101.261 Y96.17 E53.57459
G0 F7200 X101.826 Y96.17
G1 F1800 X103.829 Y98.172 E53.62169
G0 F7200 X103.829 Y97.606
G1 F1800 X102.392 Y96.17 E53.65547
G0 F7200 X102.958 Y96.17
G1 F1800 X103.829 Y97.041 E53.67596
G0 F7200 X103.829 Y96.475
G1 F1800 X103.523 Y96.17 E53.68314
G1 F1500 E47.18314
;MESH:NONMESH
G0 F600 X103.523 Y96.17 Z0.6
G0 F7200 X95.614 Y95.614
G0 X95.614 Y94.335
G0 X95.2 Y55.2
;TIME_ELAPSED:64.309727
;LAYER:3
;TYPE:SUPPORT
G1 F1500 E53.68314
G1 F3600 X104.8 Y55.2 E53.84279
G1 X104.8 Y94.1 E54.4897
G1 X95.2 Y94.1 E54.64935
G1 X95.2 Y55.2 E55.29626
G0 F7200 X95.76 Y55.56
G1 F3600 X95.56 Y55.56 E55.29959
G1 X95.56 Y93.74 E55.93452
G1 X95.76 Y93.74 E55.93785
G1 X95.76 Y55.56 E56.57278
G1 X98.42 Y55.56 E56.61702
G1 X98.42 Y93.74 E57.25196
G1 X101.08 Y93.74 E57.29619
G1 X101.08 Y55.56 E57.93113
G1 X103.74 Y55.56 E57.97536
G1 X103.74 Y93.74 E58.6103
G1 X104.44 Y93.74 E58.62194
G1 X104.44 Y55.56 E59.25688
G1 X103.74 Y55.56 E59.26852
G1 F1500 E52.76852
;MESH:overhang3l4mm.stl
G0 F7200 X103.74 Y94.335
G0 X103.74 Y95.62
G0 X104.038 Y95.759
;TYPE:FILL
G1 F1500 E59.26852
G1 F3600 X95.759 Y104.038 E59.46323
G0 F7200 X95.759 Y104.044
G1 F3600 X95.955 Y104.239 E59.46782
G0 F7200 X98.387 Y104.239
G1 F3600 X104.239 Y98.387 E59.60545
G0 F7200 X104.239 Y98.381
G1 F3600 X101.617 Y95.759 E59.66712
G0 F7200 X101.21 Y95.759
G1 F3600 X95.759 Y101.21 E59.79532
G0 F7200 X95.759 Y101.215
G1 F3600 X98.783 Y104.239 E59.86644
G1 X98.811 Y104.267
G0 F7200 X101.215 Y104.239
G1 F3600 X104.239 Y101.215 E59.93756
G0 F7200 X104.239 Y101.21
G1 F3600 X98.789 Y95.759 E60.06575
G0 F7200 X98.381 Y95.759
G1 F3600 X95.759 Y98.381 E60.12741
G0 F7200 X95.759 Y98.387
G1 F3600 X101.611 Y104.239 E60.26504
G1 X101.639 Y104.267
G0 F7200 X104.044 Y104.239
G1 F3600 X104.239 Y104.044 E60.26963
G0 F7200 X104.239 Y104.038
G1 F3600 X95.96 Y95.759 E60.46434
G1 X95.932 Y95.731
G0 F7200 X95.67 Y104.33
G0 X95.6 Y104.4
;TYPE:WALL-INNER
G1 F3600 X95.6 Y95.6 E60.61068
G1 X104.4 Y95.6 E60.75703
G1 X104.4 Y104.4 E60.90337
G1 X95.6 Y104.4 E61.04972
G0 F7200 X95.2 Y104.8
;TYPE:WALL-OUTER
G1 F1800 X95.2 Y95.2 E61.20936
G1 X104.8 Y95.2 E61.36901
G1 X104.8 Y104.8 E61.52866
G1 X95.2 Y104.8 E61.68831
G0 F7200 X95.2 Y104.6
G0 X95.882 Y104
G1 F1500 E55.18831
;MESH:NONMESH
G0 F600 X95.882 Y104 Z0.7
G0 F7200 X95.614 Y95.614
G0 X95.614 Y94.335
G0 X95.2 Y55.2
;TIME_ELAPSED:75.108181
;LAYER:4
;TYPE:SUPPORT
G1 F1500 E61.68831
G1 F3600 X104.8 Y55.2 E61.84796
G1 X104.8 Y94.1 E62.49487
G1 X95.2 Y94.1 E62.65452
G1 X95.2 Y55.2 E63.30143
G0 F7200 X95.76 Y55.56
G1 F3600 X95.56 Y55.56 E63.30475
G1 X95.56 Y93.74 E63.93969
G1 X95.76 Y93.74 E63.94301
G1 X95.76 Y55.56 E64.57795
G1 X98.42 Y55.56 E64.62219
G1 X98.42 Y93.74 E65.25712
G1 X101.08 Y93.74 E65.30136
G1 X101.08 Y55.56 E65.93629
G1 X103.74 Y55.56 E65.98053
G1 X103.74 Y93.74 E66.61547
G1 X104.44 Y93.74 E66.62711
G1 X104.44 Y55.56 E67.26204
G1 X103.74 Y55.56 E67.27368
G1 F1500 E60.77368
;MESH:overhang3l4mm.stl
G0 F7200 X103.74 Y94.335
G0 X103.74 Y95.62
G0 X104.038 Y95.759
;TYPE:FILL
G1 F1500 E67.27368
G1 F3600 X95.759 Y104.038 E67.46839
G0 F7200 X95.759 Y104.044
G1 F3600 X95.955 Y104.239 E67.47299
G0 F7200 X98.387 Y104.239
G1 F3600 X104.239 Y98.387 E67.61062
G0 F7200 X104.239 Y98.381
G1 F3600 X101.617 Y95.759 E67.67229
G0 F7200 X101.21 Y95.759
G1 F3600 X95.759 Y101.21 E67.80049
G0 F7200 X95.759 Y101.215
G1 F3600 X98.783 Y104.239 E67.87161
G1 X98.811 Y104.267
G0 F7200 X101.215 Y104.239
G1 F3600 X104.239 Y101.215 E67.94273
G0 F7200 X104.239 Y101.21
G1 F3600 X98.789 Y95.759 E68.07091
G0 F7200 X98.381 Y95.759
G1 F3600 X95.759 Y98.381 E68.13258
G0 F7200 X95.759 Y98.387
G1 F3600 X101.611 Y104.239 E68.27021
G1 X101.639 Y104.267
G0 F7200 X104.044 Y104.239
G1 F3600 X104.239 Y104.044 E68.2748
G0 F7200 X104.239 Y104.038
G1 F3600 X95.96 Y95.759 E68.4695
G1 X95.932 Y95.731
G0 F7200 X95.67 Y104.33
G0 X95.6 Y104.4
;TYPE:WALL-INNER
G1 F3600 X95.6 Y95.6 E68.61585
G1 X104.4 Y95.6 E68.76219
G1 X104.4 Y104.4 E68.90854
G1 X95.6 Y104.4 E69.05488
G0 F7200 X95.2 Y104.8
;TYPE:WALL-OUTER
G1 F1800 X95.2 Y95.2 E69.21453
G1 X104.8 Y95.2 E69.37418
G1 X104.8 Y104.8 E69.53383
G1 X95.2 Y104.8 E69.69348
G0 F7200 X95.2 Y104.6
G0 X95.882 Y104
G1 F1500 E63.19348
;MESH:NONMESH
G0 F600 X95.882 Y104 Z0.8
G0 F7200 X95.614 Y95.614
G0 X95.614 Y94.335
G0 X95.2 Y55.2
;TIME_ELAPSED:85.906635
;LAYER:5
;TYPE:SUPPORT
G1 F1500 E69.69348
G1 F3600 X104.8 Y55.2 E69.85313
G1 X104.8 Y94.1 E70.50004
G1 X95.2 Y94.1 E70.65968
G1 X95.2 Y55.2 E71.30659
G0 F7200 X95.76 Y55.56
G1 F3600 X95.56 Y55.56 E71.30992
G1 X95.56 Y93.74 E71.94486
G1 X95.76 Y93.74 E71.94818
G1 X95.76 Y55.56 E72.58312
G1 X98.42 Y55.56 E72.62735
G1 X98.42 Y93.74 E73.26229
G1 X101.08 Y93.74 E73.30653
G1 X101.08 Y55.56 E73.94146
G1 X103.74 Y55.56 E73.9857
G1 X103.74 Y93.74 E74.62063
G1 X104.44 Y93.74 E74.63227
G1 X104.44 Y55.56 E75.26721
G1 X103.74 Y55.56 E75.27885
G1 F1500 E68.77885
;MESH:overhang3l4mm.stl
G0 F7200 X103.74 Y94.335
G0 X103.74 Y95.62
G0 X104.038 Y95.759
;TYPE:FILL
G1 F1500 E75.27885
G1 F3600 X95.759 Y104.038 E75.47356
G0 F7200 X95.759 Y104.044
G1 F3600 X95.955 Y104.239 E75.47816
G0 F7200 X98.387 Y104.239
G1 F3600 X104.239 Y98.387 E75.61579
G0 F7200 X104.239 Y98.381
G1 F3600 X101.617 Y95.759 E75.67745
G0 F7200 X101.21 Y95.759
G1 F3600 X95.759 Y101.21 E75.80565
G0 F7200 X95.759 Y101.215
G1 F3600 X98.783 Y104.239 E75.87677
G1 X98.811 Y104.267
G0 F7200 X101.215 Y104.239
G1 F3600 X104.239 Y101.215 E75.94789
G0 F7200 X104.239 Y101.21
G1 F3600 X98.789 Y95.759 E76.07608
G0 F7200 X98.381 Y95.759
G1 F3600 X95.759 Y98.381 E76.13775
G0 F7200 X95.759 Y98.387
G1 F3600 X101.611 Y104.239 E76.27538
G1 X101.639 Y104.267
G0 F7200 X104.044 Y104.239
G1 F3600 X104.239 Y104.044 E76.27996
G0 F7200 X104.239 Y104.038
G1 F3600 X95.96 Y95.759 E76.47467
G1 X95.932 Y95.731
G0 F7200 X95.67 Y104.33
G0 X95.6 Y104.4
;TYPE:WALL-INNER
G1 F3600 X95.6 Y95.6 E76.62102
G1 X104.4 Y95.6 E76.76736
G1 X104.4 Y104.4 E76.91371
G1 X95.6 Y104.4 E77.06005
G0 F7200 X95.2 Y104.8
;TYPE:WALL-OUTER
G1 F1800 X95.2 Y95.2 E77.2197
G1 X104.8 Y95.2 E77.37935
G1 X104.8 Y104.8 E77.539
G1 X95.2 Y104.8 E77.69864
G0 F7200 X95.2 Y104.6
G0 X95.882 Y104
G1 F1500 E71.19864
;MESH:NONMESH
G0 F600 X95.882 Y104 Z0.9
G0 F7200 X95.614 Y95.614
G0 X95.614 Y94.335
G0 X95.2 Y55.2
;TIME_ELAPSED:96.705089
;LAYER:6
;TYPE:SUPPORT
G1 F1500 E77.69864
G1 F3600 X104.8 Y55.2 E77.85829
G1 X104.8 Y94.1 E78.5052
G1 X95.2 Y94.1 E78.66485
G1 X95.2 Y55.2 E79.31176
G0 F7200 X95.76 Y55.56
G1 F3600 X95.56 Y55.56 E79.31509
G1 X95.56 Y93.74 E79.95002
