; generated by Slic3r 1.2.9 on 2021-04-14 at 16:55:19

; external perimeters extrusion width = 0.50mm
; perimeters extrusion width = 0.72mm
; infill extrusion width = 0.72mm
; solid infill extrusion width = 0.72mm
; top infill extrusion width = 0.72mm
; support material extrusion width = 0.50mm

M107 ; disable fan
M104 S200 ; set temperature
G28 ; home all axes
G1 Z5 F5000 ; lift nozzle

M109 S200 ; wait for temperature to be reached
G21 ; set units to millimeters
G90 ; use absolute coordinates
M82 ; use absolute distances for extrusion
G92 E0 ; reset extrusion distance
G1 Z0.350 F7800.000 ; move to next layer (0)
G1 E-2.00000 F2400.00000 ; retract
G92 E0 ; reset extrusion distance
G1 X88.243 Y69.502 F7800.000 ; move to first skirt point
G1 E2.00000 F2400.00000 ; unretract
G1 X89.996 Y68.023 E2.07096 F1800.000 ; skirt
G1 X91.824 Y67.297 E2.13183 ; skirt
G1 X93.446 Y66.919 E2.18337 ; skirt
G1 X94.950 Y66.746 E2.23020 ; skirt
G1 X105.712 Y66.746 E2.56321 ; skirt
G1 X107.971 Y67.143 E2.63417 F1800.000 ; skirt
G1 X109.559 Y67.977 E2.68966 ; skirt
G1 X110.519 Y68.662 E2.72615 ; skirt
G1 X112.128 Y70.297 E2.79712 ; skirt
G1 X113.083 Y72.382 E2.86808 ; skirt
G1 X113.298 Y74.056 E2.92030 ; skirt
G1 X113.298 Y115.501 E4.20267 ; skirt
G1 X113.197 Y116.650 E4.23836 ; skirt
G1 X111.525 Y126.149 E4.53678 ; skirt
G1 X110.742 Y128.305 E4.60774 ; skirt
G1 X109.271 Y130.064 E4.67870 ; skirt
G1 X107.288 Y131.217 E4.74967 ; skirt
G1 X105.000 Y131.625 E4.82158 ; skirt
G1 X95.000 Y131.625 E5.13100 ; skirt
G1 X92.741 Y131.228 E5.20196 ; skirt
G1 X90.753 Y130.085 E5.27292 ; skirt
G1 X89.274 Y128.332 E5.34388 ; skirt
G1 X88.469 Y126.114 E5.41688 ; skirt
G1 X86.797 Y116.309 E5.72466 ; skirt
G1 X86.702 Y115.195 E5.75925 ; skirt
G1 X86.702 Y73.749 E7.04162 ; skirt
G1 X87.099 Y71.490 E7.11258 ; skirt
G1 X88.205 Y69.567 E7.18123 ; skirt
G1 E5.18123 F2400.00000 ; retract
G92 E0 ; reset extrusion distance
G1 X103.400 Y123.400 F7800.000 ; move to first perimeter point
G1 E2.00000 F2400.00000 ; unretract
G1 X96.600 Y123.400 E2.21041 F1800.000 ; perimeter
G1 X96.600 Y116.600 E2.42083 ; perimeter
G1 X103.400 Y116.600 E2.63124 ; perimeter
G1 X103.400 Y123.325 E2.83934 ; perimeter
G1 X104.025 Y124.025 F7800.000 ; move to first perimeter point
G1 X95.975 Y124.025 E3.08842 F1800.000 ; perimeter
G1 X95.975 Y115.975 E3.33751 ; perimeter
G1 X104.025 Y115.975 E3.58659 ; perimeter
G1 X104.025 Y123.950 E3.83336 ; perimeter
G1 X104.650 Y124.650 F7800.000 ; move to first perimeter point
G1 X95.350 Y124.650 E4.12111 F1800.000 ; perimeter
G1 X95.350 Y115.350 E4.40886 ; perimeter
G1 X104.650 Y115.350 E4.69662 ; perimeter
G1 X104.650 Y124.575 E4.98205 ; perimeter
G1 X104.217 Y124.400 F7800.000 ; move inwards before travel
G1 X103.022 Y117.283 F7800.000 ; move to first infill point
G1 X102.717 Y116.978 E4.99650 F1800.000 ; infill
G1 X101.760 Y116.978 E5.02852 ; infill
G1 X103.022 Y118.240 E5.08826 ; infill
G1 X103.022 Y119.196 E5.12028 ; infill
G1 X100.804 Y116.978 E5.22531 ; infill
G1 X99.847 Y116.978 E5.25733 ; infill
G1 X103.022 Y120.153 E5.40764 ; infill
G1 X103.022 Y121.109 E5.43967 ; infill
G1 X98.891 Y116.978 E5.63527 ; infill
G1 X97.935 Y116.978 E5.66729 ; infill
G1 X103.022 Y122.065 E5.90818 ; infill
G1 X103.002 Y123.002 E5.93954 ; infill
G1 X96.998 Y116.998 E6.22382 ; infill
G1 X96.978 Y117.935 E6.25518 ; infill
G1 X102.065 Y123.022 E6.49607 ; infill
G1 X101.109 Y123.022 E6.52809 ; infill
G1 X96.978 Y118.891 E6.72369 ; infill
G1 X96.978 Y119.847 E6.75571 ; infill
G1 X100.153 Y123.022 E6.90602 ; infill
G1 X99.196 Y123.022 E6.93805 ; infill
G1 X96.978 Y120.804 E7.04307 ; infill
G1 X96.978 Y121.760 E7.07509 ; infill
G1 X98.240 Y123.022 E7.13483 ; infill
G1 X97.283 Y123.022 E7.16685 ; infill
G1 X96.978 Y122.717 E7.18130 ; infill
G1 Z0.350 F7800.000 ; move to next layer (1)
G1 E5.18130 F2400.00000 ; retract
G92 E0 ; reset extrusion distance
G1 X93.936 Y115.629 F7800.000 ; move to first support material point
G1 E2.00000 F2400.00000 ; unretract
G1 X93.327 Y115.195 E2.02314 F1800.000 ; support material
G1 X93.327 Y113.660 E2.07064 ; support material
G1 X94.423 Y114.441 E2.11226 ; support material
G1 X96.489 Y114.379 E2.17621 ; support material
G1 X93.327 Y112.125 E2.29634 ; support material
G1 X93.327 Y110.590 E2.34384 ; support material
G1 X98.641 Y114.379 E2.54577 ; support material
G1 X99.173 Y113.223 E2.58514 ; support material
G1 X94.473 Y109.871 E2.76376 ; support material
G1 X96.625 Y109.871 E2.83036 ; support material
G1 X99.173 Y111.688 E2.92718 ; support material
G1 X98.778 Y109.871 E2.98470 ; support material
G1 X99.173 Y110.153 E2.99972 ; support material
G1 E0.99972 F2400.00000 ; retract
G92 E0 ; reset extrusion distance
G1 X102.042 Y109.129 F7800.000 ; move to first support material point
G1 E2.00000 F2400.00000 ; unretract
G1 X100.149 Y107.779 E2.07194 F1800.000 ; support material
G1 X100.149 Y106.244 E2.11943 ; support material
G1 X104.194 Y109.129 E2.27317 ; support material
G1 X106.347 Y109.129 E2.33977 ; support material
G1 X100.149 Y104.709 E2.57531 ; support material
G1 X100.149 Y103.174 E2.62281 ; support material
G1 X106.673 Y107.826 E2.87074 ; support material
G1 X106.673 Y106.291 E2.91823 ; support material
G1 X100.149 Y101.639 E3.16616 ; support material
G1 X100.149 Y100.104 E3.21366 ; support material
G1 X106.673 Y104.756 E3.46158 ; support material
G1 X106.673 Y103.221 E3.50908 ; support material
G1 X101.975 Y99.871 E3.68761 ; support material
G1 X104.127 Y99.871 E3.75421 ; support material
G1 X106.673 Y101.686 E3.85093 ; support material
G1 X106.280 Y99.871 E3.90839 ; support material
G1 X106.673 Y100.151 E3.92332 ; support material
G1 E1.92332 F2400.00000 ; retract
G92 E0 ; reset extrusion distance
G1 X100.149 Y98.569 F7800.000 ; move to first support material point
G1 E2.00000 F2400.00000 ; unretract
G1 X100.934 Y99.129 E2.02984 F1800.000 ; support material
G1 X103.086 Y99.129 E2.09644 ; support material
G1 X100.149 Y97.034 E2.20809 ; support material
G1 X100.149 Y95.499 E2.25558 ; support material
G1 X105.239 Y99.129 E2.44903 ; support material
G1 X106.673 Y98.616 E2.49614 ; support material
G1 X100.149 Y93.964 E2.74406 ; support material
G1 X100.149 Y92.429 E2.79156 ; support material
G1 X106.673 Y97.081 E3.03949 ; support material
G1 X106.673 Y95.546 E3.08698 ; support material
G1 X100.149 Y90.894 E3.33491 ; support material
G1 X100.867 Y89.871 E3.37358 ; support material
G1 X106.673 Y94.011 E3.59420 ; support material
G1 X106.673 Y92.476 E3.64170 ; support material
G1 X103.020 Y89.871 E3.78052 ; support material
G1 X105.172 Y89.871 E3.84712 ; support material
G1 X106.673 Y90.941 E3.90414 ; support material
G1 E1.90414 F2400.00000 ; retract
G92 E0 ; reset extrusion distance
G1 X101.979 Y89.129 F7800.000 ; move to first support material point
G1 E2.00000 F2400.00000 ; unretract
G1 X100.149 Y87.824 E2.06955 F1800.000 ; support material
G1 X100.149 Y86.289 E2.11704 ; support material
G1 X104.131 Y89.129 E2.26839 ; support material
G1 X106.284 Y89.129 E2.33499 ; support material
G1 X100.149 Y84.754 E2.56815 ; support material
G1 X100.149 Y83.219 E2.61564 ; support material
G1 X106.673 Y87.871 E2.86357 ; support material
G1 X106.673 Y86.336 E2.91106 ; support material
G1 X100.149 Y81.684 E3.15899 ; support material
G1 X100.149 Y80.149 E3.20649 ; support material
G1 X106.673 Y84.801 E3.45441 ; support material
G1 X106.673 Y83.266 E3.50191 ; support material
G1 X101.912 Y79.871 E3.68283 ; support material
G1 X104.065 Y79.871 E3.74943 ; support material
G1 X106.673 Y81.731 E3.84854 ; support material
G1 X106.217 Y79.871 E3.90779 ; support material
G1 X106.673 Y80.196 E3.92511 ; support material
G1 E1.92511 F2400.00000 ; retract
G92 E0 ; reset extrusion distance
G1 X106.673 Y74.056 F7800.000 ; move to first support material point
G1 E2.00000 F2400.00000 ; unretract
G1 X105.712 Y73.371 E2.03649 F1800.000 ; support material
G1 X103.560 Y73.371 E2.10310 ; support material
G1 X106.673 Y75.591 E2.22139 ; support material
G1 X106.673 Y77.126 E2.26889 ; support material
G1 X101.407 Y73.371 E2.46899 ; support material
G1 X99.827 Y73.780 E2.51948 ; support material
G1 X106.673 Y78.661 E2.77962 ; support material
G1 X105.176 Y79.129 E2.82813 ; support material
G1 X99.827 Y75.315 E3.03140 ; support material
G1 X99.827 Y76.850 E3.07890 ; support material
G1 X103.024 Y79.129 E3.20036 ; support material
G1 X100.871 Y79.129 E3.26697 ; support material
G1 X100.149 Y78.614 E3.29442 ; support material
G1 E1.29442 F2400.00000 ; retract
G92 E0 ; reset extrusion distance
G1 X99.173 Y80.988 F7800.000 ; move to first support material point
G1 E2.00000 F2400.00000 ; unretract
G1 X97.607 Y79.871 E2.05950 F1800.000 ; support material
G1 X95.454 Y79.871 E2.12610 ; support material
G1 X99.173 Y82.523 E2.26740 ; support material
G1 X99.173 Y84.058 E2.31490 ; support material
G1 X93.342 Y79.899 E2.53650 ; support material
G1 X93.327 Y81.424 E2.58368 ; support material
G1 X99.173 Y85.593 E2.80582 ; support material
G1 X99.173 Y87.128 E2.85332 ; support material
G1 X93.327 Y82.959 E3.07545 ; support material
G1 X93.327 Y84.494 E3.12295 ; support material
G1 X99.173 Y88.663 E3.34509 ; support material
G1 X97.674 Y89.129 E3.39365 ; support material
G1 X93.327 Y86.029 E3.55883 ; support material
G1 X93.327 Y87.564 E3.60633 ; support material
G1 X95.521 Y89.129 E3.68970 ; support material
G1 E1.68970 F2400.00000 ; retract
G92 E0 ; reset extrusion distance
G1 X99.173 Y90.198 F7800.000 ; move to first support material point
G1 E2.00000 F2400.00000 ; unretract
G1 X98.715 Y89.871 E2.01740 F1800.000 ; support material
G1 X99.173 Y91.733 E2.07672 ; support material
G1 X96.562 Y89.871 E2.17593 ; support material
G1 X94.410 Y89.871 E2.24253 ; support material
G1 X99.173 Y93.268 E2.42354 ; support material
G1 X99.173 Y94.803 E2.47103 ; support material
G1 X93.327 Y90.634 E2.69317 ; support material
G1 X93.327 Y92.169 E2.74066 ; support material
G1 X99.173 Y96.338 E2.96280 ; support material
G1 X99.173 Y97.873 E3.01030 ; support material
G1 X93.327 Y93.704 E3.23243 ; support material
G1 X93.327 Y95.239 E3.27993 ; support material
G1 X98.781 Y99.129 E3.48720 ; support material
G1 X96.629 Y99.129 E3.55380 ; support material
G1 X93.327 Y96.774 E3.67927 ; support material
G1 X93.327 Y98.309 E3.72677 ; support material
G1 X94.476 Y99.129 E3.77043 ; support material
G1 E1.77043 F2400.00000 ; retract
G92 E0 ; reset extrusion distance
G1 X99.173 Y100.943 F7800.000 ; move to first support material point
G1 E2.00000 F2400.00000 ; unretract
G1 X97.670 Y99.871 E2.05711 F1800.000 ; support material
G1 X95.517 Y99.871 E2.12371 ; support material
G1 X99.173 Y102.478 E2.26262 ; support material
G1 X99.173 Y104.013 E2.31012 ; support material
G1 X93.365 Y99.871 E2.53083 ; support material
G1 X93.327 Y101.379 E2.57752 ; support material
G1 X99.173 Y105.548 E2.79965 ; support material
G1 X99.173 Y107.083 E2.84715 ; support material
G1 X93.327 Y102.914 E3.06929 ; support material
G1 X93.327 Y104.449 E3.11678 ; support material
G1 X99.173 Y108.618 E3.33892 ; support material
G1 X97.737 Y109.129 E3.38608 ; support material
G1 X93.327 Y105.985 E3.55365 ; support material
G1 X93.327 Y107.520 E3.60114 ; support material
G1 X95.584 Y109.129 E3.68690 ; support material
G1 E1.68690 F2400.00000 ; retract
G92 E0 ; reset extrusion distance
G1 X100.794 Y114.379 F7800.000 ; move to first support material point
G1 E2.00000 F2400.00000 ; unretract
G1 X100.149 Y113.919 E2.02451 F1800.000 ; support material
G1 X100.149 Y112.384 E2.07200 ; support material
G1 X102.946 Y114.379 E2.17831 ; support material
G1 X105.099 Y114.379 F7800.000 ; move to first support material point
G1 X100.149 Y110.849 E2.36642 F1800.000 ; support material
G1 X100.930 Y109.871 E2.40515 ; support material
G1 X106.673 Y113.966 E2.62338 ; support material
G1 X106.673 Y112.431 E2.67088 ; support material
G1 X103.083 Y109.871 E2.80731 ; support material
G1 X105.235 Y109.871 E2.87391 ; support material
G1 X106.673 Y110.896 E2.92854 ; support material
G1 X105.577 Y114.720 F7800.000 ; move to first support material point
G1 X106.673 Y115.501 E2.97016 F1800.000 ; support material
G1 E0.97016 F2400.00000 ; retract
G92 E0 ; reset extrusion distance
G1 X94.414 Y79.129 F7800.000 ; move to first support material point
G1 E2.00000 F2400.00000 ; unretract
G1 X93.327 Y78.354 E2.04128 F1800.000 ; support material
G1 X93.327 Y76.819 E2.08877 ; support material
G1 X96.566 Y79.129 E2.21185 ; support material
G1 X98.719 Y79.129 E2.27845 ; support material
G1 X93.327 Y75.284 E2.48334 ; support material
G1 X93.327 Y73.749 E2.53083 ; support material
G1 X99.173 Y77.918 E2.75297 ; support material
G1 X99.173 Y76.383 E2.80046 ; support material
G1 X94.950 Y73.371 E2.96095 ; support material
G1 X97.102 Y73.371 E3.02755 ; support material
G1 X99.173 Y74.848 E3.10623 ; support material
G1 Z0.650 F7800.000 ; move to next layer (2)
G1 E1.10623 F2400.00000 ; retract
G92 E0 ; reset extrusion distance
G1 X103.550 Y123.550 F7800.000 ; move to first perimeter point
G1 E2.00000 F2400.00000 ; unretract
G1 X96.450 Y123.550 E2.19725 F900.000 ; perimeter
G1 X96.450 Y116.450 E2.39449 ; perimeter
G1 X103.550 Y116.450 E2.59174 ; perimeter
G1 X103.550 Y123.475 E2.78690 ; perimeter
G1 X104.205 Y124.205 F7800.000 ; move to first perimeter point
G1 X95.795 Y124.205 E3.02051 F900.000 ; perimeter
G1 X95.795 Y115.795 E3.25412 ; perimeter
G1 X104.205 Y115.795 E3.48773 ; perimeter
G1 X104.205 Y124.130 E3.71925 ; perimeter
G1 X104.750 Y124.750 F7800.000 ; move to first perimeter point
G1 X95.250 Y124.750 E3.89489 F900.000 ; perimeter
G1 X95.250 Y115.250 E4.07053 ; perimeter
G1 X104.750 Y115.250 E4.24617 ; perimeter
G1 X104.750 Y124.675 E4.42042 ; perimeter
G1 X104.317 Y124.500 F7800.000 ; move inwards before travel
G1 X102.835 Y123.153 F7800.000 ; move to first infill point
G1 X103.153 Y122.835 E4.43388 F1200.000 ; infill
G1 X103.153 Y121.837 E4.46377 ; infill
G1 X101.837 Y123.153 E4.51950 ; infill
G1 X100.839 Y123.153 E4.54940 ; infill
G1 X103.153 Y120.839 E4.64740 ; infill
G1 X103.153 Y119.841 E4.67730 ; infill
G1 X99.841 Y123.153 E4.81758 ; infill
G1 X98.843 Y123.153 E4.84747 ; infill
G1 X103.153 Y118.843 E5.03003 ; infill
G1 X103.153 Y117.845 E5.05993 ; infill
G1 X97.845 Y123.153 E5.28476 ; infill
G1 X96.867 Y123.133 E5.31406 ; infill
G1 X103.133 Y116.867 E5.57948 ; infill
G1 X102.155 Y116.847 E5.60878 ; infill
G1 X96.847 Y122.155 E5.83361 ; infill
G1 X96.847 Y121.157 E5.86351 ; infill
G1 X101.157 Y116.847 E6.04607 ; infill
G1 X100.159 Y116.847 E6.07596 ; infill
G1 X96.847 Y120.159 E6.21624 ; infill
G1 X96.847 Y119.161 E6.24614 ; infill
G1 X99.161 Y116.847 E6.34414 ; infill
G1 X98.163 Y116.847 E6.37404 ; infill
G1 X96.847 Y118.163 E6.42977 ; infill
G1 X96.847 Y117.165 E6.45966 ; infill
G1 X97.165 Y116.847 E6.47312 ; infill
G1 Z0.700 F7800.000 ; move to next layer (3)
G1 E4.47312 F2400.00000 ; retract
G92 E0 ; reset extrusion distance
G1 X96.750 Y114.250 F7800.000 ; move to first support material point
G1 E2.00000 F2400.00000 ; unretract
G1 X96.750 Y112.250 E2.04208 F3600.000 ; support material
G1 X93.500 Y112.250 E2.11045 ; support material
G1 X93.500 Y115.500 E2.17883 ; support material
G1 X94.250 Y115.500 E2.19460 ; support material
G1 X94.250 Y114.250 E2.22090 ; support material
G1 X96.750 Y114.250 E2.27350 ; support material
G1 E0.27350 F2400.00000 ; retract
G92 E0 ; reset extrusion distance
G1 X103.688 Y113.825 F7800.000 ; move to first support material point
G1 E2.00000 F2400.00000 ; unretract
G1 X103.509 Y112.675 E2.02449 F3600.000 ; support material
G1 X103.068 Y112.675 E2.03377 ; support material
G1 X103.247 Y113.825 E2.05826 ; support material
G1 X103.688 Y113.825 E2.06754 ; support material
G1 E0.06754 F2400.00000 ; retract
G92 E0 ; reset extrusion distance
G1 X106.500 Y115.500 F7800.000 ; move to first support material point
G1 E2.00000 F2400.00000 ; unretract
G1 X106.500 Y112.250 E2.06837 F3600.000 ; support material
G1 X102.250 Y112.250 E2.15779 ; support material
G1 X102.250 Y114.250 E2.19986 ; support material
