; generated by PrusaSlicer 2.1.1 on 2021-04-12 at 15:26:49 UTC

; 

; external perimeters extrusion width = 0.45mm
; perimeters extrusion width = 0.45mm
; infill extrusion width = 0.45mm
; solid infill extrusion width = 0.45mm
; top infill extrusion width = 0.40mm
; first layer extrusion width = 0.70mm

M107
M104 S200 ; set temperature
G28 ; home all axes
G1 Z5 F5000 ; lift nozzle
M109 S200 ; set temperature and wait for it to be reached
G21 ; set units to millimeters
G90 ; use absolute coordinates
M82 ; use absolute distances for extrusion
G92 E0
; Filament gcode
G1 Z0.350 F7800.000
G1 E-2.00000 F2400.00000
G92 E0
G1 X87.626 Y79.568 F7800.000
G1 E2.00000 F2400.00000
G1 F1800
G1 X88.931 Y78.996 E2.12954
G1 X89.813 Y78.790 E2.21187
G1 X90.715 Y78.713 E2.29420
G1 X109.206 Y78.713 E3.97562
G1 X110.318 Y78.812 E4.07708
G1 X111.394 Y79.106 E4.17854
G1 X112.397 Y79.582 E4.27944
G1 X113.305 Y80.230 E4.38090
G1 X119.677 Y86.589 E5.19951
G1 X120.422 Y87.610 E5.31446
G1 X120.949 Y88.760 E5.42941
G1 X121.193 Y89.715 E5.51906
G1 X121.287 Y90.696 E5.60871
G1 X121.287 Y109.293 E7.29972
G1 X121.104 Y110.712 E7.42981
G1 X120.603 Y112.059 E7.56047
G1 X120.140 Y112.830 E7.64224
G1 X119.567 Y113.531 E7.72458
G1 X113.475 Y119.619 E8.50768
G1 X112.228 Y120.514 E8.64731
G1 X110.795 Y121.083 E8.78749
G1 X109.267 Y121.287 E8.92768
G1 X90.670 Y121.286 E10.61869
G1 X89.264 Y121.098 E10.74767
G1 X87.941 Y120.603 E10.87609
G1 X87.170 Y120.140 E10.95786
G1 X86.469 Y119.567 E11.04019
G1 X80.381 Y113.475 E11.82329
G1 X79.486 Y112.228 E11.96292
G1 X78.917 Y110.795 E12.10311
G1 X78.713 Y109.267 E12.24329
G1 X78.714 Y90.670 E13.93430
G1 X78.902 Y89.264 E14.06328
G1 X79.397 Y87.941 E14.19170
G1 X79.860 Y87.170 E14.27347
G1 X80.429 Y86.473 E14.35524
G1 X86.479 Y80.423 E15.13326
G1 X87.578 Y79.604 E15.25791
G1 E13.25791 F2400.00000
G92 E0
G1 X106.753 Y106.360 F7800.000
G1 E2.00000 F2400.00000
G1 F1800
G1 X106.058 Y107.025 E2.08747
G1 X105.298 Y107.615 E2.17495
G1 X104.483 Y108.122 E2.26222
G1 X103.686 Y108.512 E2.34291
G1 X103.151 Y108.724 E2.39522
G1 X102.248 Y109.000 E2.48111
G1 X101.304 Y109.185 E2.56859
G1 X100.346 Y109.270 E2.65606
G1 X99.384 Y109.256 E2.74353
G1 X98.428 Y109.143 E2.83101
G1 X97.492 Y108.931 E2.91831
G1 X96.651 Y108.649 E2.99895
G1 X96.121 Y108.426 E3.05123
G1 X95.284 Y107.988 E3.13717
G1 X94.482 Y107.457 E3.22465
G1 X93.739 Y106.846 E3.31212
G1 X93.064 Y106.160 E3.39960
G1 X92.463 Y105.409 E3.48707
G1 X91.943 Y104.599 E3.57455
G1 X91.510 Y103.740 E3.66202
G1 X91.169 Y102.841 E3.74950
G1 X90.922 Y101.911 E3.83697
G1 X90.773 Y100.962 E3.92432
G1 X90.726 Y100.077 E4.00489
G1 X90.737 Y99.503 E4.05713
G1 X90.835 Y98.562 E4.14313
G1 X91.033 Y97.621 E4.23061
G1 X91.328 Y96.705 E4.31808
G1 X91.716 Y95.825 E4.40556
G1 X92.193 Y94.989 E4.49303
G1 X92.754 Y94.208 E4.58051
G1 X93.392 Y93.488 E4.66798
G1 X94.102 Y92.839 E4.75546
G1 X94.876 Y92.267 E4.84293
G1 X95.690 Y91.786 E4.92888
G1 X96.207 Y91.536 E4.98116
G1 X97.032 Y91.211 E5.06179
G1 X97.956 Y90.951 E5.14910
G1 X98.905 Y90.788 E5.23657
G1 X99.864 Y90.724 E5.32405
G1 X100.826 Y90.760 E5.41152
G1 X101.778 Y90.895 E5.49900
G1 X102.695 Y91.124 E5.58489
G1 X103.240 Y91.309 E5.63720
G1 X104.056 Y91.657 E5.71788
G1 X104.896 Y92.120 E5.80516
G1 X105.686 Y92.670 E5.89263
G1 X106.414 Y93.298 E5.98011
G1 X107.074 Y93.998 E6.06758
G1 X107.657 Y94.763 E6.15505
G1 X108.149 Y95.569 E6.24090
G1 X108.408 Y96.083 E6.29324
G1 X108.745 Y96.905 E6.37397
G1 X109.018 Y97.825 E6.46121
G1 X109.195 Y98.770 E6.54869
G1 X109.271 Y99.711 E6.63451
G1 X109.271 Y100.289 E6.68710
G1 X109.195 Y101.230 E6.77292
G1 X109.018 Y102.175 E6.86039
G1 X108.744 Y103.098 E6.94786
G1 X108.376 Y103.987 E7.03534
G1 X107.919 Y104.833 E7.12281
G1 X107.376 Y105.627 E7.21028
G1 X106.792 Y106.315 E7.29230
G1 X106.298 Y105.931 F7800.000
G1 F1800
G1 X105.650 Y106.552 E7.37387
G1 X104.941 Y107.101 E7.45545
G1 X104.180 Y107.574 E7.53690
G1 X103.433 Y107.940 E7.61254
G1 X102.944 Y108.134 E7.66035
G1 X102.096 Y108.393 E7.74096
G1 X101.216 Y108.565 E7.82254
G1 X100.322 Y108.645 E7.90411
G1 X99.425 Y108.632 E7.98569
G1 X98.534 Y108.526 E8.06726
G1 X97.660 Y108.329 E8.14873
G1 X96.872 Y108.064 E8.22434
G1 X96.388 Y107.860 E8.27214
G1 X95.602 Y107.450 E8.35278
G1 X94.854 Y106.954 E8.43435
G1 X94.161 Y106.384 E8.51593
G1 X93.532 Y105.745 E8.59750
G1 X92.971 Y105.044 E8.67907
G1 X92.487 Y104.289 E8.76065
G1 X92.083 Y103.488 E8.84222
G1 X91.764 Y102.649 E8.92380
G1 X91.534 Y101.782 E9.00537
G1 X91.395 Y100.897 E9.08687
G1 X91.351 Y100.067 E9.16244
G1 X91.361 Y99.542 E9.21021
G1 X91.453 Y98.659 E9.29089
G1 X91.638 Y97.781 E9.37246
G1 X91.913 Y96.927 E9.45404
G1 X92.275 Y96.106 E9.53561
G1 X92.719 Y95.327 E9.61719
G1 X93.242 Y94.598 E9.69876
G1 X93.838 Y93.928 E9.78034
G1 X94.500 Y93.322 E9.86191
G1 X95.221 Y92.788 E9.94349
G1 X95.985 Y92.338 E10.02413
G1 X96.458 Y92.109 E10.07192
G1 X97.232 Y91.804 E10.14753
G1 X98.094 Y91.561 E10.22900
G1 X98.978 Y91.409 E10.31058
G1 X99.874 Y91.350 E10.39215
G1 X100.770 Y91.383 E10.47373
G1 X101.658 Y91.509 E10.55530
G1 X102.518 Y91.724 E10.63591
G1 X103.016 Y91.893 E10.68372
G1 X103.782 Y92.219 E10.75936
G1 X104.566 Y92.652 E10.84082
G1 X105.302 Y93.164 E10.92239
G1 X105.982 Y93.750 E11.00396
G1 X106.597 Y94.403 E11.08554
G1 X107.141 Y95.117 E11.16711
G1 X107.602 Y95.873 E11.24769
G1 X107.839 Y96.343 E11.29552
G1 X108.155 Y97.113 E11.37119
G1 X108.410 Y97.971 E11.45262
G1 X108.575 Y98.853 E11.53420
G1 X108.646 Y99.736 E11.61476
G1 X108.646 Y100.264 E11.66274
G1 X108.575 Y101.147 E11.74331
G1 X108.410 Y102.029 E11.82488
G1 X108.154 Y102.889 E11.90645
G1 X107.811 Y103.718 E11.98802
G1 X107.384 Y104.507 E12.06960
G1 X106.878 Y105.247 E12.15117
G1 X106.336 Y105.886 E12.22729
G1 X105.842 Y105.502 F7800.000
G1 F1800
G1 X105.241 Y106.078 E12.30296
G1 X104.583 Y106.588 E12.37863
G1 X103.877 Y107.027 E12.45426
G1 X103.179 Y107.368 E12.52487
G1 X102.737 Y107.544 E12.56818
G1 X101.945 Y107.786 E12.64350
G1 X101.128 Y107.946 E12.71918
G1 X100.299 Y108.020 E12.79485
G1 X99.467 Y108.008 E12.87052
G1 X98.640 Y107.909 E12.94620
G1 X97.829 Y107.726 E13.02184
G1 X97.093 Y107.479 E13.09243
G1 X96.654 Y107.294 E13.13573
G1 X95.920 Y106.911 E13.21107
G1 X95.226 Y106.451 E13.28674
G1 X94.584 Y105.922 E13.36242
G1 X93.999 Y105.329 E13.43809
G1 X93.480 Y104.679 E13.51377
G1 X93.030 Y103.979 E13.58944
G1 X92.656 Y103.236 E13.66511
G1 X92.360 Y102.458 E13.74079
G1 X92.147 Y101.653 E13.81646
G1 X92.018 Y100.831 E13.89211
G1 X91.976 Y100.056 E13.96269
G1 X91.986 Y99.580 E14.00598
G1 X92.072 Y98.756 E14.08133
G1 X92.243 Y97.942 E14.15701
G1 X92.498 Y97.149 E14.23268
G1 X92.833 Y96.388 E14.30836
G1 X93.246 Y95.665 E14.38403
G1 X93.731 Y94.989 E14.45970
G1 X94.284 Y94.367 E14.53538
G1 X94.898 Y93.805 E14.61105
G1 X95.567 Y93.310 E14.68673
G1 X96.280 Y92.889 E14.76207
G1 X96.709 Y92.681 E14.80537
G1 X97.431 Y92.397 E14.87596
G1 X98.232 Y92.172 E14.95160
G1 X99.052 Y92.031 E15.02727
G1 X99.883 Y91.975 E15.10294
G1 X100.714 Y92.006 E15.17862
G1 X101.538 Y92.123 E15.25429
G1 X102.342 Y92.324 E15.32962
G1 X102.793 Y92.477 E15.37293
G1 X103.507 Y92.782 E15.44353
G1 X104.236 Y93.183 E15.51916
G1 X104.919 Y93.659 E15.59483
G1 X105.549 Y94.202 E15.67051
G1 X106.120 Y94.808 E15.74618
G1 X106.624 Y95.470 E15.82185
G1 X107.056 Y96.177 E15.89717
G1 X107.270 Y96.602 E15.94049
G1 X107.565 Y97.321 E16.01110
G1 X107.801 Y98.118 E16.08672
G1 X107.954 Y98.936 E16.16239
G1 X108.021 Y99.762 E16.23770
G1 X108.021 Y100.238 E16.28107
G1 X107.954 Y101.064 E16.35638
G1 X107.801 Y101.882 E16.43206
G1 X107.565 Y102.680 E16.50773
G1 X107.246 Y103.449 E16.58340
G1 X106.850 Y104.181 E16.65907
G1 X106.381 Y104.868 E16.73475
G1 X105.881 Y105.457 E16.80496
G1 X105.957 Y105.885 F7800.000
G1 E14.80496 F2400.00000
G92 E0
G1 X113.375 Y108.537 F7800.000
G1 E2.00000 F2400.00000
G1 F1800
G1 X108.537 Y113.375 E2.62212
G1 X91.463 Y113.375 E4.17472
G1 X86.625 Y108.537 E4.79684
G1 X86.625 Y91.463 E6.34943
G1 X91.463 Y86.625 E6.97155
G1 X108.537 Y86.625 E8.52415
G1 X113.375 Y91.463 E9.14627
G1 X113.375 Y108.477 E10.69341
G1 X114.000 Y108.796 F7800.000
G1 F1800
G1 X108.796 Y114.000 E11.36260
G1 X91.204 Y114.000 E12.96227
G1 X86.000 Y108.796 E13.63146
G1 X86.000 Y91.204 E15.23113
G1 X91.204 Y86.000 E15.90032
G1 X108.796 Y86.000 E17.49999
G1 X114.000 Y91.204 E18.16918
G1 X114.000 Y108.736 E19.76339
G1 X114.625 Y109.055 F7800.000
G1 F1800
G1 X109.055 Y114.625 E20.47966
G1 X90.945 Y114.625 E22.12640
G1 X85.375 Y109.055 E22.84266
G1 X85.375 Y90.945 E24.48940
G1 X90.945 Y85.375 E25.20566
G1 X109.055 Y85.375 E26.85240
G1 X114.625 Y90.945 E27.56867
G1 X114.625 Y108.995 E29.20995
G1 X114.226 Y109.086 F7800.000
G1 E27.20995 F2400.00000
G92 E0
G1 X113.188 Y99.907 F7800.000
G1 E2.00000 F2400.00000
G1 F1800
G1 X108.461 Y95.180 E2.60899
G1 X108.835 Y95.889 E2.68195
G1 X109.206 Y96.811 E2.77250
G1 X112.907 Y100.511 E3.24927
G1 X112.907 Y101.397 E3.32993
G1 X109.532 Y98.022 E3.76473
G1 X109.660 Y98.708 E3.82831
G1 X109.689 Y99.064 E3.86090
G1 X112.907 Y102.282 E4.27545
G1 X112.907 Y103.168 E4.35611
G1 X109.740 Y100.001 E4.76408
G1 X109.740 Y100.308 E4.79209
G1 X109.696 Y100.843 E4.84094
G1 X112.907 Y104.053 E5.25452
G1 X112.907 Y104.938 E5.33518
G1 X109.597 Y101.629 E5.76156
G1 X109.450 Y102.367 E5.83015
G1 X112.907 Y105.824 E6.27547
G1 X112.907 Y106.709 E6.35613
G1 X109.247 Y103.050 E6.82756
G1 X109.187 Y103.254 E6.84701
G1 X109.005 Y103.693 E6.89025
G1 X112.907 Y107.594 E7.39288
G1 X112.907 Y108.343 E7.46110
G1 X112.838 Y108.412 E7.46990
G1 X108.735 Y104.308 E7.99852
G1 X108.424 Y104.883 E8.05803
G1 X112.396 Y108.854 E8.56967
G1 X111.953 Y109.297 E8.62670
G1 X108.081 Y105.425 E9.12552
G1 X107.718 Y105.947 E9.18347
G1 X111.510 Y109.740 E9.67203
G1 X111.068 Y110.182 E9.72906
G1 X107.312 Y106.426 E10.21294
G1 X107.095 Y106.682 E10.24348
G1 X106.884 Y106.884 E10.27008
G1 X110.625 Y110.625 E10.75205
G1 X110.182 Y111.068 E10.80909
G1 X106.431 Y107.317 E11.29230
G1 X105.940 Y107.710 E11.34969
G1 X109.739 Y111.510 E11.83923
G1 X109.297 Y111.953 E11.89626
G1 X105.429 Y108.085 E12.39455
G1 X104.883 Y108.425 E12.45311
G1 X108.854 Y112.396 E12.96471
G1 X108.411 Y112.838 E13.02174
G1 X104.304 Y108.731 E13.55093
G1 X103.699 Y109.011 E13.61169
G1 X107.594 Y112.907 E14.11359
G1 X106.709 Y112.907 E14.19424
G1 X103.048 Y109.246 E14.66587
G1 X102.370 Y109.453 E14.73047
G1 X105.824 Y112.907 E15.17539
G1 X104.938 Y112.907 E15.25605
G1 X101.630 Y109.599 E15.68223
G1 X101.370 Y109.649 E15.70640
G1 X100.843 Y109.697 E15.75461
G1 X104.053 Y112.907 E16.16817
G1 X103.167 Y112.907 E16.24883
G1 X99.995 Y109.734 E16.65756
G1 X99.353 Y109.725 E16.71608
G1 X99.066 Y109.691 E16.74237
G1 X102.282 Y112.907 E17.15670
G1 X101.397 Y112.907 E17.23736
G1 X98.021 Y109.531 E17.67220
G1 X97.365 Y109.383 E17.73346
G1 X96.797 Y109.193 E17.78804
G1 X100.511 Y112.907 E18.26650
G1 X99.626 Y112.907 E18.34716
G1 X95.185 Y108.466 E18.91927
G1 E16.91927 F2400.00000
G92 E0
G1 X91.520 Y104.801 F7800.000
G1 E2.00000 F2400.00000
G1 F1800
G1 X87.093 Y100.374 E2.57033
G1 X87.093 Y99.489 E2.65099
G1 X90.803 Y103.199 E3.12895
G1 X90.722 Y102.985 E3.14981
G1 X90.456 Y101.966 E3.24569
G1 X87.093 Y98.603 E3.67895
G1 X87.093 Y97.718 E3.75960
G1 X90.302 Y100.926 E4.17297
G1 X90.259 Y99.998 E4.25767
G1 X87.093 Y96.833 E4.66544
G1 X87.093 Y95.947 E4.74610
G1 X90.302 Y99.156 E5.15949
G1 X90.398 Y98.366 E5.23198
G1 X87.093 Y95.062 E5.65766
G1 X87.093 Y94.176 E5.73832
G1 X90.552 Y97.635 E6.18384
G1 X90.756 Y96.953 E6.24862
G1 X87.093 Y93.291 E6.72045
G1 X87.093 Y92.406 E6.80111
G1 X90.992 Y96.305 E7.30341
G1 X91.263 Y95.690 E7.36459
G1 X87.162 Y91.589 E7.89299
G1 X87.604 Y91.146 E7.95002
G1 X91.578 Y95.120 E8.46202
G1 X91.798 Y94.736 E8.50233
G1 X91.916 Y94.572 E8.52072
G1 X88.047 Y90.703 E9.01912
G1 X88.490 Y90.261 E9.07615
G1 X92.285 Y94.056 E9.56517
G1 X92.387 Y93.915 E9.58106
G1 X92.689 Y93.575 E9.62249
G1 X88.932 Y89.818 E10.10648
G1 X89.375 Y89.375 E10.16351
G1 X93.111 Y93.111 E10.64480
G1 X93.573 Y92.688 E10.70189
G1 X89.818 Y88.932 E11.18572
G1 X90.260 Y88.490 E11.24276
G1 X94.059 Y92.288 E11.73213
G1 X94.568 Y91.912 E11.78979
G1 X90.703 Y88.047 E12.28768
G1 X91.146 Y87.604 E12.34472
G1 X95.120 Y91.578 E12.85671
G1 X95.468 Y91.373 E12.89353
G1 X95.692 Y91.265 E12.91616
G1 X91.588 Y87.162 E13.44477
G1 X91.657 Y87.093 E13.45356
G1 X92.406 Y87.093 E13.52178
G1 X96.306 Y90.993 E14.02422
G1 X96.946 Y90.748 E14.08668
G1 X93.291 Y87.093 E14.55754
G1 X94.176 Y87.093 E14.63820
G1 X97.637 Y90.554 E15.08403
G1 X97.853 Y90.493 E15.10449
G1 X98.372 Y90.404 E15.15248
G1 X95.062 Y87.093 E15.57900
G1 X95.947 Y87.093 E15.65965
G1 X99.155 Y90.302 E16.07298
G1 X99.999 Y90.260 E16.14995
G1 X96.832 Y87.093 E16.55794
G1 X97.718 Y87.093 E16.63859
G1 X100.925 Y90.301 E17.05180
G1 X101.970 Y90.460 E17.14807
G1 X98.603 Y87.093 E17.58179
G1 X99.489 Y87.093 E17.66245
G1 X103.194 Y90.798 E18.13977
G1 X103.407 Y90.871 E18.16029
G1 X104.261 Y91.235 E18.24491
G1 X104.828 Y91.548 E18.30392
G1 X100.374 Y87.093 E18.87780
G1 X101.259 Y87.093 E18.95846
G1 X112.907 Y98.741 E20.45901
G1 X112.907 Y97.855 E20.53967
G1 X102.145 Y87.093 E21.92616
G1 X103.030 Y87.093 E22.00681
G1 X112.907 Y96.970 E23.27923
G1 X112.907 Y96.085 E23.35989
G1 X103.915 Y87.093 E24.51825
G1 X104.801 Y87.093 E24.59890
G1 X112.907 Y95.199 E25.64319
G1 X112.907 Y94.314 E25.72385
G1 X105.686 Y87.093 E26.65408
G1 X106.572 Y87.093 E26.73473
G1 X112.907 Y93.428 E27.55089
G1 X112.907 Y92.543 E27.63155
G1 X107.457 Y87.093 E28.33364
G1 X108.342 Y87.093 E28.41430
G1 X113.188 Y91.939 E29.03855
G1 E27.03855 F2400.00000
G92 E0
G1 X99.022 Y113.188 F7800.000
G1 E2.00000 F2400.00000
G1 F1800
G1 X87.093 Y101.259 E3.53677
G1 X87.093 Y102.145 E3.61742
G1 X97.855 Y112.907 E5.00389
G1 X96.970 Y112.907 E5.08455
G1 X87.093 Y103.030 E6.35696
G1 X87.093 Y103.916 E6.43761
G1 X96.084 Y112.907 E7.59595
G1 X95.199 Y112.907 E7.67661
G1 X87.093 Y104.801 E8.72088
G1 X87.093 Y105.686 E8.80154
G1 X94.314 Y112.907 E9.73175
G1 X93.428 Y112.907 E9.81240
G1 X87.093 Y106.572 E10.62855
G1 X87.093 Y107.457 E10.70920
G1 X92.543 Y112.907 E11.41128
G1 X91.658 Y112.907 E11.49194
G1 X86.812 Y108.061 E12.11617
G1 Z0.650 F7800.000
G1 E10.11617 F2400.00000
G92 E0
G1 X107.617 Y104.095 F7800.000
G1 E2.00000 F2400.00000
G1 F3600
G1 X107.158 Y104.851 E2.04255
G1 X106.881 Y105.237 E2.06539
G1 X106.310 Y105.913 E2.10794
G1 X105.663 Y106.535 E2.15112
G1 X104.955 Y107.087 E2.19429
G1 X104.194 Y107.563 E2.23747
G1 X103.389 Y107.956 E2.28053
G1 X102.677 Y108.220 E2.31707
G1 X102.105 Y108.387 E2.34574
G1 X101.231 Y108.560 E2.38858
G1 X100.337 Y108.641 E2.43176
G1 X99.439 Y108.629 E2.47493
G1 X98.548 Y108.525 E2.51811
G1 X97.672 Y108.328 E2.56129
G1 X96.821 Y108.042 E2.60446
G1 X96.006 Y107.670 E2.64753
G1 X95.350 Y107.288 E2.68406
G1 X94.857 Y106.952 E2.71274
G1 X94.169 Y106.386 E2.75558
G1 X93.539 Y105.747 E2.79875
G1 X92.978 Y105.047 E2.84193
G1 X92.494 Y104.293 E2.88499
G1 X92.148 Y103.617 E2.92153
G1 X91.915 Y103.068 E2.95020
G1 X91.642 Y102.220 E2.99304
G1 X91.457 Y101.342 E3.03622
G1 X91.364 Y100.449 E3.07939
G1 X91.364 Y99.551 E3.12257
G1 X91.457 Y98.658 E3.16574
G1 X91.642 Y97.782 E3.20881
G1 X91.871 Y97.058 E3.24535
G1 X92.091 Y96.504 E3.27402
G1 X92.492 Y95.709 E3.31686
G1 X92.978 Y94.953 E3.36003
G1 X93.539 Y94.253 E3.40321
G1 X94.169 Y93.614 E3.44638
G1 X94.863 Y93.044 E3.48956
G1 X95.612 Y92.549 E3.53274
G1 X96.408 Y92.134 E3.57591
G1 X97.242 Y91.804 E3.61909
G1 X98.107 Y91.562 E3.66226
G1 X98.990 Y91.412 E3.70533
G1 X99.747 Y91.359 E3.74186
G1 X100.344 Y91.360 E3.77054
G1 X101.231 Y91.440 E3.81338
G1 X102.111 Y91.614 E3.85655
G1 X102.969 Y91.878 E3.89973
G1 X103.795 Y92.230 E3.94290
G1 X104.580 Y92.665 E3.98608
G1 X105.316 Y93.179 E4.02925
G1 X105.995 Y93.767 E4.07243
G1 X106.608 Y94.422 E4.11561
G1 X107.151 Y95.137 E4.15878
G1 X107.610 Y95.894 E4.20133
G1 X107.824 Y96.318 E4.22417
G1 X108.160 Y97.136 E4.26672
G1 X108.413 Y97.998 E4.30990
G1 X108.575 Y98.881 E4.35308
G1 X108.645 Y99.776 E4.39625
G1 X108.621 Y100.673 E4.43943
G1 X108.505 Y101.563 E4.48260
G1 X108.297 Y102.436 E4.52578
G1 X108.000 Y103.283 E4.56895
G1 X107.642 Y104.041 E4.60924
