; generated by Slic3r 1.2.9 on 2021-04-14 at 15:57:54

; external perimeters extrusion width = 0.50mm
; perimeters extrusion width = 0.72mm
; infill extrusion width = 0.72mm
; solid infill extrusion width = 0.72mm
; top infill extrusion width = 0.72mm

M107 ; disable fan
M104 S200 ; set temperature
G28 ; home all axes
G1 Z5 F5000 ; lift nozzle

M109 S200 ; wait for temperature to be reached
G21 ; set units to millimeters
G90 ; use absolute coordinates
M82 ; use absolute distances for extrusion
G92 E0 ; reset extrusion distance
G1 Z0.350 F7800.000 ; move to next layer (0)
G1 E-2.00000 F2400.00000 ; retract
G92 E0 ; reset extrusion distance
G1 X83.228 Y83.228 F7800.000 ; move to first skirt point
G1 E2.00000 F2400.00000 ; unretract
G1 X86.116 Y80.340 E2.12636 F1800.000 ; skirt
G1 X87.994 Y79.024 E2.19732 ; skirt
G1 X90.800 Y78.400 E2.28627 ; skirt
G1 X109.200 Y78.400 E2.85559 ; skirt
G1 X111.459 Y78.797 E2.92655 ; skirt
G1 X113.884 Y80.340 E3.01550 F1800.000 ; skirt
G1 X119.660 Y86.115 E3.26821 ; skirt
G1 X120.976 Y87.993 E3.33917 ; skirt
G1 X121.600 Y90.800 E3.42813 ; skirt
G1 X121.600 Y109.200 E3.99745 ; skirt
G1 X121.203 Y111.459 E4.06841 ; skirt
G1 X119.660 Y113.885 E4.15737 ; skirt
G1 X113.885 Y119.660 E4.41007 ; skirt
G1 X112.007 Y120.976 E4.48104 ; skirt
G1 X109.200 Y121.600 E4.56999 ; skirt
G1 X90.800 Y121.600 E5.13931 ; skirt
G1 X88.541 Y121.203 E5.21028 ; skirt
G1 X86.115 Y119.660 E5.29923 ; skirt
G1 X80.340 Y113.885 E5.55193 ; skirt
G1 X79.024 Y112.007 E5.62290 ; skirt
G1 X78.400 Y109.200 E5.71186 ; skirt
G1 X78.400 Y90.800 E6.28118 ; skirt
G1 X78.797 Y88.541 E6.35214 ; skirt
G1 X80.340 Y86.115 E6.44110 ; skirt
G1 X83.175 Y83.281 E6.56513 ; skirt
G1 E4.56513 F2400.00000 ; retract
G92 E0 ; reset extrusion distance
G1 X106.753 Y106.360 F7800.000 ; move to first perimeter point
G1 E2.00000 F2400.00000 ; unretract
G1 X106.058 Y107.025 E2.02977 F1800.000 ; perimeter
G1 X105.298 Y107.615 E2.05953 ; perimeter
G1 X104.483 Y108.122 E2.08923 ; perimeter
G1 X103.686 Y108.512 E2.11668 ; perimeter
G1 X103.151 Y108.724 E2.13448 ; perimeter
G1 X102.248 Y109.000 E2.16371 ; perimeter
G1 X101.304 Y109.185 E2.19348 ; perimeter
G1 X100.346 Y109.270 E2.22324 ; perimeter
G1 X99.384 Y109.256 E2.25301 ; perimeter
G1 X98.428 Y109.143 E2.28277 ; perimeter
G1 X97.492 Y108.931 E2.31248 ; perimeter
G1 X96.651 Y108.649 E2.33992 ; perimeter
G1 X96.121 Y108.426 E2.35771 ; perimeter
G1 X95.284 Y107.988 E2.38695 ; perimeter
G1 X94.482 Y107.457 E2.41672 ; perimeter
G1 X93.739 Y106.846 E2.44649 ; perimeter
G1 X93.064 Y106.160 E2.47625 ; perimeter
G1 X92.463 Y105.409 E2.50602 ; perimeter
G1 X91.943 Y104.599 E2.53578 ; perimeter
G1 X91.510 Y103.740 E2.56555 ; perimeter
G1 X91.169 Y102.841 E2.59531 ; perimeter
G1 X90.922 Y101.911 E2.62508 ; perimeter
G1 X90.773 Y100.962 E2.65480 ; perimeter
G1 X90.726 Y100.077 E2.68222 ; perimeter
G1 X90.737 Y99.503 E2.69999 ; perimeter
G1 X90.835 Y98.562 E2.72926 ; perimeter
G1 X91.033 Y97.621 E2.75903 ; perimeter
G1 X91.328 Y96.705 E2.78879 ; perimeter
G1 X91.716 Y95.825 E2.81856 ; perimeter
G1 X92.193 Y94.989 E2.84832 ; perimeter
G1 X92.754 Y94.208 E2.87809 ; perimeter
G1 X93.392 Y93.488 E2.90786 ; perimeter
G1 X94.102 Y92.839 E2.93762 ; perimeter
G1 X94.876 Y92.267 E2.96739 ; perimeter
G1 X95.690 Y91.786 E2.99663 ; perimeter
G1 X96.207 Y91.536 E3.01442 ; perimeter
G1 X97.032 Y91.211 E3.04186 ; perimeter
G1 X97.956 Y90.951 E3.07157 ; perimeter
G1 X98.905 Y90.788 E3.10133 ; perimeter
G1 X99.864 Y90.724 E3.13110 F1800.000 ; perimeter
G1 X100.826 Y90.760 E3.16086 ; perimeter
G1 X101.778 Y90.895 E3.19063 ; perimeter
G1 X102.695 Y91.124 E3.21986 ; perimeter
G1 X103.240 Y91.309 E3.23766 ; perimeter
G1 X104.056 Y91.657 E3.26511 ; perimeter
G1 X104.896 Y92.120 E3.29481 ; perimeter
G1 X105.686 Y92.670 E3.32458 ; perimeter
G1 X106.414 Y93.298 E3.35434 ; perimeter
G1 X107.074 Y93.998 E3.38411 ; perimeter
G1 X107.657 Y94.763 E3.41387 ; perimeter
G1 X108.149 Y95.569 E3.44308 ; perimeter
G1 X108.408 Y96.083 E3.46089 ; perimeter
G1 X108.745 Y96.905 E3.48836 ; perimeter
G1 X109.018 Y97.825 E3.51805 ; perimeter
G1 X109.195 Y98.770 E3.54782 ; perimeter
G1 X109.271 Y99.711 E3.57702 ; perimeter
G1 X109.271 Y100.289 E3.59491 ; perimeter
G1 X109.195 Y101.230 E3.62412 ; perimeter
G1 X109.018 Y102.175 E3.65388 ; perimeter
G1 X108.744 Y103.098 E3.68365 ; perimeter
G1 X108.376 Y103.987 E3.71341 ; perimeter
G1 X107.919 Y104.833 E3.74318 ; perimeter
G1 X107.376 Y105.627 E3.77294 ; perimeter
G1 X106.802 Y106.303 E3.80039 ; perimeter
G1 X106.298 Y105.931 F7800.000 ; move to first perimeter point
G1 X105.650 Y106.552 E3.82815 F1800.000 ; perimeter
G1 X104.941 Y107.101 E3.85590 ; perimeter
G1 X104.180 Y107.574 E3.88362 ; perimeter
G1 X103.433 Y107.940 E3.90936 ; perimeter
G1 X102.944 Y108.134 E3.92563 ; perimeter
G1 X102.096 Y108.393 E3.95306 ; perimeter
G1 X101.216 Y108.565 E3.98082 ; perimeter
G1 X100.322 Y108.645 E4.00857 ; perimeter
G1 X99.425 Y108.632 E4.03633 ; perimeter
G1 X98.534 Y108.526 E4.06409 ; perimeter
G1 X97.660 Y108.329 E4.09181 ; perimeter
G1 X96.872 Y108.064 E4.11754 ; perimeter
G1 X96.388 Y107.860 E4.13381 ; perimeter
G1 X95.602 Y107.450 E4.16124 ; perimeter
G1 X94.854 Y106.954 E4.18900 ; perimeter
G1 X94.161 Y106.384 E4.21676 ; perimeter
G1 X93.532 Y105.745 E4.24452 ; perimeter
G1 X92.971 Y105.044 E4.27228 ; perimeter
G1 X92.487 Y104.289 E4.30003 ; perimeter
G1 X92.083 Y103.488 E4.32779 ; perimeter
G1 X91.764 Y102.649 E4.35555 ; perimeter
G1 X91.534 Y101.782 E4.38331 ; perimeter
G1 X91.395 Y100.897 E4.41104 ; perimeter
G1 X91.351 Y100.067 E4.43676 ; perimeter
G1 X91.361 Y99.542 E4.45301 ; perimeter
G1 X91.453 Y98.659 E4.48046 ; perimeter
G1 X91.638 Y97.781 E4.50822 ; perimeter
G1 X91.913 Y96.927 E4.53598 ; perimeter
G1 X92.275 Y96.106 E4.56374 ; perimeter
G1 X92.719 Y95.327 E4.59150 ; perimeter
G1 X93.242 Y94.598 E4.61925 ; perimeter
G1 X93.838 Y93.928 E4.64701 ; perimeter
G1 X94.500 Y93.322 E4.67477 ; perimeter
G1 X95.221 Y92.788 E4.70253 ; perimeter
G1 X95.985 Y92.338 E4.72997 ; perimeter
G1 X96.458 Y92.109 E4.74623 ; perimeter
G1 X97.232 Y91.804 E4.77196 ; perimeter
G1 X98.094 Y91.561 E4.79968 ; perimeter
G1 X98.978 Y91.409 E4.82744 ; perimeter
G1 X99.874 Y91.350 E4.85520 F1800.000 ; perimeter
G1 X100.770 Y91.383 E4.88296 ; perimeter
G1 X101.658 Y91.509 E4.91071 ; perimeter
G1 X102.518 Y91.724 E4.93814 ; perimeter
G1 X103.016 Y91.893 E4.95441 ; perimeter
G1 X103.782 Y92.219 E4.98015 ; perimeter
G1 X104.566 Y92.652 E5.00787 ; perimeter
G1 X105.302 Y93.164 E5.03563 ; perimeter
G1 X105.982 Y93.750 E5.06338 ; perimeter
G1 X106.597 Y94.403 E5.09114 ; perimeter
G1 X107.141 Y95.117 E5.11890 ; perimeter
G1 X107.602 Y95.873 E5.14632 ; perimeter
G1 X107.839 Y96.343 E5.16259 ; perimeter
G1 X108.155 Y97.113 E5.18834 ; perimeter
G1 X108.410 Y97.971 E5.21605 ; perimeter
G1 X108.575 Y98.853 E5.24381 ; perimeter
G1 X108.646 Y99.736 E5.27123 ; perimeter
G1 X108.646 Y100.264 E5.28755 ; perimeter
G1 X108.575 Y101.147 E5.31497 ; perimeter
G1 X108.410 Y102.029 E5.34272 ; perimeter
G1 X108.154 Y102.889 E5.37048 ; perimeter
G1 X107.811 Y103.718 E5.39824 ; perimeter
G1 X107.384 Y104.507 E5.42600 ; perimeter
G1 X106.878 Y105.247 E5.45375 ; perimeter
G1 X106.346 Y105.874 E5.47919 ; perimeter
G1 X105.842 Y105.502 F7800.000 ; move to first perimeter point
G1 X105.241 Y106.078 E5.50494 F1800.000 ; perimeter
G1 X104.583 Y106.588 E5.53069 ; perimeter
G1 X103.877 Y107.027 E5.55643 ; perimeter
G1 X103.179 Y107.368 E5.58045 ; perimeter
G1 X102.737 Y107.544 E5.59519 ; perimeter
G1 X101.945 Y107.786 E5.62082 ; perimeter
G1 X101.128 Y107.946 E5.64657 ; perimeter
G1 X100.299 Y108.020 E5.67232 ; perimeter
G1 X99.467 Y108.008 E5.69807 ; perimeter
G1 X98.640 Y107.909 E5.72382 ; perimeter
G1 X97.829 Y107.726 E5.74956 ; perimeter
G1 X97.093 Y107.479 E5.77358 ; perimeter
G1 X96.654 Y107.294 E5.78831 ; perimeter
G1 X95.920 Y106.911 E5.81395 ; perimeter
G1 X95.226 Y106.451 E5.83970 ; perimeter
G1 X94.584 Y105.922 E5.86545 ; perimeter
G1 X93.999 Y105.329 E5.89120 ; perimeter
G1 X93.480 Y104.679 E5.91695 ; perimeter
G1 X93.030 Y103.979 E5.94270 ; perimeter
G1 X92.656 Y103.236 E5.96845 ; perimeter
G1 X92.360 Y102.458 E5.99420 ; perimeter
G1 X92.147 Y101.653 E6.01995 ; perimeter
G1 X92.018 Y100.831 E6.04569 ; perimeter
G1 X91.976 Y100.056 E6.06971 ; perimeter
G1 X91.986 Y99.580 E6.08444 ; perimeter
G1 X92.072 Y98.756 E6.11008 ; perimeter
G1 X92.243 Y97.942 E6.13583 ; perimeter
G1 X92.498 Y97.149 E6.16158 ; perimeter
G1 X92.833 Y96.388 E6.18733 ; perimeter
G1 X93.246 Y95.665 E6.21308 ; perimeter
G1 X93.731 Y94.989 E6.23883 ; perimeter
G1 X94.284 Y94.367 E6.26458 ; perimeter
G1 X94.898 Y93.805 E6.29033 ; perimeter
G1 X95.567 Y93.310 E6.31608 ; perimeter
G1 X96.280 Y92.889 E6.34172 ; perimeter
G1 X96.709 Y92.681 E6.35645 ; perimeter
G1 X97.431 Y92.397 E6.38047 ; perimeter
G1 X98.232 Y92.172 E6.40621 ; perimeter
G1 X99.052 Y92.031 E6.43196 ; perimeter
G1 X99.883 Y91.975 E6.45771 F1800.000 ; perimeter
G1 X100.714 Y92.006 E6.48346 ; perimeter
G1 X101.538 Y92.123 E6.50921 ; perimeter
G1 X102.342 Y92.324 E6.53485 ; perimeter
G1 X102.793 Y92.477 E6.54958 ; perimeter
G1 X103.507 Y92.782 E6.57361 ; perimeter
G1 X104.236 Y93.183 E6.59934 ; perimeter
G1 X104.919 Y93.659 E6.62509 ; perimeter
G1 X105.549 Y94.202 E6.65084 ; perimeter
G1 X106.120 Y94.808 E6.67659 ; perimeter
G1 X106.624 Y95.470 E6.70234 ; perimeter
G1 X107.056 Y96.177 E6.72797 ; perimeter
G1 X107.270 Y96.602 E6.74271 ; perimeter
G1 X107.565 Y97.321 E6.76674 ; perimeter
G1 X107.801 Y98.118 E6.79247 ; perimeter
G1 X107.954 Y98.936 E6.81822 ; perimeter
G1 X108.021 Y99.762 E6.84385 ; perimeter
G1 X108.021 Y100.238 E6.85860 ; perimeter
G1 X107.954 Y101.064 E6.88423 ; perimeter
G1 X107.801 Y101.882 E6.90998 ; perimeter
G1 X107.565 Y102.680 E6.93573 ; perimeter
G1 X107.246 Y103.449 E6.96148 ; perimeter
G1 X106.850 Y104.181 E6.98723 ; perimeter
G1 X106.381 Y104.868 E7.01298 ; perimeter
G1 X105.891 Y105.445 E7.03641 ; perimeter
G1 X105.978 Y105.984 F7800.000 ; move inwards before travel
G1 X111.126 Y110.786 F7800.000 ; move to first perimeter point
G1 X108.537 Y113.375 E7.14969 F1800.000 ; perimeter
G1 X91.463 Y113.375 E7.67801 ; perimeter
G1 X86.625 Y108.537 E7.88970 ; perimeter
G1 X86.625 Y91.463 E8.41801 ; perimeter
G1 X91.462 Y86.625 E8.62969 ; perimeter
G1 X108.549 Y86.636 E9.15836 ; perimeter
G1 X113.375 Y91.463 E9.36957 F1800.000 ; perimeter
G1 X113.375 Y108.537 E9.89788 ; perimeter
G1 X111.179 Y110.733 E9.99397 ; perimeter
G1 X111.568 Y111.228 F7800.000 ; move to first perimeter point
G1 X108.796 Y114.000 E10.11526 F1800.000 ; perimeter
G1 X91.204 Y114.000 E10.65959 ; perimeter
G1 X86.000 Y108.796 E10.88730 ; perimeter
G1 X86.000 Y91.204 E11.43163 ; perimeter
G1 X91.204 Y86.000 E11.65933 ; perimeter
G1 X108.808 Y86.011 E12.20403 ; perimeter
G1 X114.000 Y91.204 E12.43124 F1800.000 ; perimeter
G1 X114.000 Y108.796 E12.97557 ; perimeter
G1 X111.621 Y111.175 E13.07967 ; perimeter
G1 X112.010 Y111.670 F7800.000 ; move to first perimeter point
G1 X109.055 Y114.625 E13.20897 F1800.000 ; perimeter
G1 X90.945 Y114.625 E13.76932 ; perimeter
G1 X85.375 Y109.055 E14.01305 ; perimeter
G1 X85.375 Y90.945 E14.57340 ; perimeter
G1 X90.945 Y85.375 E14.81712 ; perimeter
G1 X109.067 Y85.387 E15.37783 ; perimeter
G1 X114.625 Y90.945 E15.62105 F1800.000 ; perimeter
G1 X114.625 Y109.055 E16.18140 ; perimeter
G1 X112.063 Y111.617 E16.29351 ; perimeter
G1 X111.527 Y111.541 F7800.000 ; move inwards before travel
G1 X112.997 Y99.940 F7800.000 ; move to first infill point
G1 X108.685 Y95.628 E16.48574 F1800.000 ; infill
G1 X109.237 Y97.081 F7800.000 ; move to first infill point
G1 X112.997 Y100.840 E16.65336 F1800.000 ; infill
G1 X112.997 Y101.741 E16.68175 ; infill
G1 X109.511 Y98.255 E16.83719 ; infill
G1 X109.627 Y99.271 E16.86944 ; infill
G1 X112.997 Y102.641 E17.01971 ; infill
G1 X112.997 Y103.542 E17.04810 ; infill
G1 X109.648 Y100.193 E17.19738 ; infill
G1 X109.581 Y101.026 E17.22373 ; infill
G1 X112.997 Y104.442 E17.37603 ; infill
G1 X112.997 Y105.343 E17.40442 ; infill
G1 X109.451 Y101.797 E17.56250 ; infill
G1 X109.276 Y102.523 E17.58602 ; infill
G1 X112.997 Y106.243 E17.75191 ; infill
G1 X112.997 Y107.143 E17.78030 ; infill
G1 X109.063 Y103.210 E17.95567 ; infill
G1 X108.800 Y103.847 E17.97740 ; infill
G1 X112.997 Y108.044 E18.16453 ; infill
G1 X112.739 Y108.687 E18.18637 ; infill
G1 X108.502 Y104.450 E18.37528 ; infill
G1 X108.180 Y105.029 E18.39616 ; infill
G1 X112.289 Y109.137 E18.57935 ; infill
G1 X111.839 Y109.588 E18.59943 ; infill
G1 X107.815 Y105.564 E18.77885 ; infill
G1 X107.423 Y106.072 E18.79910 ; infill
G1 X111.389 Y110.038 E18.97592 ; infill
G1 X110.938 Y110.488 E18.99600 ; infill
G1 X107.010 Y106.559 E19.17117 ; infill
G1 X106.551 Y107.002 E19.19125 ; infill
G1 X110.488 Y110.938 E19.36678 ; infill
G1 X110.038 Y111.389 E19.38686 ; infill
G1 X106.074 Y107.425 E19.56360 ; infill
G1 X105.567 Y107.818 E19.58384 ; infill
G1 X109.588 Y111.839 E19.76311 ; infill
G1 X109.137 Y112.289 E19.78319 ; infill
G1 X105.022 Y108.174 E19.96669 ; infill
G1 X104.455 Y108.507 E19.98743 ; infill
G1 X108.687 Y112.739 E20.17614 ; infill
G1 X108.044 Y112.997 E20.19798 ; infill
G1 X103.850 Y108.803 E20.38498 ; infill
G1 X103.212 Y109.065 E20.40673 ; infill
G1 X107.143 Y112.997 E20.58204 ; infill
G1 X106.243 Y112.997 E20.61043 ; infill
G1 X102.524 Y109.277 E20.77626 ; infill
G1 X101.797 Y109.451 E20.79982 ; infill
G1 X105.342 Y112.997 E20.95792 ; infill
G1 X104.442 Y112.997 E20.98631 ; infill
G1 X101.024 Y109.579 E21.13872 ; infill
G1 X100.194 Y109.649 E21.16499 ; infill
G1 X103.542 Y112.997 E21.31426 ; infill
G1 X102.641 Y112.997 E21.34265 ; infill
G1 X99.280 Y109.635 E21.49252 ; infill
G1 X98.265 Y109.521 E21.52471 ; infill
G1 X101.741 Y112.997 E21.67967 ; infill
G1 X100.840 Y112.997 E21.70806 ; infill
G1 X97.091 Y109.248 E21.87520 ; infill
G1 X95.621 Y108.678 F7800.000 ; move to first infill point
G1 X99.940 Y112.997 E22.06774 F1800.000 ; infill
G1 X99.039 Y112.997 E22.09613 ; infill
G1 X87.003 Y100.961 E22.63278 ; infill
G1 X87.003 Y100.060 E22.66117 ; infill
G1 X91.330 Y104.387 E22.85407 ; infill
G1 X90.756 Y102.913 F7800.000 ; move to first infill point
G1 X87.003 Y99.160 E23.02141 F1800.000 ; infill
G1 X87.003 Y98.259 E23.04980 ; infill
G1 X90.491 Y101.747 E23.20529 ; infill
G1 X90.374 Y100.730 E23.23756 ; infill
G1 X87.003 Y97.359 E23.38786 ; infill
G1 X87.003 Y96.458 E23.41625 ; infill
G1 X90.355 Y99.810 E23.56569 ; infill
G1 X90.424 Y98.979 E23.59199 ; infill
G1 X87.003 Y95.558 E23.74452 ; infill
G1 X87.003 Y94.658 E23.77291 ; infill
G1 X90.549 Y98.203 E23.93100 ; infill
G1 X90.719 Y97.473 E23.95464 ; infill
G1 X87.003 Y93.757 E24.12032 ; infill
G1 X87.003 Y92.857 E24.14871 ; infill
G1 X90.938 Y96.792 E24.32416 ; infill
G1 X91.203 Y96.155 E24.34588 ; infill
G1 X87.003 Y91.956 E24.53311 ; infill
G1 X87.261 Y91.313 E24.55496 ; infill
G1 X91.494 Y95.546 E24.74372 ; infill
G1 X91.822 Y94.973 E24.76453 ; infill
G1 X87.711 Y90.863 E24.94782 ; infill
G1 X88.161 Y90.412 E24.96789 ; infill
G1 X92.187 Y94.438 E25.14739 ; infill
G1 X92.573 Y93.923 E25.16767 ; infill
G1 X88.611 Y89.962 E25.34430 ; infill
G1 X89.062 Y89.512 E25.36437 ; infill
G1 X92.996 Y93.447 E25.53981 ; infill
G1 X93.448 Y92.998 E25.55988 ; infill
G1 X89.512 Y89.062 E25.73541 ; infill
G1 X89.962 Y88.611 E25.75548 ; infill
G1 X93.920 Y92.569 E25.93195 ; infill
G1 X94.437 Y92.186 E25.95224 ; infill
G1 X90.412 Y88.161 E26.13170 ; infill
G1 X90.863 Y87.711 E26.15178 ; infill
G1 X94.976 Y91.825 E26.33520 ; infill
G1 X95.543 Y91.490 E26.35593 ; infill
G1 X91.313 Y87.261 E26.54452 ; infill
G1 X91.957 Y87.004 E26.56638 ; infill
G1 X96.147 Y91.195 E26.75323 ; infill
G1 X96.793 Y90.940 E26.77512 ; infill
G1 X92.858 Y87.005 E26.95059 ; infill
G1 X93.759 Y87.005 E26.97900 ; infill
G1 X97.478 Y90.724 E27.14482 ; infill
G1 X98.200 Y90.546 E27.16827 ; infill
G1 X94.660 Y87.006 E27.32611 ; infill
G1 X95.561 Y87.006 E27.35452 ; infill
G1 X98.968 Y90.414 E27.50644 ; infill
G1 X99.812 Y90.357 E27.53310 ; infill
G1 X96.462 Y87.007 E27.68245 ; infill
