; generated by Slic3r 1.2.9 on 2021-04-12 at 17:23:59

; external perimeters extrusion width = 0.50mm
; perimeters extrusion width = 0.72mm
; infill extrusion width = 0.72mm
; solid infill extrusion width = 0.72mm
; top infill extrusion width = 0.72mm

M107
M104 S200 ; set temperature
G28 ; home all axes
G1 Z5 F5000 ; lift nozzle

M109 S200 ; wait for temperature to be reached
G21 ; set units to millimeters
G90 ; use absolute coordinates
M82 ; use absolute distances for extrusion
G92 E0
G1 Z0.350 F7800.000
G1 E-2.00000 F2400.00000
G92 E0
G1 X83.228 Y83.228 F7800.000
G1 E2.00000 F2400.00000
G1 X86.116 Y80.340 E2.12636 F1800.000
G1 X87.994 Y79.024 E2.19732
G1 X90.800 Y78.400 E2.28627
G1 X109.200 Y78.400 E2.85559
G1 X111.459 Y78.797 E2.92655
G1 X113.884 Y80.340 E3.01550 F1800.000
G1 X119.660 Y86.115 E3.26821
G1 X120.976 Y87.993 E3.33917
G1 X121.600 Y90.800 E3.42813
G1 X121.600 Y109.200 E3.99745
G1 X121.203 Y111.459 E4.06841
G1 X119.660 Y113.885 E4.15737
G1 X113.885 Y119.660 E4.41007
G1 X112.007 Y120.976 E4.48104
G1 X109.200 Y121.600 E4.56999
G1 X90.800 Y121.600 E5.13931
G1 X88.541 Y121.203 E5.21028
G1 X86.115 Y119.660 E5.29923
G1 X80.340 Y113.885 E5.55193
G1 X79.024 Y112.007 E5.62290
G1 X78.400 Y109.200 E5.71186
G1 X78.400 Y90.800 E6.28118
G1 X78.797 Y88.541 E6.35214
G1 X80.340 Y86.115 E6.44110
G1 X83.175 Y83.281 E6.56513
G1 E4.56513 F2400.00000
G92 E0
G1 X106.753 Y106.360 F7800.000
G1 E2.00000 F2400.00000
G1 X106.058 Y107.025 E2.02977 F1800.000
G1 X105.298 Y107.615 E2.05953
G1 X104.483 Y108.122 E2.08923
G1 X103.686 Y108.512 E2.11668
G1 X103.151 Y108.724 E2.13448
G1 X102.248 Y109.000 E2.16371
G1 X101.304 Y109.185 E2.19348
G1 X100.346 Y109.270 E2.22324
G1 X99.384 Y109.256 E2.25301
G1 X98.428 Y109.143 E2.28277
G1 X97.492 Y108.931 E2.31248
G1 X96.651 Y108.649 E2.33992
G1 X96.121 Y108.426 E2.35771
G1 X95.284 Y107.988 E2.38695
G1 X94.482 Y107.457 E2.41672
G1 X93.739 Y106.846 E2.44649
G1 X93.064 Y106.160 E2.47625
G1 X92.463 Y105.409 E2.50602
G1 X91.943 Y104.599 E2.53578
G1 X91.510 Y103.740 E2.56555
G1 X91.169 Y102.841 E2.59531
G1 X90.922 Y101.911 E2.62508
G1 X90.773 Y100.962 E2.65480
G1 X90.726 Y100.077 E2.68222
G1 X90.737 Y99.503 E2.69999
G1 X90.835 Y98.562 E2.72926
G1 X91.033 Y97.621 E2.75903
G1 X91.328 Y96.705 E2.78879
G1 X91.716 Y95.825 E2.81856
G1 X92.193 Y94.989 E2.84832
G1 X92.754 Y94.208 E2.87809
G1 X93.392 Y93.488 E2.90786
G1 X94.102 Y92.839 E2.93762
G1 X94.876 Y92.267 E2.96739
G1 X95.690 Y91.786 E2.99663
G1 X96.207 Y91.536 E3.01442
G1 X97.032 Y91.211 E3.04186
G1 X97.956 Y90.951 E3.07157
G1 X98.905 Y90.788 E3.10133
G1 X99.864 Y90.724 E3.13110 F1800.000
G1 X100.826 Y90.760 E3.16086
G1 X101.778 Y90.895 E3.19063
G1 X102.695 Y91.124 E3.21986
G1 X103.240 Y91.309 E3.23766
G1 X104.056 Y91.657 E3.26511
G1 X104.896 Y92.120 E3.29481
G1 X105.686 Y92.670 E3.32458
G1 X106.414 Y93.298 E3.35434
G1 X107.074 Y93.998 E3.38411
G1 X107.657 Y94.763 E3.41387
G1 X108.149 Y95.569 E3.44308
G1 X108.408 Y96.083 E3.46089
G1 X108.745 Y96.905 E3.48836
G1 X109.018 Y97.825 E3.51805
G1 X109.195 Y98.770 E3.54782
G1 X109.271 Y99.711 E3.57702
G1 X109.271 Y100.289 E3.59491
G1 X109.195 Y101.230 E3.62412
G1 X109.018 Y102.175 E3.65388
G1 X108.744 Y103.098 E3.68365
G1 X108.376 Y103.987 E3.71341
G1 X107.919 Y104.833 E3.74318
G1 X107.376 Y105.627 E3.77294
G1 X106.802 Y106.303 E3.80039
G1 X106.298 Y105.931 F7800.000
G1 X105.650 Y106.552 E3.82815 F1800.000
G1 X104.941 Y107.101 E3.85590
G1 X104.180 Y107.574 E3.88362
G1 X103.433 Y107.940 E3.90936
G1 X102.944 Y108.134 E3.92563
G1 X102.096 Y108.393 E3.95306
G1 X101.216 Y108.565 E3.98082
G1 X100.322 Y108.645 E4.00857
G1 X99.425 Y108.632 E4.03633
G1 X98.534 Y108.526 E4.06409
G1 X97.660 Y108.329 E4.09181
G1 X96.872 Y108.064 E4.11754
G1 X96.388 Y107.860 E4.13381
G1 X95.602 Y107.450 E4.16124
G1 X94.854 Y106.954 E4.18900
G1 X94.161 Y106.384 E4.21676
G1 X93.532 Y105.745 E4.24452
G1 X92.971 Y105.044 E4.27228
G1 X92.487 Y104.289 E4.30003
G1 X92.083 Y103.488 E4.32779
G1 X91.764 Y102.649 E4.35555
G1 X91.534 Y101.782 E4.38331
G1 X91.395 Y100.897 E4.41104
G1 X91.351 Y100.067 E4.43676
G1 X91.361 Y99.542 E4.45301
G1 X91.453 Y98.659 E4.48046
G1 X91.638 Y97.781 E4.50822
G1 X91.913 Y96.927 E4.53598
G1 X92.275 Y96.106 E4.56374
G1 X92.719 Y95.327 E4.59150
G1 X93.242 Y94.598 E4.61925
G1 X93.838 Y93.928 E4.64701
G1 X94.500 Y93.322 E4.67477
G1 X95.221 Y92.788 E4.70253
G1 X95.985 Y92.338 E4.72997
G1 X96.458 Y92.109 E4.74623
G1 X97.232 Y91.804 E4.77196
G1 X98.094 Y91.561 E4.79968
G1 X98.978 Y91.409 E4.82744
G1 X99.874 Y91.350 E4.85520 F1800.000
G1 X100.770 Y91.383 E4.88296
G1 X101.658 Y91.509 E4.91071
G1 X102.518 Y91.724 E4.93814
G1 X103.016 Y91.893 E4.95441
G1 X103.782 Y92.219 E4.98015
G1 X104.566 Y92.652 E5.00787
G1 X105.302 Y93.164 E5.03563
G1 X105.982 Y93.750 E5.06338
G1 X106.597 Y94.403 E5.09114
G1 X107.141 Y95.117 E5.11890
G1 X107.602 Y95.873 E5.14632
G1 X107.839 Y96.343 E5.16259
G1 X108.155 Y97.113 E5.18834
G1 X108.410 Y97.971 E5.21605
G1 X108.575 Y98.853 E5.24381
G1 X108.646 Y99.736 E5.27123
G1 X108.646 Y100.264 E5.28755
G1 X108.575 Y101.147 E5.31497
G1 X108.410 Y102.029 E5.34272
G1 X108.154 Y102.889 E5.37048
G1 X107.811 Y103.718 E5.39824
G1 X107.384 Y104.507 E5.42600
G1 X106.878 Y105.247 E5.45375
G1 X106.346 Y105.874 E5.47919
G1 X105.842 Y105.502 F7800.000
G1 X105.241 Y106.078 E5.50494 F1800.000
G1 X104.583 Y106.588 E5.53069
G1 X103.877 Y107.027 E5.55643
G1 X103.179 Y107.368 E5.58045
G1 X102.737 Y107.544 E5.59519
G1 X101.945 Y107.786 E5.62082
G1 X101.128 Y107.946 E5.64657
G1 X100.299 Y108.020 E5.67232
G1 X99.467 Y108.008 E5.69807
G1 X98.640 Y107.909 E5.72382
G1 X97.829 Y107.726 E5.74956
G1 X97.093 Y107.479 E5.77358
G1 X96.654 Y107.294 E5.78831
G1 X95.920 Y106.911 E5.81395
G1 X95.226 Y106.451 E5.83970
G1 X94.584 Y105.922 E5.86545
G1 X93.999 Y105.329 E5.89120
G1 X93.480 Y104.679 E5.91695
G1 X93.030 Y103.979 E5.94270
G1 X92.656 Y103.236 E5.96845
G1 X92.360 Y102.458 E5.99420
G1 X92.147 Y101.653 E6.01995
G1 X92.018 Y100.831 E6.04569
G1 X91.976 Y100.056 E6.06971
G1 X91.986 Y99.580 E6.08444
G1 X92.072 Y98.756 E6.11008
G1 X92.243 Y97.942 E6.13583
G1 X92.498 Y97.149 E6.16158
G1 X92.833 Y96.388 E6.18733
G1 X93.246 Y95.665 E6.21308
G1 X93.731 Y94.989 E6.23883
G1 X94.284 Y94.367 E6.26458
G1 X94.898 Y93.805 E6.29033
G1 X95.567 Y93.310 E6.31608
G1 X96.280 Y92.889 E6.34172
G1 X96.709 Y92.681 E6.35645
G1 X97.431 Y92.397 E6.38047
G1 X98.232 Y92.172 E6.40621
G1 X99.052 Y92.031 E6.43196
G1 X99.883 Y91.975 E6.45771 F1800.000
G1 X100.714 Y92.006 E6.48346
G1 X101.538 Y92.123 E6.50921
G1 X102.342 Y92.324 E6.53485
G1 X102.793 Y92.477 E6.54958
G1 X103.507 Y92.782 E6.57361
G1 X104.236 Y93.183 E6.59934
G1 X104.919 Y93.659 E6.62509
G1 X105.549 Y94.202 E6.65084
G1 X106.120 Y94.808 E6.67659
G1 X106.624 Y95.470 E6.70234
G1 X107.056 Y96.177 E6.72797
G1 X107.270 Y96.602 E6.74271
G1 X107.565 Y97.321 E6.76674
G1 X107.801 Y98.118 E6.79247
G1 X107.954 Y98.936 E6.81822
G1 X108.021 Y99.762 E6.84385
G1 X108.021 Y100.238 E6.85860
G1 X107.954 Y101.064 E6.88423
G1 X107.801 Y101.882 E6.90998
G1 X107.565 Y102.680 E6.93573
G1 X107.246 Y103.449 E6.96148
G1 X106.850 Y104.181 E6.98723
G1 X106.381 Y104.868 E7.01298
G1 X105.891 Y105.445 E7.03641
G1 X105.978 Y105.984 F7800.000
G1 X111.126 Y110.786 F7800.000
G1 X108.537 Y113.375 E7.14969 F1800.000
G1 X91.463 Y113.375 E7.67801
G1 X86.625 Y108.537 E7.88970
G1 X86.625 Y91.463 E8.41801
G1 X91.462 Y86.625 E8.62969
G1 X108.549 Y86.636 E9.15836
G1 X113.375 Y91.463 E9.36957 F1800.000
G1 X113.375 Y108.537 E9.89788
G1 X111.179 Y110.733 E9.99397
G1 X111.568 Y111.228 F7800.000
G1 X108.796 Y114.000 E10.11526 F1800.000
G1 X91.204 Y114.000 E10.65959
G1 X86.000 Y108.796 E10.88730
G1 X86.000 Y91.204 E11.43163
G1 X91.204 Y86.000 E11.65933
G1 X108.808 Y86.011 E12.20403
G1 X114.000 Y91.204 E12.43124 F1800.000
G1 X114.000 Y108.796 E12.97557
G1 X111.621 Y111.175 E13.07967
G1 X112.010 Y111.670 F7800.000
G1 X109.055 Y114.625 E13.20897 F1800.000
G1 X90.945 Y114.625 E13.76932
G1 X85.375 Y109.055 E14.01305
G1 X85.375 Y90.945 E14.57340
G1 X90.945 Y85.375 E14.81712
G1 X109.067 Y85.387 E15.37783
G1 X114.625 Y90.945 E15.62105 F1800.000
G1 X114.625 Y109.055 E16.18140
G1 X112.063 Y111.617 E16.29351
G1 X111.527 Y111.541 F7800.000
G1 X112.997 Y99.940 F7800.000
G1 X108.685 Y95.628 E16.48574 F1800.000
G1 X109.237 Y97.081 F7800.000
G1 X112.997 Y100.840 E16.65336 F1800.000
G1 X112.997 Y101.741 E16.68175
G1 X109.511 Y98.255 E16.83719
G1 X109.627 Y99.271 E16.86944
G1 X112.997 Y102.641 E17.01971
G1 X112.997 Y103.542 E17.04810
G1 X109.648 Y100.193 E17.19738
G1 X109.581 Y101.026 E17.22373
G1 X112.997 Y104.442 E17.37603
G1 X112.997 Y105.343 E17.40442
G1 X109.451 Y101.797 E17.56250
G1 X109.276 Y102.523 E17.58602
G1 X112.997 Y106.243 E17.75191
G1 X112.997 Y107.143 E17.78030
G1 X109.063 Y103.210 E17.95567
G1 X108.800 Y103.847 E17.97740
G1 X112.997 Y108.044 E18.16453
G1 X112.739 Y108.687 E18.18637
G1 X108.502 Y104.450 E18.37528
G1 X108.180 Y105.029 E18.39616
G1 X112.289 Y109.137 E18.57935
G1 X111.839 Y109.588 E18.59943
G1 X107.815 Y105.564 E18.77885
G1 X107.423 Y106.072 E18.79910
G1 X111.389 Y110.038 E18.97592
G1 X110.938 Y110.488 E18.99600
G1 X107.010 Y106.559 E19.17117
G1 X106.551 Y107.002 E19.19125
G1 X110.488 Y110.938 E19.36678
G1 X110.038 Y111.389 E19.38686
G1 X106.074 Y107.425 E19.56360
G1 X105.567 Y107.818 E19.58384
G1 X109.588 Y111.839 E19.76311
G1 X109.137 Y112.289 E19.78319
G1 X105.022 Y108.174 E19.96669
G1 X104.455 Y108.507 E19.98743
G1 X108.687 Y112.739 E20.17614
G1 X108.044 Y112.997 E20.19798
G1 X103.850 Y108.803 E20.38498
G1 X103.212 Y109.065 E20.40673
G1 X107.143 Y112.997 E20.58204
G1 X106.243 Y112.997 E20.61043
G1 X102.524 Y109.277 E20.77626
G1 X101.797 Y109.451 E20.79982
G1 X105.342 Y112.997 E20.95792
G1 X104.442 Y112.997 E20.98631
G1 X101.024 Y109.579 E21.13872
G1 X100.194 Y109.649 E21.16499
G1 X103.542 Y112.997 E21.31426
G1 X102.641 Y112.997 E21.34265
G1 X99.280 Y109.635 E21.49252
G1 X98.265 Y109.521 E21.52471
G1 X101.741 Y112.997 E21.67967
G1 X100.840 Y112.997 E21.70806
G1 X97.091 Y109.248 E21.87520
G1 X95.621 Y108.678 F7800.000
G1 X99.940 Y112.997 E22.06774 F1800.000
G1 X99.039 Y112.997 E22.09613
G1 X87.003 Y100.961 E22.63278
G1 X87.003 Y100.060 E22.66117
G1 X91.330 Y104.387 E22.85407
G1 X90.756 Y102.913 F7800.000
G1 X87.003 Y99.160 E23.02141 F1800.000
G1 X87.003 Y98.259 E23.04980
G1 X90.491 Y101.747 E23.20529
G1 X90.374 Y100.730 E23.23756
G1 X87.003 Y97.359 E23.38786
G1 X87.003 Y96.458 E23.41625
G1 X90.355 Y99.810 E23.56569
G1 X90.424 Y98.979 E23.59199
G1 X87.003 Y95.558 E23.74452
G1 X87.003 Y94.658 E23.77291
G1 X90.549 Y98.203 E23.93100
G1 X90.719 Y97.473 E23.95464
G1 X87.003 Y93.757 E24.12032
G1 X87.003 Y92.857 E24.14871
G1 X90.938 Y96.792 E24.32416
G1 X91.203 Y96.155 E24.34588
G1 X87.003 Y91.956 E24.53311
G1 X87.261 Y91.313 E24.55496
G1 X91.494 Y95.546 E24.74372
G1 X91.822 Y94.973 E24.76453
G1 X87.711 Y90.863 E24.94782
G1 X88.161 Y90.412 E24.96789
G1 X92.187 Y94.438 E25.14739
G1 X92.573 Y93.923 E25.16767
G1 X88.611 Y89.962 E25.34430
G1 X89.062 Y89.512 E25.36437
G1 X92.996 Y93.447 E25.53981
G1 X93.448 Y92.998 E25.55988
G1 X89.512 Y89.062 E25.73541
G1 X89.962 Y88.611 E25.75548
G1 X93.920 Y92.569 E25.93195
G1 X94.437 Y92.186 E25.95224
G1 X90.412 Y88.161 E26.13170
G1 X90.863 Y87.711 E26.15178
G1 X94.976 Y91.825 E26.33520
G1 X95.543 Y91.490 E26.35593
G1 X91.313 Y87.261 E26.54452
G1 X91.957 Y87.004 E26.56638
G1 X96.147 Y91.195 E26.75323
G1 X96.793 Y90.940 E26.77512
G1 X92.858 Y87.005 E26.95059
G1 X93.759 Y87.005 E26.97900
G1 X97.478 Y90.724 E27.14482
G1 X98.200 Y90.546 E27.16827
G1 X94.660 Y87.006 E27.32611
G1 X95.561 Y87.006 E27.35452
G1 X98.968 Y90.414 E27.50644
G1 X99.812 Y90.357 E27.53310
G1 X96.462 Y87.007 E27.68245
G1 X97.363 Y87.008 E27.71086
G1 X100.728 Y90.372 E27.86089
G1 X101.744 Y90.488 E27.89313
G1 X98.264 Y87.008 E28.04827
G1 X99.165 Y87.009 E28.07668
G1 X102.906 Y90.749 E28.24347
G1 X104.367 Y91.310 F7800.000
G1 X100.066 Y87.009 E28.43523 F1800.000
G1 X100.967 Y87.010 E28.46364
G1 X112.997 Y99.039 E28.99999
G1 X112.997 Y98.139 E29.02838
G1 X101.868 Y87.010 E29.52456
G1 X102.770 Y87.011 E29.55297
G1 X112.997 Y97.238 E30.00897
G1 X112.997 Y96.338 E30.03736
G1 X103.671 Y87.012 E30.45319
G1 X104.572 Y87.012 E30.48160
G1 X112.997 Y95.437 E30.85725
G1 X112.997 Y94.537 E30.88564
G1 X105.473 Y87.013 E31.22111
G1 X106.374 Y87.013 E31.24952
G1 X112.997 Y93.636 E31.54482
G1 X112.997 Y92.736 E31.57321
G1 X107.275 Y87.014 E31.82834
G1 X108.176 Y87.014 E31.85675
G1 X112.997 Y91.835 E32.07169
G1 E30.07169 F2400.00000
G92 E0
G1 X98.139 Y112.997 F7800.000
G1 E2.00000 F2400.00000
G1 X87.003 Y101.861 E2.49649 F1800.000
G1 X87.003 Y102.762 E2.52488
G1 X97.238 Y112.997 E2.98123
G1 X96.338 Y112.997 E3.00962
G1 X87.003 Y103.662 E3.42581
G1 X87.003 Y104.563 E3.45420
G1 X95.437 Y112.997 E3.83024
G1 X94.537 Y112.997 E3.85863
G1 X87.003 Y105.463 E4.19452
G1 X87.003 Y106.364 E4.22291
G1 X93.636 Y112.997 E4.51865
G1 X92.736 Y112.997 E4.54704
G1 X87.003 Y107.264 E4.80263
G1 X87.003 Y108.165 E4.83102
G1 X91.835 Y112.997 E5.04646
G1 Z0.650 F7800.000
G1 X106.634 Y106.231 F7800.000
G1 X105.960 Y106.878 E5.07242 F3600.000
G1 X105.215 Y107.459 E5.09867
G1 X104.414 Y107.960 E5.12491
G1 X103.565 Y108.374 E5.15116
G1 X102.695 Y108.692 E5.17688
G1 X102.204 Y108.830 E5.19105
G1 X101.295 Y109.009 E5.21677
G1 X100.354 Y109.095 E5.24302
G1 X99.410 Y109.082 E5.26926
G1 X98.471 Y108.972 E5.29550
G1 X97.549 Y108.765 E5.32175
G1 X96.654 Y108.464 E5.34799
G1 X95.794 Y108.072 E5.37424
G1 X94.980 Y107.592 E5.40048
G1 X94.236 Y107.042 E5.42620
G1 X93.850 Y106.708 E5.44038
G1 X93.199 Y106.049 E5.46610
G1 X92.609 Y105.311 E5.49234
G1 X92.098 Y104.517 E5.51859
G1 X91.673 Y103.673 E5.54483
G1 X91.337 Y102.790 E5.57107
G1 X91.095 Y101.880 E5.59723
G1 X90.968 Y101.092 E5.61940
G1 X90.911 Y100.462 E5.63697
G1 X90.911 Y99.528 E5.66293
G1 X91.009 Y98.588 E5.68917
G1 X91.204 Y97.663 E5.71542
G1 X91.493 Y96.764 E5.74166
G1 X91.867 Y95.917 E5.76738
G1 X92.108 Y95.468 E5.78156
G1 X92.609 Y94.689 E5.80728
G1 X93.199 Y93.951 E5.83352
G1 X93.863 Y93.279 E5.85977
G1 X94.593 Y92.679 E5.88601
G1 X95.381 Y92.158 E5.91226
G1 X96.219 Y91.721 E5.93850
G1 X97.098 Y91.374 E5.96474
G1 X98.008 Y91.119 E5.99099
G1 X98.936 Y90.961 E6.01714
G1 X99.732 Y90.906 E6.03931 F3600.000
G1 X100.364 Y90.906 E6.05688
G1 X101.295 Y90.991 E6.08284
G1 X102.222 Y91.174 E6.10909
G1 X103.125 Y91.452 E6.13533
G1 X103.995 Y91.822 E6.16158
G1 X104.821 Y92.280 E6.18782
G1 X105.595 Y92.821 E6.21407
G1 X106.309 Y93.440 E6.24031
G1 X106.955 Y94.130 E6.26656
G1 X107.524 Y94.880 E6.29271
G1 X107.941 Y95.560 E6.31488
G1 X108.233 Y96.121 E6.33245
G1 X108.588 Y96.986 E6.35841
G1 X108.854 Y97.893 E6.38466
G1 X109.025 Y98.822 E6.41090
G1 X109.098 Y99.764 E6.43715
G1 X109.074 Y100.708 E6.46339
G1 X108.952 Y101.645 E6.48964
G1 X108.733 Y102.564 E6.51588
G1 X108.420 Y103.456 E6.54212
G1 X108.016 Y104.310 E6.56837
G1 X107.528 Y105.115 E6.59452
G1 X107.049 Y105.753 E6.61669
G1 X106.683 Y106.174 E6.63218
G1 X106.159 Y105.779 F7800.000
G1 X105.531 Y106.383 E6.65638 F3600.000
G1 X104.840 Y106.922 E6.68073
G1 X104.096 Y107.387 E6.70509
G1 X103.308 Y107.771 E6.72944
G1 X102.494 Y108.069 E6.75351
G1 X102.052 Y108.193 E6.76626
G1 X101.202 Y108.360 E6.79033
G1 X100.329 Y108.440 E6.81469
G1 X99.452 Y108.428 E6.83904
G1 X98.581 Y108.326 E6.86340
G1 X97.726 Y108.134 E6.88775
G1 X96.895 Y107.855 E6.91211
G1 X96.097 Y107.490 E6.93646
G1 X95.342 Y107.045 E6.96082
G1 X94.645 Y106.531 E6.98488
G1 X94.298 Y106.230 E6.99764
G1 X93.689 Y105.613 E7.02171
G1 X93.141 Y104.929 E7.04606
G1 X92.667 Y104.191 E7.07042
G1 X92.272 Y103.409 E7.09477
G1 X91.960 Y102.589 E7.11912
G1 X91.736 Y101.744 E7.14343
G1 X91.617 Y101.010 E7.16406
G1 X91.565 Y100.433 E7.18017
G1 X91.565 Y99.562 E7.20437
G1 X91.656 Y98.690 E7.22872
G1 X91.837 Y97.832 E7.25308
G1 X92.106 Y96.997 E7.27743
G1 X92.455 Y96.204 E7.30150
G1 X92.673 Y95.800 E7.31425
G1 X93.141 Y95.071 E7.33832
G1 X93.689 Y94.387 E7.36268
G1 X94.305 Y93.763 E7.38703
G1 X94.982 Y93.206 E7.41138
G1 X95.714 Y92.722 E7.43574
G1 X96.491 Y92.317 E7.46009
G1 X97.307 Y91.995 E7.48445
G1 X98.151 Y91.759 E7.50880
