; generated by PrusaSlicer 2.1.1 on 2021-04-14 at 14:54:25 UTC

; 

; external perimeters extrusion width = 0.45mm
; perimeters extrusion width = 0.45mm
; infill extrusion width = 0.45mm
; solid infill extrusion width = 0.45mm
; top infill extrusion width = 0.40mm
; first layer extrusion width = 0.70mm

M107 ; disable fan
M104 S200 ; set temperature
G28 ; home all axes
G1 Z5 F5000 ; lift nozzle
M109 S200 ; set temperature and wait for it to be reached
G21 ; set units to millimeters
G90 ; use absolute coordinates
M82 ; use absolute distances for extrusion
G92 E0 ; reset extrusion distance
; Filament gcode
G1 Z0.350 F7800.000 ; move to next layer (0)
G1 E-2.00000 F2400.00000 ; retract
G92 E0 ; reset extrusion distance
G1 X87.626 Y79.568 F7800.000 ; move to first skirt point
G1 E2.00000 F2400.00000 ; unretract
G1 F1800
G1 X88.931 Y78.996 E2.12954 ; skirt
G1 X89.813 Y78.790 E2.21187 ; skirt
G1 X90.715 Y78.713 E2.29420 ; skirt
G1 X109.206 Y78.713 E3.97562 ; skirt
G1 X110.318 Y78.812 E4.07708 ; skirt
G1 X111.394 Y79.106 E4.17854 ; skirt
G1 X112.397 Y79.582 E4.27944 ; skirt
G1 X113.305 Y80.230 E4.38090 ; skirt
G1 X119.677 Y86.589 E5.19951 ; skirt
G1 X120.422 Y87.610 E5.31446 ; skirt
G1 X120.949 Y88.760 E5.42941 ; skirt
G1 X121.193 Y89.715 E5.51906 ; skirt
G1 X121.287 Y90.696 E5.60871 ; skirt
G1 X121.287 Y109.293 E7.29972 ; skirt
G1 X121.104 Y110.712 E7.42981 ; skirt
G1 X120.603 Y112.059 E7.56047 ; skirt
G1 X120.140 Y112.830 E7.64224 ; skirt
G1 X119.567 Y113.531 E7.72458 ; skirt
G1 X113.475 Y119.619 E8.50768 ; skirt
G1 X112.228 Y120.514 E8.64731 ; skirt
G1 X110.795 Y121.083 E8.78749 ; skirt
G1 X109.267 Y121.287 E8.92768 ; skirt
G1 X90.670 Y121.286 E10.61869 ; skirt
G1 X89.264 Y121.098 E10.74767 ; skirt
G1 X87.941 Y120.603 E10.87609 ; skirt
G1 X87.170 Y120.140 E10.95786 ; skirt
G1 X86.469 Y119.567 E11.04019 ; skirt
G1 X80.381 Y113.475 E11.82329 ; skirt
G1 X79.486 Y112.228 E11.96292 ; skirt
G1 X78.917 Y110.795 E12.10311 ; skirt
G1 X78.713 Y109.267 E12.24329 ; skirt
G1 X78.714 Y90.670 E13.93430 ; skirt
G1 X78.902 Y89.264 E14.06328 ; skirt
G1 X79.397 Y87.941 E14.19170 ; skirt
G1 X79.860 Y87.170 E14.27347 ; skirt
G1 X80.429 Y86.473 E14.35524 ; skirt
G1 X86.479 Y80.423 E15.13326 ; skirt
G1 X87.578 Y79.604 E15.25791 ; skirt
G1 E13.25791 F2400.00000 ; retract
G92 E0 ; reset extrusion distance
G1 X106.753 Y106.360 F7800.000 ; move to first perimeter point
G1 E2.00000 F2400.00000 ; unretract
G1 F1800
G1 X106.058 Y107.025 E2.08747 ; perimeter
G1 X105.298 Y107.615 E2.17495 ; perimeter
G1 X104.483 Y108.122 E2.26222 ; perimeter
G1 X103.686 Y108.512 E2.34291 ; perimeter
G1 X103.151 Y108.724 E2.39522 ; perimeter
G1 X102.248 Y109.000 E2.48111 ; perimeter
G1 X101.304 Y109.185 E2.56859 ; perimeter
G1 X100.346 Y109.270 E2.65606 ; perimeter
G1 X99.384 Y109.256 E2.74353 ; perimeter
G1 X98.428 Y109.143 E2.83101 ; perimeter
G1 X97.492 Y108.931 E2.91831 ; perimeter
G1 X96.651 Y108.649 E2.99895 ; perimeter
G1 X96.121 Y108.426 E3.05123 ; perimeter
G1 X95.284 Y107.988 E3.13717 ; perimeter
G1 X94.482 Y107.457 E3.22465 ; perimeter
G1 X93.739 Y106.846 E3.31212 ; perimeter
G1 X93.064 Y106.160 E3.39960 ; perimeter
G1 X92.463 Y105.409 E3.48707 ; perimeter
G1 X91.943 Y104.599 E3.57455 ; perimeter
G1 X91.510 Y103.740 E3.66202 ; perimeter
G1 X91.169 Y102.841 E3.74950 ; perimeter
G1 X90.922 Y101.911 E3.83697 ; perimeter
G1 X90.773 Y100.962 E3.92432 ; perimeter
G1 X90.726 Y100.077 E4.00489 ; perimeter
G1 X90.737 Y99.503 E4.05713 ; perimeter
G1 X90.835 Y98.562 E4.14313 ; perimeter
G1 X91.033 Y97.621 E4.23061 ; perimeter
G1 X91.328 Y96.705 E4.31808 ; perimeter
G1 X91.716 Y95.825 E4.40556 ; perimeter
G1 X92.193 Y94.989 E4.49303 ; perimeter
G1 X92.754 Y94.208 E4.58051 ; perimeter
G1 X93.392 Y93.488 E4.66798 ; perimeter
G1 X94.102 Y92.839 E4.75546 ; perimeter
G1 X94.876 Y92.267 E4.84293 ; perimeter
G1 X95.690 Y91.786 E4.92888 ; perimeter
G1 X96.207 Y91.536 E4.98116 ; perimeter
G1 X97.032 Y91.211 E5.06179 ; perimeter
G1 X97.956 Y90.951 E5.14910 ; perimeter
G1 X98.905 Y90.788 E5.23657 ; perimeter
G1 X99.864 Y90.724 E5.32405 ; perimeter
G1 X100.826 Y90.760 E5.41152 ; perimeter
G1 X101.778 Y90.895 E5.49900 ; perimeter
G1 X102.695 Y91.124 E5.58489 ; perimeter
G1 X103.240 Y91.309 E5.63720 ; perimeter
G1 X104.056 Y91.657 E5.71788 ; perimeter
G1 X104.896 Y92.120 E5.80516 ; perimeter
G1 X105.686 Y92.670 E5.89263 ; perimeter
G1 X106.414 Y93.298 E5.98011 ; perimeter
G1 X107.074 Y93.998 E6.06758 ; perimeter
G1 X107.657 Y94.763 E6.15505 ; perimeter
G1 X108.149 Y95.569 E6.24090 ; perimeter
G1 X108.408 Y96.083 E6.29324 ; perimeter
G1 X108.745 Y96.905 E6.37397 ; perimeter
G1 X109.018 Y97.825 E6.46121 ; perimeter
G1 X109.195 Y98.770 E6.54869 ; perimeter
G1 X109.271 Y99.711 E6.63451 ; perimeter
G1 X109.271 Y100.289 E6.68710 ; perimeter
G1 X109.195 Y101.230 E6.77292 ; perimeter
G1 X109.018 Y102.175 E6.86039 ; perimeter
G1 X108.744 Y103.098 E6.94786 ; perimeter
G1 X108.376 Y103.987 E7.03534 ; perimeter
G1 X107.919 Y104.833 E7.12281 ; perimeter
G1 X107.376 Y105.627 E7.21028 ; perimeter
G1 X106.792 Y106.315 E7.29230 ; perimeter
G1 X106.298 Y105.931 F7800.000 ; move to first perimeter point
G1 F1800
G1 X105.650 Y106.552 E7.37387 ; perimeter
G1 X104.941 Y107.101 E7.45545 ; perimeter
G1 X104.180 Y107.574 E7.53690 ; perimeter
G1 X103.433 Y107.940 E7.61254 ; perimeter
G1 X102.944 Y108.134 E7.66035 ; perimeter
G1 X102.096 Y108.393 E7.74096 ; perimeter
G1 X101.216 Y108.565 E7.82254 ; perimeter
G1 X100.322 Y108.645 E7.90411 ; perimeter
G1 X99.425 Y108.632 E7.98569 ; perimeter
G1 X98.534 Y108.526 E8.06726 ; perimeter
G1 X97.660 Y108.329 E8.14873 ; perimeter
G1 X96.872 Y108.064 E8.22434 ; perimeter
G1 X96.388 Y107.860 E8.27214 ; perimeter
G1 X95.602 Y107.450 E8.35278 ; perimeter
G1 X94.854 Y106.954 E8.43435 ; perimeter
G1 X94.161 Y106.384 E8.51593 ; perimeter
G1 X93.532 Y105.745 E8.59750 ; perimeter
G1 X92.971 Y105.044 E8.67907 ; perimeter
G1 X92.487 Y104.289 E8.76065 ; perimeter
G1 X92.083 Y103.488 E8.84222 ; perimeter
G1 X91.764 Y102.649 E8.92380 ; perimeter
G1 X91.534 Y101.782 E9.00537 ; perimeter
G1 X91.395 Y100.897 E9.08687 ; perimeter
G1 X91.351 Y100.067 E9.16244 ; perimeter
G1 X91.361 Y99.542 E9.21021 ; perimeter
G1 X91.453 Y98.659 E9.29089 ; perimeter
G1 X91.638 Y97.781 E9.37246 ; perimeter
G1 X91.913 Y96.927 E9.45404 ; perimeter
G1 X92.275 Y96.106 E9.53561 ; perimeter
G1 X92.719 Y95.327 E9.61719 ; perimeter
G1 X93.242 Y94.598 E9.69876 ; perimeter
G1 X93.838 Y93.928 E9.78034 ; perimeter
G1 X94.500 Y93.322 E9.86191 ; perimeter
G1 X95.221 Y92.788 E9.94349 ; perimeter
G1 X95.985 Y92.338 E10.02413 ; perimeter
G1 X96.458 Y92.109 E10.07192 ; perimeter
G1 X97.232 Y91.804 E10.14753 ; perimeter
G1 X98.094 Y91.561 E10.22900 ; perimeter
G1 X98.978 Y91.409 E10.31058 ; perimeter
G1 X99.874 Y91.350 E10.39215 ; perimeter
G1 X100.770 Y91.383 E10.47373 ; perimeter
G1 X101.658 Y91.509 E10.55530 ; perimeter
G1 X102.518 Y91.724 E10.63591 ; perimeter
G1 X103.016 Y91.893 E10.68372 ; perimeter
G1 X103.782 Y92.219 E10.75936 ; perimeter
G1 X104.566 Y92.652 E10.84082 ; perimeter
G1 X105.302 Y93.164 E10.92239 ; perimeter
G1 X105.982 Y93.750 E11.00396 ; perimeter
G1 X106.597 Y94.403 E11.08554 ; perimeter
G1 X107.141 Y95.117 E11.16711 ; perimeter
G1 X107.602 Y95.873 E11.24769 ; perimeter
G1 X107.839 Y96.343 E11.29552 ; perimeter
G1 X108.155 Y97.113 E11.37119 ; perimeter
G1 X108.410 Y97.971 E11.45262 ; perimeter
G1 X108.575 Y98.853 E11.53420 ; perimeter
G1 X108.646 Y99.736 E11.61476 ; perimeter
G1 X108.646 Y100.264 E11.66274 ; perimeter
G1 X108.575 Y101.147 E11.74331 ; perimeter
G1 X108.410 Y102.029 E11.82488 ; perimeter
G1 X108.154 Y102.889 E11.90645 ; perimeter
G1 X107.811 Y103.718 E11.98802 ; perimeter
G1 X107.384 Y104.507 E12.06960 ; perimeter
G1 X106.878 Y105.247 E12.15117 ; perimeter
G1 X106.336 Y105.886 E12.22729 ; perimeter
G1 X105.842 Y105.502 F7800.000 ; move to first perimeter point
G1 F1800
G1 X105.241 Y106.078 E12.30296 ; perimeter
G1 X104.583 Y106.588 E12.37863 ; perimeter
G1 X103.877 Y107.027 E12.45426 ; perimeter
G1 X103.179 Y107.368 E12.52487 ; perimeter
G1 X102.737 Y107.544 E12.56818 ; perimeter
G1 X101.945 Y107.786 E12.64350 ; perimeter
G1 X101.128 Y107.946 E12.71918 ; perimeter
G1 X100.299 Y108.020 E12.79485 ; perimeter
G1 X99.467 Y108.008 E12.87052 ; perimeter
G1 X98.640 Y107.909 E12.94620 ; perimeter
G1 X97.829 Y107.726 E13.02184 ; perimeter
G1 X97.093 Y107.479 E13.09243 ; perimeter
G1 X96.654 Y107.294 E13.13573 ; perimeter
G1 X95.920 Y106.911 E13.21107 ; perimeter
G1 X95.226 Y106.451 E13.28674 ; perimeter
G1 X94.584 Y105.922 E13.36242 ; perimeter
G1 X93.999 Y105.329 E13.43809 ; perimeter
G1 X93.480 Y104.679 E13.51377 ; perimeter
G1 X93.030 Y103.979 E13.58944 ; perimeter
G1 X92.656 Y103.236 E13.66511 ; perimeter
G1 X92.360 Y102.458 E13.74079 ; perimeter
G1 X92.147 Y101.653 E13.81646 ; perimeter
G1 X92.018 Y100.831 E13.89211 ; perimeter
G1 X91.976 Y100.056 E13.96269 ; perimeter
G1 X91.986 Y99.580 E14.00598 ; perimeter
G1 X92.072 Y98.756 E14.08133 ; perimeter
G1 X92.243 Y97.942 E14.15701 ; perimeter
G1 X92.498 Y97.149 E14.23268 ; perimeter
G1 X92.833 Y96.388 E14.30836 ; perimeter
G1 X93.246 Y95.665 E14.38403 ; perimeter
G1 X93.731 Y94.989 E14.45970 ; perimeter
G1 X94.284 Y94.367 E14.53538 ; perimeter
G1 X94.898 Y93.805 E14.61105 ; perimeter
G1 X95.567 Y93.310 E14.68673 ; perimeter
G1 X96.280 Y92.889 E14.76207 ; perimeter
G1 X96.709 Y92.681 E14.80537 ; perimeter
G1 X97.431 Y92.397 E14.87596 ; perimeter
G1 X98.232 Y92.172 E14.95160 ; perimeter
G1 X99.052 Y92.031 E15.02727 ; perimeter
G1 X99.883 Y91.975 E15.10294 ; perimeter
G1 X100.714 Y92.006 E15.17862 ; perimeter
G1 X101.538 Y92.123 E15.25429 ; perimeter
G1 X102.342 Y92.324 E15.32962 ; perimeter
G1 X102.793 Y92.477 E15.37293 ; perimeter
G1 X103.507 Y92.782 E15.44353 ; perimeter
G1 X104.236 Y93.183 E15.51916 ; perimeter
G1 X104.919 Y93.659 E15.59483 ; perimeter
G1 X105.549 Y94.202 E15.67051 ; perimeter
G1 X106.120 Y94.808 E15.74618 ; perimeter
G1 X106.624 Y95.470 E15.82185 ; perimeter
G1 X107.056 Y96.177 E15.89717 ; perimeter
G1 X107.270 Y96.602 E15.94049 ; perimeter
G1 X107.565 Y97.321 E16.01110 ; perimeter
G1 X107.801 Y98.118 E16.08672 ; perimeter
G1 X107.954 Y98.936 E16.16239 ; perimeter
G1 X108.021 Y99.762 E16.23770 ; perimeter
G1 X108.021 Y100.238 E16.28107 ; perimeter
G1 X107.954 Y101.064 E16.35638 ; perimeter
G1 X107.801 Y101.882 E16.43206 ; perimeter
G1 X107.565 Y102.680 E16.50773 ; perimeter
G1 X107.246 Y103.449 E16.58340 ; perimeter
G1 X106.850 Y104.181 E16.65907 ; perimeter
G1 X106.381 Y104.868 E16.73475 ; perimeter
G1 X105.881 Y105.457 E16.80496 ; perimeter
G1 X105.957 Y105.885 F7800.000 ; move inwards before travel
G1 E14.80496 F2400.00000 ; retract
G92 E0 ; reset extrusion distance
G1 X113.375 Y108.537 F7800.000 ; move to first perimeter point
G1 E2.00000 F2400.00000 ; unretract
G1 F1800
G1 X108.537 Y113.375 E2.62212 ; perimeter
G1 X91.463 Y113.375 E4.17472 ; perimeter
G1 X86.625 Y108.537 E4.79684 ; perimeter
G1 X86.625 Y91.463 E6.34943 ; perimeter
G1 X91.463 Y86.625 E6.97155 ; perimeter
G1 X108.537 Y86.625 E8.52415 ; perimeter
G1 X113.375 Y91.463 E9.14627 ; perimeter
G1 X113.375 Y108.477 E10.69341 ; perimeter
G1 X114.000 Y108.796 F7800.000 ; move to first perimeter point
G1 F1800
G1 X108.796 Y114.000 E11.36260 ; perimeter
G1 X91.204 Y114.000 E12.96227 ; perimeter
G1 X86.000 Y108.796 E13.63146 ; perimeter
G1 X86.000 Y91.204 E15.23113 ; perimeter
G1 X91.204 Y86.000 E15.90032 ; perimeter
G1 X108.796 Y86.000 E17.49999 ; perimeter
G1 X114.000 Y91.204 E18.16918 ; perimeter
G1 X114.000 Y108.736 E19.76339 ; perimeter
G1 X114.625 Y109.055 F7800.000 ; move to first perimeter point
G1 F1800
G1 X109.055 Y114.625 E20.47966 ; perimeter
G1 X90.945 Y114.625 E22.12640 ; perimeter
G1 X85.375 Y109.055 E22.84266 ; perimeter
G1 X85.375 Y90.945 E24.48940 ; perimeter
G1 X90.945 Y85.375 E25.20566 ; perimeter
G1 X109.055 Y85.375 E26.85240 ; perimeter
G1 X114.625 Y90.945 E27.56867 ; perimeter
G1 X114.625 Y108.995 E29.20995 ; perimeter
G1 X114.226 Y109.086 F7800.000 ; move inwards before travel
G1 E27.20995 F2400.00000 ; retract
G92 E0 ; reset extrusion distance
G1 X113.188 Y99.907 F7800.000 ; move to first infill point
G1 E2.00000 F2400.00000 ; unretract
G1 F1800
G1 X108.461 Y95.180 E2.60899 ; infill
G1 X108.835 Y95.889 E2.68195 ; infill
G1 X109.206 Y96.811 E2.77250 ; infill
G1 X112.907 Y100.511 E3.24927 ; infill
G1 X112.907 Y101.397 E3.32993 ; infill
G1 X109.532 Y98.022 E3.76473 ; infill
G1 X109.660 Y98.708 E3.82831 ; infill
G1 X109.689 Y99.064 E3.86090 ; infill
G1 X112.907 Y102.282 E4.27545 ; infill
G1 X112.907 Y103.168 E4.35611 ; infill
G1 X109.740 Y100.001 E4.76408 ; infill
G1 X109.740 Y100.308 E4.79209 ; infill
G1 X109.696 Y100.843 E4.84094 ; infill
G1 X112.907 Y104.053 E5.25452 ; infill
G1 X112.907 Y104.938 E5.33518 ; infill
G1 X109.597 Y101.629 E5.76156 ; infill
G1 X109.450 Y102.367 E5.83015 ; infill
G1 X112.907 Y105.824 E6.27547 ; infill
G1 X112.907 Y106.709 E6.35613 ; infill
G1 X109.247 Y103.050 E6.82756 ; infill
G1 X109.187 Y103.254 E6.84701 ; infill
G1 X109.005 Y103.693 E6.89025 ; infill
G1 X112.907 Y107.594 E7.39288 ; infill
G1 X112.907 Y108.343 E7.46110 ; infill
G1 X112.838 Y108.412 E7.46990 ; infill
G1 X108.735 Y104.308 E7.99852 ; infill
G1 X108.424 Y104.883 E8.05803 ; infill
G1 X112.396 Y108.854 E8.56967 ; infill
G1 X111.953 Y109.297 E8.62670 ; infill
G1 X108.081 Y105.425 E9.12552 ; infill
G1 X107.718 Y105.947 E9.18347 ; infill
G1 X111.510 Y109.740 E9.67203 ; infill
G1 X111.068 Y110.182 E9.72906 ; infill
G1 X107.312 Y106.426 E10.21294 ; infill
G1 X107.095 Y106.682 E10.24348 ; infill
G1 X106.884 Y106.884 E10.27008 ; infill
G1 X110.625 Y110.625 E10.75205 ; infill
G1 X110.182 Y111.068 E10.80909 ; infill
G1 X106.431 Y107.317 E11.29230 ; infill
G1 X105.940 Y107.710 E11.34969 ; infill
G1 X109.739 Y111.510 E11.83923 ; infill
G1 X109.297 Y111.953 E11.89626 ; infill
G1 X105.429 Y108.085 E12.39455 ; infill
G1 X104.883 Y108.425 E12.45311 ; infill
G1 X108.854 Y112.396 E12.96471 ; infill
G1 X108.411 Y112.838 E13.02174 ; infill
G1 X104.304 Y108.731 E13.55093 ; infill
G1 X103.699 Y109.011 E13.61169 ; infill
G1 X107.594 Y112.907 E14.11359 ; infill
G1 X106.709 Y112.907 E14.19424 ; infill
G1 X103.048 Y109.246 E14.66587 ; infill
G1 X102.370 Y109.453 E14.73047 ; infill
G1 X105.824 Y112.907 E15.17539 ; infill
G1 X104.938 Y112.907 E15.25605 ; infill
G1 X101.630 Y109.599 E15.68223 ; infill
G1 X101.370 Y109.649 E15.70640 ; infill
G1 X100.843 Y109.697 E15.75461 ; infill
G1 X104.053 Y112.907 E16.16817 ; infill
G1 X103.167 Y112.907 E16.24883 ; infill
G1 X99.995 Y109.734 E16.65756 ; infill
G1 X99.353 Y109.725 E16.71608 ; infill
G1 X99.066 Y109.691 E16.74237 ; infill
G1 X102.282 Y112.907 E17.15670 ; infill
G1 X101.397 Y112.907 E17.23736 ; infill
G1 X98.021 Y109.531 E17.67220 ; infill
G1 X97.365 Y109.383 E17.73346 ; infill
G1 X96.797 Y109.193 E17.78804 ; infill
G1 X100.511 Y112.907 E18.26650 ; infill
G1 X99.626 Y112.907 E18.34716 ; infill
G1 X95.185 Y108.466 E18.91927 ; infill
G1 E16.91927 F2400.00000 ; retract
G92 E0 ; reset extrusion distance
G1 X91.520 Y104.801 F7800.000 ; move to first infill point
G1 E2.00000 F2400.00000 ; unretract
G1 F1800
G1 X87.093 Y100.374 E2.57033 ; infill
G1 X87.093 Y99.489 E2.65099 ; infill
G1 X90.803 Y103.199 E3.12895 ; infill
G1 X90.722 Y102.985 E3.14981 ; infill
G1 X90.456 Y101.966 E3.24569 ; infill
G1 X87.093 Y98.603 E3.67895 ; infill
G1 X87.093 Y97.718 E3.75960 ; infill
G1 X90.302 Y100.926 E4.17297 ; infill
G1 X90.259 Y99.998 E4.25767 ; infill
G1 X87.093 Y96.833 E4.66544 ; infill
G1 X87.093 Y95.947 E4.74610 ; infill
G1 X90.302 Y99.156 E5.15949 ; infill
G1 X90.398 Y98.366 E5.23198 ; infill
G1 X87.093 Y95.062 E5.65766 ; infill
G1 X87.093 Y94.176 E5.73832 ; infill
G1 X90.552 Y97.635 E6.18384 ; infill
G1 X90.756 Y96.953 E6.24862 ; infill
G1 X87.093 Y93.291 E6.72045 ; infill
G1 X87.093 Y92.406 E6.80111 ; infill
G1 X90.992 Y96.305 E7.30341 ; infill
G1 X91.263 Y95.690 E7.36459 ; infill
G1 X87.162 Y91.589 E7.89299 ; infill
G1 X87.604 Y91.146 E7.95002 ; infill
G1 X91.578 Y95.120 E8.46202 ; infill
